-----BEGIN PGP SIGNATURE-----

iQIzBAABCAAdFiEE4/8oOcBIslwITevpsmmV4xAlBWgFAmf1mHIACgkQsmmV4xAl
BWhSlQ//aq0xN6gVz1bZdhDqT6ykm1foqcgwcAJ0bIR7ayN1rHMgqZollfSremxd
yQRqGTDYpAYsOKeqcvbcbUAGNIDyoX3HWucbVu0DLqD3PGjIedyHsHLc/Mm0PLN3
lp7iUelWA4dhHfKFyBSDLphhjLj8xaZlvWsRPfbi4gSYJaZW+qrOj0+mACHbr1ai
n8N2CFKLfI3H4WXpM4RGL681uhw9Blk8tta4XF3WadY1MpQJM05IUajO18Bl12at
Jkcfbr8xZr4KHRLVvJ92Cn0/PmIH/N0Z2+4Sg4CU2TbN5SFRJoBSG8uTRfzD3Dc6
K4cecabyIufyIwrYO5rtDec5sewotaFKN1BZNIqfTauEe/sVgYF5UW2iodylTta2
87afCzgLi+lEiqITQQ/I5UvDUDNWq3epZWvFO6ODej5aXkTqE30zib2Mfbb/IjJC
NZPhyvgcAchovPsSxOQaDfBFmIvWRwNXKBigfSWQfx58jtgvlMzpxMR7OCcKI/b1
bpwq0g8stlva15Uu9MfIcjIQWxvVfDXv+OEMN8XeCrFQtbreo3/INLnv+PlvR9Fj
SO1sWvqKa4YqdUQ2DllPzA6YKHFClszu+IN03exYlP/CaEw7AWVkLNupLwfW+MNa
vNjjhwXfK4flp5WxqI7xhB+JKX+tp4RgMhSZR0VeY44ATYTWcrE=
=1jB1
-----END PGP SIGNATURE-----
