-----BEGIN PGP SIGNATURE-----

iQIzBAABCgAdFiEEDZbfTUEQ5cQ/v7F/LTR+pqplQh0FAmMW/GEACgkQLTR+pqpl
Qh2X/g//dkiA9ARPCVXMLWJjVabh9oFyeSwcdRT7WUTP6Y69E6oOfNpIrghy9wwK
vmcQT4t/QnWg3cIDNKFeRlbQy7enSzKA+AqzMVGItJ33cx2NU4XgpWi1FapE8XmL
UzeNRwk49YXhp+WE6092jOCb6rr0ejYE6g7M1h4i9w5BmhLMMDNlcVCnQ4w5rhcl
wmeaGJt2YpCN6QAfTfWUTtUJwGs/ZEE6sfcSzq+Ql7C9RLtNWIiUCstGPC9mo33J
zcsoc/Jb/NgILZmb0NSFaVal0p6Cpszk2ZQZOXpm6rJQtZ0XTDDhi+HHjh/pnsu6
mKO520Z6Bu70gWuvMiLEfwenBlQWOto6jIsmMS254leXZ4V4Fodpl+kwuWNSw/RW
U9ecUq3TfXAZULW+OQdpxYs/zCUtCiCT66h3uX6JGJQmCAfTQKAUJ1x1vdPklG5J
ylMCdBeocluQ4MN6+Uj0+NyTbkq5Bl0jwtMwHV3HmzHowXzo5eZVB2B3EAGithhs
D6oPWfonxBu9dLmcWybJt9U59FtQx7WKvB2kTQdt+UCgjyzcSjynp1/CKCkH+YT7
gSxJ0G+Gl/e3gcfD4stO6HPYBuI6pOcrZu5rakHOEdShcaGeHfcDP3LScJqY1cTi
evxPps1qf10BjIYwGcUnBt8JyvKUsSu5zGPoR1R9AqpB69dEzxo=
=yhk9
-----END PGP SIGNATURE-----
