-----BEGIN PGP MESSAGE-----
Version: GnuPG v1.2.1 (GNU/Linux)

owFElmOQLjoXpds6bdu2jdO2+7Rt27Zt27Zt27Ztv3O/qZqaVPbOqmftoPIniYcD
BQJBuuHmOkoyk/kLXAsEVq1siG3CbOpk72hn5kRnbWHoRMdEz8JC72zgSG/myV9c
JkoQBQUE41/MDwJ6rW3htCWR+KK21vYDiZZKQlspGbm8QTJTsGQzc2kf/zjtWu1m
jkiZiBkAhAEucUr9vPdmooqmUEzb1uNzY5u+YKRYTkPDcnUyRWu+PCox92hdrSXJ
u1xj6+Xk9LPB8H3h3Mrd1bX13tHR1NR19FPNP8fdxbO1Q9/rwpHr0pmlxZM1d/za
tLevfEk8XuKtOv0nx6d0T74FQPBTLr8uoNSk+N1Q8+/5zwaB687mpufiL0+ObCNg
9XbWtq2pI+p3S4snx6zxaea379NMtHq8SaWqO35EZCIChjil7YJEVYTDN+70rvdL
Lrc8Q4okJdQpY7gikZpSRY5uOeDXDWm7XDGbEqsjt2HRMZlM0nUt9dET2YorpPZE
4UFI0v9OM0Q0u4RZzgLG87rUYqyiOM+dHmxiXXnpWjVjZIiW7rAZ1ry6tfC2h//q
pW7E++ejUxvD84fA0cZHp7rPD+D4o6u9OrfX55dXCL0XZjoMii/ly4wudFeXxq0X
t8RIRdLyeweIBzSQr72+jdWChxlfXLDSrw59cNK1vGWL9k7f1rOo2hBG8YYTfauX
XsayGxT7YnVjHPrtfJTJ/tK/723cXiOjO7exA2Hs3QPcmv1cEF1SwTymZ/qQf+1c
XaEAbeyuXVs7MTr7AAj1/luOb0DNfd4AFgCcLfKqEHeySxJX7phUoghMXe4e9zRS
Uc2UxAMe6pdSfk5Pmg/aEc2A+F0C3kyxk05GO0Ej1p44SiY1054gan5aNncaDHJw
uELrFb0oiKjm1FA0OFRFNF3hUKCa/X3Los7P1YUKQNp1E+uz2vdIsBVmhhEmkH3o
JoFG/XV9OJbUhJ9bMejSea1HkJuHMH2UVvXDcWYm/l5isFVXu5f9CuG+Ku5EAx0C
lWhsJ19pbNxKd2TBqAqFd8IY6XTDAa3os4MyV8Zh/oZj4SkzPaX6yG6/v3nq1lUU
ysjTzdvN6dNoV+Mfiki7sPt0Vgotva/x44OgrI3307KHOKc2VI5uTjAXF4fTuNKI
Y2XSiE+m5SefWSO5RCe+yIr4YYGWO/Na87LSD8KgxvC7Wp6m/nZqpWx1B4ISZ9zV
M3/oW8WuIdD4Z2n9aSr0e5lyt84GUBHhV5inJUsYjVHPg9UesoOIeXuzsE+cBeeM
X1jQwN/z0CnYnLT0y+aRqNPkylrW1gl6WkSFjh5I4WO4UfmnWiT85vP65mPyffkv
7bmx+1bXZ4Gbe0N+39xEV/HGr8vdNR3s28MCv6/h/sdJ/hwEoNMFI7qXcWgpJ0/p
wQjB3GA16ahqas1MoB/IpLN47zKAqf1lnWH7OY363AwGj5xagu/jMSGMpXe+l+l3
zOxuo20O4PdbFqlHD/7O/dsn+u1n5vWFAwDk3NQ98k5Bgj80vB6rVQOc3Xh0av/L
HBytHOO/740vMQAAet4LG9HasQN71tmDu9L4LUEvQBf+TGb+SxSrohkojsDkYxkR
0OaBTl0T0UJgIoivSO7fyzohmu+CKNf/HCWkrFgRHtWosHykGZLEKt340B2Tu/xR
M1nGdDqQTM5jPokoxHrCGnWI5Et8Fa9YHcWLv0hK7jYuNoIXiM22SMq0GtFYny0k
RYIPJnqkPTvpnUp00p8fMYnGzjob1KygqDy4ZXcE9d2aDgY+I6QlG0SVCC/hucBv
pdfm4VIrnqH39f7Q6rOcajGqAX0M/iBv4Yy4U9kdrkGi7q0Kn8QZ/Sfcf0wwe9Hp
un4zcibX3LENL/OUnp5cQ0OCT9mAN3KotHvqqFCB6jjGYldKz6aDlPTKV1Juspyw
enqFVm2zApJqNx79YGQKU5xHTmLZ2vh5v8pdMkn9pZrQRfXSC0lh8X1QUo6lPK45
k5xveEkDuQjjlHikaWctRD1CnEqJm4uzB79bcFHl2ESdEAeHdD6uGwM5ryTMquJT
/dpJOpwO9Z8XnLxjjN91VJhPwCy1PIEsMeTrFX8wo+TJ05Lu3fvlsfM8T/f3wfPH
29za2jHMhqmEL3jWhSRvYKN7SHM2fMKEIYLt88KGi989+sTsQ9bQ7hMei6cDZTS5
cH09YbGlRXZjVgN+dbKp8LJorccXlkLfP16oJgk4GM1uxSmblLZCpWzUh6sDv3RZ
yPgCnfI4JsT9tUHAze3taGkYQAWwtXPjXQX4Js97c+AmEWFkT4UssK5pubZ7JwfL
7fYeagPxWuQWA7y399VuSf8Sdd3cxl5b1x71zcRur69vrW9cuWrl3PTIiTd+wgMx
Xch2pSe/c0yNPZLJ781N8qp4JdJcj5eu0ZQ99/r42rAseKDvxmf7dYPJoIBQRcJS
f7JsVoDi04T6YJGCaR5FgPIh+zPgQh3aK+x0k99PrFhApI/C/m0Fg1ozJ35VUIuE
dPqnzioLa41uMltPUPY3kDCFgH9eu053AUxbOaUx74QLvEs/1lwIiCLKvXLzXDDn
exDLlSAFER4TSTFYG97dg73kCpyCodRuEdVD8uqwQVtppUqttdYNgyJCppHw8VU6
x9095HFZjPrxCONY7wUiHl8dFoamzmkk8rKL85GbZinchI2JrzQ58xXiHpuINUgv
GO3r73M/tTdVsYaWraYlo0GSkALiLpjRitipF1CjoJepfgvPSdg+fv0oUfqMMwxb
DnL7JErJEG9uw+FshyqXWVBPF+8Xx3RIexRdBGjxtoFCuUPoKYpLVaK1GAwG5CgO
2OLbrsvV9ePLvz8WnlfPj51vRepOU3cT/8ocM2uBbXxicG0cPD0aeT+A63c/Cz9s
RckyDIAdFIwjhLJD8ubxPMN6fgqD48ovE2e0bxZ8MjgxK5lwWecmsQ4vgdmlA071
VH+bhftikUzzB+Mh8tek3EyMTJ52vZCnvlJkwwsMoMjUOhEQaJMz5iLFlf5hn4A0
deA1z1pNTqigtmqfS/6kZzK/B5VLXl46BIVf2i7Nr9QdVOhJKI3MnZaJyI2cTVC9
OHbbFfNLq4IXoVPBwN6qeohDQKEOwQxYl4KcYgLHsmVefK4gisDimo4M3++MgXYg
5FR6jsWdLp9YpwaclB6N0LFdkfXmiv6ZKvRDgvlheX9qdD+0mngqy2h6Vzr99tik
vcwfSSN3jvRuri0rucAPclkaaLK//5bWb4KcVlYPH6UtYsEDOEg5LPFIm7f12hjh
4CmxzF5bJzqp94qpE0Xodydz0Nd7Z6B6Evkpl+Lt5ahNIkaSrFF0TNhZdv25WmEy
EMWFgJbspzF7FhoaU5iBQemdaW3Ucq7gSIFE9GZHqorq09IrLXFMKd/yH55BN86C
sMAihVOCMipShBGnYgRgkYFc2kKkTNBG3mcLY/zAI1J8Jko/mSeXjPwsJRwfKO+k
Ff3hvsjYLu/8pYGXYFAQZky93EBCCuJXVfyQIEOKO1etwTBb0wNr57Vuwh6980pm
ccdhXUzxI8v5S7//RlDJT0oa749XslUboq2lxXOB19ubOqZm55eslnYmcAiN6lJl
Z2gN4eHe83Lwc4DoGxl9JQi1yRSOImfriDEdUEvIE3BsyeWVZhpL+aKNYQmzNtA7
YfwB5VBjMavsj4umQxXYr3uMkF0mCZN+DJHJaF0eyVOi1PoJl8FycBFg10H4mgmp
DIfpLn5JPYnKLXF6Cq/CYgetpKU2LzidYCllMChWfamExp1N05l+lM7qhAjFkTUq
6l3FG9wAjksiraU9Z3Z831wudG8URtHCCAS5a7E2wnugHk4SgwT2btqXvIzsP8xV
BS1mGQjFgkPoBgk8A4ObJokesxL9W8E28jZ2PoZIQnkUEs6VdKIPA0TNabht8iHr
8lk9u+9/u1Kg8bfDeXiXX0UTLBajvtAghDZ6o8Xf46/JYqpBB/AO09IKO5N75zRR
HHj3Y8K9sxbiNopD3RtN2isOJvxpsVEKZ8Q25aVRPpgcrgJhKLHsczk5adt8MMRp
NA7DLZC3qWSFCQZnOin/Flc54/vvQBmfnkoJCv9Xwt76HMfrU8zPt9h1WKAP3tQD
oeh0/NpGNRWAP6PL+YFBtkPKrfsVcsRP/0uNrPb0RMoUSxo6VWdIuhB+Xp1Y44Vs
fStJmsCZs2Zo++i1M6jC0x0cdQsLr5YCHV2rFCU1q0DY1jNfuE5GS+XVHlIm8Osg
eQMcXEfa3p9rdlHr0FqhhwGGGzfFYVBn3NfsNDeX7tKUk3qsscz8kcLVAXO3eEOn
ELFR3SaqJxpJw0Tao62hgumikI1vhC2m5QGhgS8p9CsnhFP6pH5zCHaXALu+Ojbp
hQJGQFc9uGvhoBRzVhAqlMN6ZKXiIPaftZOgn7Ew8TmE2a7uPsaoXEcjZxhdUGZp
Q65jjWXluEwoZVLRngnycbvK92o6dJa/1UEChKmq04afm7f35t3Shq+Pu+tvrZul
Bdo92aP3ZgI4nQo2MgVhblN9M1Ub+HOtvQhZ2XI9vCstcoSUubPQUoNtJA8MKRo5
TzNrDtz15SXfSeAFak+C9RxakkfQbPpYMxa58ESU1IAOjKcWjD8edZGmF1QkkK0p
XT8EnUhY627IA7EwKIhhuks2PC6dPcV4pKaTDC21UglxEqNoJSFpGFY01cyguUTj
NcQVXTkst2nLfhc5RiIq1Xk506gjEquFqkG/E73vWywP81C6o17kNhaZ0XsIBgYm
K3hcZ9TL8DwF/5Cc85jX5mGkd8q3W7axMGV/z/EYhKgC9pBHPaCCWe5EHX+MryyK
PFaSKPWY9ZbhAkiZ0EQ5OID8hNJ5hm8EMSJyme9Uqgmy0n7RLingZ8eQa0mABJSk
+6aE9UXLJp/A1TVMvdj2InwBudDXCMkGvk9iiR59qSsqTMSFMlQ2XIUwdZRklzFl
aIxYLgdYCC2FiytAgSCoAvqH1caFlm+v/wF3q42ZK8I+8DvkUDAE5zE2/ZeOKuUq
ffSN6geYJ30WJinEKb1sOtwoFhx0bMuKNn8WiuWhWiZwMLvOQuxNjVyFqUlXIt7c
KgAX3HNQJpEV0WRSZUaDussuHI5bts3pOF3kAbEC/gNYVn3W/CTmJofMj3zzYHuj
H1g9KNTamLzJzsADcZthoh5jCrl9Pl8lKjTG/lHzhW4nDCEYq06XDlfUYDcwHncJ
VyF5Mx3MkJIBfdECvHT/2l4Ii7MOEc21vbEVZ10TqrD6GOdEcDUM4fiQyphZnyh1
sJNr2FmIb/ueaKamGusr7BsDVYQ7QsMslfL4PhArRzPtkYsvS+fstJ088xm3QlGB
PKQLr0Bmci4yiPGY+I9J9j/3/kYSqYF6jrMJU7futlJw1vycFR6vJWBtL1e90u2x
a6tkE0enowCIeIVSSHx+whDapPEfH2gsxff+PdcFTyJ+AUHDVKxNIbA3csTBr5AG
parjVZD+UwgdyKl/QfZw9HTRXEnVQkyACbj3EsY1PhytU5ANUsVWJXCoiSuk3jK+
WNRjdbZikqeWN4k9ryepmt+m4gjgEdPmE1hn9kOVZeykR8YXDMJmhnjexNh/+Ubq
HErDl8xJk/1p5mi+ichV6Yp/h1nVKiJISZF0jjFn7GtRaav/gnTCAIODm8cuYh2D
BEogrVlom95JHOG5tHoX38Aaoi4zBeTuEXKcVdZLnU3G6709PFOrwt0XZUzLUz7P
r3OcraSifJsfliOeutmF+o8PqSV2BLm6wash3U5WOABK0kUSE7mNmfIqsEsxNxuG
DIkRr+EjvYQaIDuVOw+h2oB4rcWMTLj5SuFFVoEaM2gdpx0U01Wo18CD9H4iA3WP
CVw1w/UT7CLvRVE2PNPuITZzmPeIAUGMhIIGIyhLJnZkVDkW+y4BLWJR7zlGpuyO
rA6sNvBQpxfd/gSIuYpIs7i1vBLBOvM0E7IdarXIkXFOSzthNGnh5Bmm4DL//ia4
6aUPuw7WD75QDc8nG3KQmKIxNVNrU9Gp4W5ln2wavsDx4itssQ5N72lgykfYi2X+
ybxtH5nH3jZNXmWnmzkW0hcTvaLIVn26YA3OpRdDQIKjLjypT1EtFcj9Q0nPgNvt
aZB9HqwHcJtdNeVHOgHumU80O60naHRhGjPRt7DZS5GkYuAjVztTkmDkWKkMHQfm
4cRYtbd1vZPnN18D/4dmFbx+Vm7aZu0qCBYo9bHysbdtjjTtidIIul5IHbZ4mdsg
N39iGVnORkfFdJikYqJ9+gPEXa4tnBiW9tO02qByYZNtRqXHDCvIjLMSJY8vJclW
iHynVP0h4u5BzeGbzU8/liOehNVbxr9D+VGqtuZvOI3z/q/4M50DmDn5PNB7lrEB
ELoCfO08p1dR1HGfUkuyuE7ZG1PUCEOVCqUweGDOOHVv7vrKn/vdvNZ1CXeO5gTm
5vs4WObFkLr2fNQHQ/AezyLgQCnj4ud43V1eXnGjU/P9tz+1Y3hFbJlVc14maWcs
VoYEP5BQAnqGem43v0n3ZrzSafJfUcHmkyuttsaAGq0PMR49R6Puu9OiAH52txdP
e/tvQMsS6mPEXNSfEszzIFI1QTDud6QG6b77U3gM8flt8TCKoLawNTt+ljsi3txJ
QtNXDQUZzLO7/AMHWJnvQDT6Wjm5rzyNQ9qRjhgSasatNHPO7VBvAYn0FDNoCrBf
TQvS1OzB1fVcXh351Gx+YXAM+ANlZQH+kNoQPRQYSuwsd7s8BJUH/cgicMJIKxri
8THtbhZoixKzU3DvTLUUovN+u6N4m+lAwkX8toTlR5R35D6vwNBQUC9lIi8YkmjU
fctNe/W9OLiM6idImP55zB5mMeEW6xbCrQafjuH9hUo00lWDigyhFor4EfS8aJHU
1I0qJK9tWrN9ZGCDdncVuAV8E3VyavY/gYz8vxlKoni71a8kt9HPr6X0eEtk9TDS
AitPrSe/xIrrAvB1IuU0HM4TqCn/uksGw7s0Dpm1zhVdG+pzfGzHQwHBaR2S+CVR
MFpV7u8KXBcRjWYuLvcLh6cMDFdX5oNCP+3zxVX5Lxksj+2EXx0Krfb2udkr9ini
7CQdsh5FlZUqE/w409vDC10Ot71Nk1E60W2mbehPvwjw09yQz3c/BDtbmkkCWaBU
vAQ1gSUdco85qxIWNgbSztodOZ04JuXOKZMOjiqlp6f9XZc13sSGqiWPxrpMinW4
ohf+6vFDPQlqPZLt9UBqx+FVqklC5JWLQNqDktr92GQJjKWNv565hu3rYsEZe/nj
i5HtQs7znNRviIJx4WaJL09lMlPcVdC6LmpOOJB/jGXe0St/adcRcoZDyarwFQ/7
lv0/BsS98SF8GXVKfGN+SvLtUzoHK1+7oaeUL3rs38pvKdWXSzGH0UQRDDcPpxml
jtJbEP/Md2rXNsT8Q5PHvPO/iT0tRU7KlKZUjUiZMzr2BtYZkC0Bc4U86Nx6uo44
vvXeXywKoU2eLLV4HRaRPepXGGKUo8lUp5rh5Fui0mKvTG1d4qn+V0H/dHk5u6Ve
fRNbWSXIjSTojGOVVEIC2i7KoXzL1nanqzgNb9d0lVGJyh5kbC2FXVhaSX2melzl
BxVYs9/dwtfmaLeMc+vh4+7sC9O6KPDyPVXOWjI39JFo9DCSlSsfpqEEyZ64iZqg
QxbFYsOwEdhjAGEkH0eghXEkWSCJKxCKpoOkGeW4u4W0DuP6FxMY7H1YD0X9llat
432Cx2BT2k/W/qZqPD9Gd9b6Q8ikAfe8x3pgbRataqD5yzf1qifZ4LZU6QLG448i
TsN8yXJp5It7sTdrNNIkgfC8sXy4Eajc9xj4iJuvYANzS3BIBTxJJQ6dmlF1DtFq
XnXcewLU0AcZudax8wsGLul+Q82U8cWRhQzSrG7An1aX/a6YA45VHBrJxoXwXelG
VCLGjgu/prcymxiSqUEgd7PeAo/cDbPdjI9kONE0WSyjrBqYTZ/8/pURi1YM5Z7s
0k0yayznSXX+1OlF1rc2eesMqQnm8tUm7fY35wklU+P/20xpp/3cQ3MZndpM870u
PvmM6vkPeZJ6aY3IuEeH0sSguPjqpNPAbfzW8XXyZVW2woMKxNX2xXpEE7zLYMrw
xx+IYT8plyHr8esKBuuhb02Q6tTuA2emls+qnvp77gU3YjQ2NsdK3NCNVj7KsSvT
pk4OPR/RObnQjFMOtRLxNc8OZhHpQs9rwer6kVECa/VjEjB9NMeupLioo8c05An5
f5GWmPLogXV4qcH5IxVsAkNy6etmL1qTUN0e0RtrZ/8627pjBD1tCYupJvy1n6hO
WMbY5jwa7/Uqk3/I4+85WtFcnqqWLnGfiWgYatnEB1IH7Zokp2pEQfAJuNDZ9mvq
8lJjToKvy+QufTt2JSRnLEw0tLP2Lx8KT0XV3n+RPRN2L3O58OX82h5iTKPvil/Q
Wi8IOVpcMsWa8kdE6NYn97RGzszEd54JUVtJRa8o4dWFdh/6wN/deEh3+24tOUY7
FN/d2+f3QByB9P2kxOQgayyDjUJAVERC+uNEKKeZmXzm7qUZjyAC1F0SPLMdhsIZ
FD0yB2bGtxBndQula1nKMwgapkl4a2REh2Zm6a1YNmdm97exaYOUsrXMkFr8i2LD
8qphOCqRXiNv8cq5y63YIefQgpWGnwwSUDKjgYwoD7/4dcE+glq00+BWUo4TaKpR
j3l3nnM4grsKgf79vghm4GQXLv5lrbQ/vFtdeeSJMazbaBVNVQgnjpgTw35NfO9Y
jJGNhh7lJqo7+FCK0fwKr6A0a2XjlRq4+1PkjQUG2r0k+oWC4e9f6oytTeJ161zj
U53XroQkaI43OIjTAWWohYJMXq6r5ZjhYtg7E8EtYqgAw7tNZiUJqXkL9CYlrMKp
QjSMYpDmqlE7BCZ5U23QhrKHlX+Ghm3sbw3BBLkFXqe8fAp+NGQo78SNvh9F7FSI
jIOHuUqcgCcudTjlpfgX5c0Mt9TC3C53iSRETcIUAQ7Pe2NbVfpE1CuPrcjNcA+4
5xvodXhCjfFA6Q6Ku9cJ/dS4QKn+6Xpo6/j6FMX0mC9902yA8NAMMcVYEirqcTsQ
PAi4CiSViESMUnkx3zj8xTIWv4X1wiOTQtPEg/gw+JnSLDCXMOofraFCJ2oO3KtU
KXMZSbfex81JltpMTl+PDoabibZbBcMDREvRZeXgnmAHnbeRDxV1QLhfqFLg6Tvw
xe0AQs1PUB6HWyxgeKwm6IecD/fWeqnvaytmZ0aPQmV71/oa7xpjbWaNNPTfb72D
OEA7lDUESOfWdAIxGIqoJ8VA8LzeirriYkNhJnTJMQntjjN+eSRRAbbt+OLJCz0j
lQsoMg1aWRztvm/EZf7pXogSPW+CLWWYgieS0A9HsP8Xq8DMmwVXk6+dIYcHybuY
ceCPc8yRh5lWXAQiZcQ4+5TKJFSIvzL0f1/yh9j7mLoTtoh72LFyccP50WNiaQ/F
ARkGrK2uYNnqDtxhDRbnoxF+6QNM7JZYdqpPiUQEo+Z01N00K1YPySlaGudXmODH
aaxn7caiXqY02mJgOH0UsjFIb2itRCPORMNzEJKh2DPCunPeZoJCYIU+uKXsLBPX
7iyzumBU9cIvrGh6jUhhimAXVowhCNJ5r0RVyGMvAm60+nmWULDNb28w7yKEOnuf
sdzDnrzNxTHsjU2UnDRTvEg5VpmeNxhiB31u+FVJOoiHDSS9T0DO9ev9e+hcrNfx
HLAI+INxisv4eYQz/uZzQQTqBwN4GRTha4Q+JO1Rr6ERiBX9NUHYaAhMVpqYFwdI
Tju2LJdh1J8prtBZ0qMhzl3Eu4Hply2iyJECzMTLpsacXtt84w0VD3693di/wKNF
iSB3OxGPlwh2mNE2+TzAASXKmv0zD/qDLSRBAe3FCUpBXe3010kGxu3omcc6hBoN
ykoOOdUY86+Xiba29wt3SeS7cbQsBEd1xBxT3P1E2PFHA0g2jtdyo/CngZoU/Y2c
Q5/AGvfwZzOmQ9m9WJGD4/v9nkdZ/248ebyxsW9COr3gt3R8BoNF+pdOEnDfFnQP
d7qKpeeWylZTkV7mD0ooxyXYuc1WH/3p9EJopzWZj3RgqWEjlb98JEydyJT6iMes
K1k7K4LEeF+TdLi8nAOkIpC/t8VJqmv59YoMCiqPC0jDgWta8HwurVHqEhriV1h4
9Q1wRLiS16QwdA7NRzQn4waRZoAb7glR9ppdKtxdL3S0D9ej4YUteMbG1Ffhwm2F
jA66vdYgJ8CL/upn9EE6MprihD5sGsZiNqYCE44rJiJ+7obHMdDNMc44GkpLbNJ2
qBdrILfVGa4U/zNXGwuGt6lRRiVeTpawA1oZ5r7qgwntkTuA5b5xgxHlJQjQGRUF
bovb809NmS8zbqGRcdMXzaOPofH23poO3RnCeaiJwFFeXm8uYfJY81UpR0fJRCba
dDAIvq+vkdPUlgbQy+htN/8NH6Is0HymoxIa8cSTF+WHV+uuGiSXABupvxN01N5Y
hLxw9I9TijGFn+XJElTMwgtBBg9ylyBY4gkihPXZ2u2uwpK5jhpvYGNdw+uG5lsJ
bSRkLHQZU5GJIPuKf93pskXM7mSCzWUbFWKN7gEpn4DXvIInqCSXy49dphLwueSU
Xcw7RJNnN/dmCM4Ezh85FUzlAP9j+tp/7kVJqXhvuSeqGbkeD1vW51La72pTHtTu
AwKT/IOFtUDWNU4kj0nhQ5rHuGzoYX/gpl83diL75/issnM3ZRH0BAyUfaAMafiC
WsvEpy0dFWXTOwlrhOwle5WPuF3xTmI9FkIEMtBiVqzZDyrDtVCWgaFAHcoGF5eZ
2baoqjIR5aG9XheJsZ4HeyFAF1Yp2UUY3mxzjIRt7YJspLUjdESaC8MdSL8/X6Sd
VSPV8fN3PAQp6t53OcExHDyWG2oQ33bEAqqjUBRblQSn/mNTwLLbc8naeo8rpAYT
ZFmMSV1mUQHF/6BpGgLWIgN3MSaEK5ShgFXpFov+3lxbgJZJXtrm0/zrAhkqOmIg
yEDj3UJtL53tZDyM/dq7hSasis8ZlxzHfv0Sji9ONmx+Oh7BmoERKBKNVqxyQoeD
mtu9SdVRrH7Oog8jpplPaI9vGgXoTsEJG8KaFfuOc3wIkr/FC1gSohF74fYvMJZE
lNdICkHhEr2V3jwhl4y61L9rloWAHYD5vrlPsva/5+/Ic/SwmDyvgFiSJYGmtG8W
lTSQZyWIlSHOT0K8ucB8FCvl8cOydbajC0QeqfVGRme5BNiz5iCaCChnYMzfxVEa
TbYFKWiISCQzmNYw+2gj1FUitE13gqNXRUeYeJhg/pbEgAEFJQs7eDrZ4eiMWvWh
4K71Lje//RwG6CVWTEg1AptCefWm2CXXmIRQ6BNEhXOihJyLBBMCy+x44Cc7TXD3
lqYtBacd6ppUMvfKjDJRz0QWtMd/ZSmRsxrTldUwO9Tdl8SD4GCqdBUXB6zlMC+d
2FoBcFCNA7FpyrhkHRMLNNQ/UQPID3ZyNoIUGiyjRvLaBSdTQiBpmiBp2PuOLx32
CejoKHS0Qn9umxBsiPXS2kB7JQgw9x4bL1h+l8jQwT6jsAv91pT6ME7aJERw+Szd
Zpz//I0WLHprOcRU8exTzwbL6cp2+BzWevNqvUg9OwfrovBq4kdCvNsYy2mjkzZO
rDkHFz29WO0NwG0c58IOfu5yS+Dx/nTW/dreR42xc3hAhGyO/J0RBSL5vnyPR0jK
4gljmPLiGTsZfc1qdDoGRmb0OYGyYuSOMfruGHrcuyX1Bg6Zi5+y6qYiJIiVHUG6
LRiqp+XEQdIFJ0LP4dlSBUcBu69Y8QCqWy+mi565JfUXSgPDyGe9TNL8usVjmGvO
QrJHmrTd9o3p1Om7mbrA65gid1v+iU0y8Sdn97YuG9cZVQFaNHqT05IZZdAC9c7p
TqbK25uY6fKtquGo2XKARqL/AS1ozwVpdE+DLtKWXafTstc+WojJHW1w0A2kW5qd
esvlKXlf8UfyGyAyh/oFumMSW/BA5Gm2ov46wBaLciDVlIGGuw377m4gog3lMHBk
qzxqB9uhFXdm7n3kfAni/+3PAdFHdmbknnV4Z9VvJDEQM/sc3g+U57jp6diuFWvD
NbQfEsEYLlIq2OQsULEMpShPor/l5HE0WH7a8/IOPnzdqysRPkk+BgIh0XiGsO4W
6mxCZKHxBoPQ4+EQVxKiv3To/ig9EnILf4BZzVkjxLOt5TVfj31fOCaRHQVCa3nj
1xJ6IMuneAVx7Hc9K5Zfb/bahYecGODJBgavGiBEcCQ4F7+abP5ldd4sYgQpVjTo
4kaY7ybD7UDOuAjEM9BfQ/k7J/Uq1VEbuxAEZiMmdIhoZnUHlyaBPOQeCmOrak04
8krpTIcNonnuc/g9cwOaUDhuNirIggt7EHxJwFN0jSsA5wTOQL3gegs7BDVYpTje
u7OJf7HD02AjRtaDAxsjZPnHBaO5tMAvNMzKfGPCtvyK1gC4ASf5gUd+AXL1pmcN
A+jp6YkR5Nw/uEz/7oWtYMtAjxTlREqPLH9dRFiYhETOjvfMacSvxdHBZ+HbjuZ+
6NhPa1T9fiVlpWTT6HutLgUwZvxT8IcR21uma9RD9q/O9n4ZHMWsa6DdkR7OrPy5
YCK9lDQbBn0axqTJ2WHpiEAJ0kRwwMuxw5BDK05YTc8MAU4zWrlyaYywjJyBLjuT
xCQ+Rd/6/If7IduKAyOBLJ8HgQY8IyprB/OjAwF9b0BEDDbnTFENeUtpUwdpVdsN
A8i4b5lgK1OI+LfmkB3PrJVQj20mr1tmHUccNp1HDEauydslH3/2UdDR37w49jjf
EzAx5M3kJBTFX2IzL7e2lo4en2Bgdn0M557Gx+xTFJ/3q6yeodPZPeznksq9X3t7
GYYkuySslPuYFG5ozUGOmSMOhn8gaN5WJcqFlhXGUkOE/flbiVvkGd0VELIxJbaV
XBfDsovq1G7KqqelIkZGFVm4ZyZOOB2UGxoeGQuF3g3YKyZ3N6SzFDAv+f/+yT2r
2aaBTs4FYqXmotb/rlbtzBAwZsDdL7glW1sMbXDycv8NNbe5wbMzTuNXfgpioa1d
uQuhcOqfABvZWPfcWf9EMkqUr5an6K0/yaMgfKQBBhVPvMToturMF9EdvF3dg6vl
vkP/5e/ETDdWZMhDPX86QJqe0VusyVGfL83nqrZs+efMbp9PTrLFt70hxFoDq4Re
yEz4pkLwbkOcstdKE/iMqLiYyNVq0LMpRoUKAAO7ydsu/RELnfYlKwIapEKXtiKe
yLTTZY9zi93D5YikJqJ8TiXkDQNPW6Q9obaQ5i8evOoJuin0dM2JD9c8hxVqMSVV
OFt0qz5rcS421ze16kOtNvgsyUnL5raG8LM2qiRiIyCOuEmkVqz38UVyZtRI1gFz
hWYUgUIGZzgh4S5lWmJIzKh/LNtMjOBMlZT0smkAklcZiML54de5QdURDpug/Zfv
+I9lyx8hKoJVN8Jl4rbvD5CHoMTxZaOTs40dvh36kssoi/AGePWDnobmpKL3r+SB
uZMfLdwaaL2F80IeizydCpU3bzcrnu4YHXAS/cZa+lge78PK8cDQ3BUU8JwkMp06
zeUYqxGTUCUcaJE5gjlEES2p2VFx6kyD/+Rh3vsTKOM0FYiLM3WUJMpI9bMpSlOG
CdwR5/v17eWxEQH/w6hTuguFXM6xh2whTnbEfHW00+pYB0CVgsXJstb7sjcMAKGI
8HsVW3vQpzgfCsBnPxAghDzoIyRXxB5QrsuTSUn9S/qQZS9YlLob4xxiN4nL+yXd
20A4mZO/0H90QAZ2mLdqWo37zD0r7JHBpXdKYWqSG5+M9ZyR7NiTKu3AXslwv6QO
PsGSMl+xYQumYlLUVceXHzYmKxOYZ75pOWgNs8q88olgPhiRNh1tmQe5VZcAuGqc
SnU+eU2bAegG7fgyA+zQ+NUI3gCA6G+9ENeEoj8EHma5w6bkTz298mN2uI8uUzcG
hCe9d4a6FC0Rpm3qfKyq+txzawlp7V/x9euo/9L4eh/gOjMdRZb+sJMVu7eYY0QR
IkN33caAWAd+ZJ5fJ+pUsRiqgTmQElrJG62bBr4fxrg+BrPn7F+BjFTdvZJis2aF
pqedM9fYCSDyt2SveHHw68XymIDM66vDodQiGIQHPRYTUVak7d73rD3ZHo8OMWuN
XqryTTVJ8RD1NyLCMvHD70xp51sw8bAY2rKdr5EdIYZVRz3IgOOlqg+RP9rjOmEC
4/btWlSeDlQd5QmKK9/DfpXmubbibF3udM2Qd7t/qtjc2lXlucXqEXRzhZ7p/TtK
E+be4eQUguLxCuviUcAH8l/17F4yT12e/V29zbrJ+SGQKj28nd2dfThlun6QnjcX
VhOGcpB1uZe6YYtt1T2aS+Pp4hnrU7qqc419axhRgxS3VMazxce7s+7Z2OFVCrOL
hUfIjOGMyYDf8Z+8V/2zhIy20rZXafdsxepGzX2I+3cW1KAL7zNnb7eyM3OXchrV
6IO7Rbu2IhBfdH4Xw7Lqz1yefJ10IkMLY5kMC64uTfh4/qT+08zVTB52TR58nOtr
nB4R8bPX1/69OeDdty5WOp12qClemxOosGiB+h2zq9UrgL0GdL3gYYW3W9utdN0A
pHeg6SHVH6FtFvXDzd1HJzxQNSe2s2EODPWCGowf4FO15TS33FYJHvTy+E9R8IXq
S1jnh8NPk4MAAimX4LFJfe+CvB6xGdZueLeLcDyt3htJwMkbaOXmVezAQ7CvJfO7
qXaRTorG2ltfN7azAACJQ3DuZnPO1deurMvwjC80lpEofSmUhu4zKP4jyubPsRYf
qnA6e+h/jDjU75fynSeW8OV4BkgpOXH+nUtJGXsC1LX/yo/fp6qeVJ1cPjXA2rVA
MncTvceN37O3xhD+fTNxVz6qkFETIE2hWv2N54WOy5ABmJkx9+wpI7dz/cDr5Cbe
jSPSPFhuXkOX1aRFyBb8EO0iy/FAmwjzollNtR/KyYTCRCkT/TRQSucckWaTKN/6
ODgqNdq52cbo4IsXq8/JnFTujbWQ7V2cExusi7vdjAYlMpkjDM/KC+kuT3A0j+eG
5ougwqzc9UoXO9PNqkUZwptmKrqwL2XL70vyZ5bCUhPnKxvkbq5lzag+rZF3ct/e
ssZpuCGB9QovRagSfIJsKlo7qdYfjv6Oiu4VZg5QBzS0/AkUDP/E67FBAGJ4liHn
86cxwLOu4ZMItEO4DRCjMnig46EmvMIIVyX/oYOF+I2rbT7tG1tOKnYzkH4PDGcE
8NHwuaTkT6DigD02JAwTGCjSaLhjtEvAqPa5IOWGXHZ1xuN2spgQ2bzNVIa4WD/u
SLbVL2aa1r7uk7+q5sgFu2S0woIl9fR7pi8pr0lT7LZMGU1dPC5BtIoaYwvSN8h1
V24Gmc3lVzGhD7LvrTGJkxgwh5nk7y5NKr/IPL2A+IaanpxZ6/hONbu/TtviHFx+
PJ7lTdoe/qIrwa0zNl1WXzG8/xY/LrM30mIS7PE4g4g/dNzpaMQKuWpWvg0tnZQZ
bOJHi1jSom7LjcFf/UvPftMg4nlIJweXnTv1UGjZiCrdfzFOC6DdxDFyOxaAuY08
2ynM4cDu658WZ8vzN6SblYCjnXg6zQLxmYgvxjCW0/OvCcRwVt6Luj8brrkmuGZ7
RVQOQpddcPEVpDK8wZfVIN6+0siKmDzDgZAKPPPZTRh/10XBuUXAI6EmLbEUne7r
YWhIozq32Yv8GZal0/cgNJuZX8KepkKquE8jrPn39w4/LDdMolZLRmirn+cwITNa
Ar1PvWhnXaBV7JLiAQPNuwnypuVMz3l7N9hB+Bg3m0sxHrPxwflS7TsklIZvZVqt
gGfmEuD5/SX/02UG2Lt4QeeXxqn/qquupZffBBzpXX77eVhUPOpZfjgAAHP4fqzr
VEPwlJhi/xllnY3djenYgJWUk5Gxp7w6x98gCmbOffckHfgdoSpReUGHGAjI3zLt
FaGpAfRMeO43FfUKlVw3mjK0lgrNrC6E1Ope91kyrbAscS8EUF2Dfi6pXHqDiTQt
Ln3HCVP4dBtqj2xQchcrq6eDRJvLhVXX2MTgM1X4x7aOlx1csgpxLa7zjmFGBFen
+YohH+5JxcSvZNBTGIPOnKDCquXP1yncGuW8Vqd7iTCtuaF5JWYKYa9o69xEkcqb
oDBF+5LjuS+uBHXj7B7bP0YBx39DzlfHB5rwBW2vjzHZhDoTirzKlj8RuEwPqFO8
f+7fVau0HwkhZS4XrvpO/CXJ3BybdUnI1yeYlOY6jn3h00XmcobCDFyhT+NScMn+
yyu4ZBG5AquOyaTUP+3v9nHU0WdKsYnRZ47/S1L/S5axDma8eWeUE+6940yZ0Weu
/4NDVSIuCQ/eOUWkRxnCn3TMueJcUsy5CNK/l8hHH+Rh+0Wrbjh1sU4wvWSX67ez
viQI+NqckGjuNdte7jWaxrm7W5u4sPA757xhQISkr45Qy2fRIrElKVgGd+Rlz35y
JG15wrV0DhO42l0ylNdn+XRX+l+QXJOquozLuKTugsZ84wPg1Zv4p+c/zAO8k4qL
Jfx4N9/33BRHqmkW9lke9YTrM7iP/i5Xp1X/3b7ZDK4V29XA/8hL11HYmUzKfwMu
n2HOoTuFuOTgkyy85+MngDwMfVYri4PLPVPthQOhbmWlNZnXGtfG5hRLRY36+JgG
HdvOcRo0FUSgZ7oAaYnyOxlUI7dO4CSjbvmTgcvZm7yf4YtLSmnPb2KBm2a973j+
r4cp4HEqiMwKtqnFaV7o6RIdvzMYQbnayvJgwPZPURn/9qKTDuSQ+7FNBJtH9Yhi
shZXJa3Gv2/fXOy5GuwBSsuT85iQNUYzM8tq94G9i3ufqRvnUIQ4UqunGlUcEr9W
OYLafqmeWkRw1D0a8ZYS45YF/fgizRaac0nn6zDJetpzg/V2dDGiacHW2uUB0l06
mNbFBy5Ou9hOaVUdWNUn4H95Wv8WUPj9Vv5VYItyJMO9D8BU97duAo9O32seg77Z
k5HzI2jUUqOpnmvpfvHeF+FSYysjlLuenGFqox/VNM1eiFZdid48rZZkCTPfc5Ou
zE8cHWBLO8DBo7/a462eaWEI7kVtH8jqYjtJY143hhxIOjYXWSmIdWTPhKf/kRsa
t+mbayBkKYHU4Zhmiu7msoLboZl2eGd8jk1+G8T1wlJuPXHzMkNQQ4T2R/P0oF5W
PYIZ8HfSE9A2m1g+yN/munpArxyBnhjqRlEs1g9n4ijEHWwlPjGyysH9IziyLNiV
h4uWKgP+l1aNhA1LBvYzUTmfVjrmnByySsV5Q/WLFzKOxTxahWeaSFRd2PYESQVt
d6xZfKj+h5HMipaV51YWgS4Wn36uy4q5fopprZxRstGbzbIaRBkOWjop6Kj8z1nH
Rs1mBM3xQMTKzpN3tcYJDXh0c0aYnaV3LTrsX+szRAzejnxnfBVLGcxo1c27Y8Ql
bJR3AO4l/hA8ZG4aKPudSJju1WCP7QXhKhd2hUTLfSmBoCx0d6bwRUrkmi6PXQ42
wQYs5A26uNaUqCE6UnXvGWUPackTJS5vnIbFHNMV27l2Uy4H+IFJ18pNsG7sgSka
tskZwXnHz/04kg7jj9Q6t4t4Dnqp9kxBEpIuowOlwNmQ+kK8qF88/qedG0Dg0q3b
9n3kW2DfyOX6t6/x2x0AYPtlNJ8n1n20G2rs2TO35tCaWRPHVAXnam95Nv96Edj8
jToVyEH05gLcTT5a0vEB0lJp4p4AVt8XTApjlSnOD/t9nP0h3fmIchGJsXBBJOTq
oQMoBhLWISI2NCFFH1O1NUPOJstyxfLjel60Z8uQK7MSHO9/b/zyPvwu4IcAn4FP
fapYWYCWFfGvvjouQJr5zxr7IcJs3vSHPOMiy/mBxnM7BKBqzk8K9xn8BXBpaKIN
8MsG6J3YEbgWu8A/eVzriLvwRJfjdNxrxSU+qe2Df8gWCPtxcrb6/Q6P6b9YdijV
8s5eAki//CbTn8HfAEYPeapqlXEPBL+Sn30nUFNWby8zBH7bpKp+8N2vnGOApjM/
7sXrtEzAykhJJhrABOkMcHm4ePQNwPZj2aPN/vwJucclUePJEgCo7/kDrDkxbz0+
J+i+WfqIHLg5/KluS3NGmUYCc3f3w2IsxgaeU/CvcUrzVMqYOle+eUN6c+NCczlq
VqmS/nRd533pPJCdQWCONi+90FGuwZ5u1kaMIlt+wt1yIAu6LKgYbC5wIf5jA77A
iW7g+gHTVJ83WCljUnd49Mna04ohc8iK2PI7cVSKUcZoIoeAEUyeOrG4iQIs1Mgx
efNoP6OT414IjNA7XqJ8CGloMUCYFw522OR/UF3whpDcR0CIQ+bn9pDUy1deyoc4
6J7yodEn95xPDA7ynJ2YNin6heUuk17l6Ye4GTUPtSkYeXrTIhfUlKxneobQb2Nq
lUZtSF0naFA05wK5MRkf1/BECS0NUA7+LudtE1u6nTxZVP1UR95Ao21FRMYx/5Kc
9JXel11hvn35qaJffJuZOJSoaujUqjL9mtmcOADe/v3qsvuub6i1TQ4Q8tAlzr2k
kJmZisna9W5v2nZ/HrzM6vlt72wJcH7vic8ccQj8fE/V+TnJb+HVebneAn587goJ
YH+ZYIsWTtAoI1MsbRwsPExePqJWnzuXal/8snazfbXqHo+k3asfjtB56R+P2Hnp
H4xA8dM+HtB4a++PEO7bJ+PqDh64BG77j/74ftOwKx6cETxobG6NmFnYI+SVjPh4
p5Ij3Gts8g6bWTz7HTU1ewbPLVqj5JXsGF3HNX9B/Cfy/rN/sP4Tev8TaP+JvoOm
5qvDpmavyLlFW5z/ADyy/ObLf+7N/2Do3OItF790F/9/4TdmZvHG95/g8051Zfhf
xZGEZBfwfwD0PwAI+K8U8b/5/wuo/wLpPyPtnfZG978NvGKsiW5295uavyD/o2j/
lVf956z+t4bOf2d1g/6v3OQ/qPY/IIqf7Jr33+G/QP6j6PwM3G6zg3csfxgTKBuh
fj9lc0TszmBWSy/lGagXt8z6Op78rGcBNzXfWhl+C55f1sCgmenzwumpTbXUp3C1
Cy4vxacyOmB4eMmN1OIsmGB9+2tVV5OA2t2nT7MFD6JateC1udwMKDlXlJfAHyt6
dJARs3WeyRue5r8p30ot76nCe9PleXzwqyV/cQq0N51qnADX3cWnngMp3EUSzsle
L8tFKgXINPCtsQpYSTvpxqU5/smhTm+LSdW63B43+uctPpG1alDArglQQj92BiQv
Im7L1YvLB/O8EY17VPCRwemQQ2+JinCdjNjveNMdpShNtvg3B6NvIJGxHOgAb1M2
V7ODENZ81FPFwE7LgeQ2L+CeQcKCFRdiizWBIefW/MVqMk8xk6uIgUpgmr2ovWwp
dKRumAkMlUqonAJCQKAzLCnORfTqb0QxB9xo86/uP6u5BBGnZR7bTfJbTpcVbx1J
8B+BSvCkv+vYefUuAtOU5QLk/qTlzCVE0E7rJ9bMFP4XFFgyOGIDvFlMIvWdYobH
zISa5THKWhiZ8vM+O/SU6pik1YXvPIqq6d69nfQBOY0dJG/pZfPpeWf30vcA1G51
WYZpWVCE8dn+bnAh2as0S08bIaRIO3FRRqtvShhGfUqKldPm+YQ1DciMM6Kl8ONH
7nR0fmqzIO16vaw3DRMXWHGeZ2JAuL5Bwf5CW4Tn9Ci/NbRWsloWOlw0TYq2//zz
p3xdzRqBurNm/WW3j+qhkrz5A/TeV1D+XUAne8jUelhQBv2c7BYQ0tnnMyuFRQC4
ZQJ6+Y+ap6BSI7EDK/3n2T9lvgeNXEOTHpABpwrVRWkcMbrsseV+GfZ1tFyRJoOL
YgEdQ8o3xPMNlmsMdtmBp/YpUwfcsLdiQ+EojHkwkWE1ZYSJvfU9iPAHBaMWqVX3
vRqznpnT6IZ8q7aM7VISU+at6Qw/psLDz2LsHv9YNiE7Q2jvfYXYqw+eRBh+dqSD
B0KTtQURmVtoIXGAL5DvfLS4RWHSTJa7CwK8nFBqg0i1lQX5CUXhnxgZGumeLDnM
2X4RCt1R/6R21jDkVB/P1iYtpSY8cD7qiuDgnKYTkwjLEo8Wc5I5h8k+2tqmlBTc
98dPz0TNMKlL3+cnicXl+dfvXy+hNiUltBS/VwNnPinciy4+AMIdvqF9cj8DhPsj
bqFCMh9Mn2zCF3nacRQeZTo8zYc+ON/23u4UwttgQyGNbxQjBXrvVPZoRNqskf0g
g9svxljqb+GZX4olXB/ZIaCumvcU8MPth+urgtCyGDAiy61v007mUUNgtCsw2i0P
VrsWsLjgQohEpcNaBSu7HBv367qDWmyHCtDpppHlfRKn+pFPBCR+307tAlQsq44B
SfEA6amquEfA1QQA+kPv8DlsxdHlxMrEtyGR3ldmNi0F2cSXygGbR53n1TUWxUMv
k4PomkJII7TUvMCf2ENpOJlgrW/sxU5oFoMmLaoY/qNiwRJfOfJxbaPDwN3jq36b
gTtDmgNKTtB+x/RE46FQlxkgZUjSd7tdwzMbnITAYwFCP2rhlys0OnGMiw+TYn4z
msMj8OC6I7lPwTlHFc0cFz48oXYO9DsnsMLhHR4hD9VifsaWv6i9ItWWHyA33tqf
F6XKHm+HKbIgeaLbDwuSrgMWxm1r8euVb9p9F6NXWwaTQjUlmRO3sbh33BsLv764
965QM4sq/Zy4hT/1E78rqhVy042bDXOYdC0w2xf4I27Soip95qel4f0M8GkGuP+/
/o7RAnBn/f/9HYMFYB4XOhS9+ShoL6eSKh9oCHLiB2mV+HWLXjNj0azPnrYnoPID
Os1vPMO95Iotb1lS2broriSMAydpiKUs4MG3C07LZdKZmaNXGVzJuLVB10gU5jWq
NvgANJNx0HOGzvOHdEdISx+O3wmidUe1EzyqLnclpaLR1iW2cvmIS/w9neHpIc3l
Bz8LYykBDJUFbz/GdtHQx7sq4xd+LNJGVgkdjsAtwS8vZrhsx/+sPmk+aJWTm5vT
Eu+/t9Smeb6AZCWRuj4mwMbYvo5IJCFK/g697I7D9x0MLL7vUZ1DhgwJZ+hi96Kb
sazuGIJQ6Pj5D0K9yvxVfyFFANSQYwevoMQ5/mLF7DtQa+GSbi9RL4I7hLam3h1F
FZ0vfp3Jr+i3gMWA+vfgmYD0lLQF4C5lZGXsK6/uUY0/o7VWHuaGWC/ruqP+xzJv
qJQuUqgF1CqC4EBUbP7fmO5XN8FzYFNWYlCL004WZYhJzuODVYtLfVjasKWi7Jql
pUB7MTrw7OyBdNm2d80rxxt2bCsPZ4a4hxswo+TnvizYLTuaNSExIrtKwcfV74CB
U9lF8peOuKyCZ/bjAdGJBBs5XEjVU3/PvXQyQ2cx5lciyEVEaMkrFwdGcJoxWcSI
Mnj7LXdLQMCLIoNcWBD1PqS/9u1ntLjBLNXdPn77jQL6E6Z2xDSTNPXH7eJJ98DV
snxVRfS6csih57aBdCEAxA96qidQP9h525a1LdYVPs4N/hWpiQ56noR07A8LFhge
Me2+LM50vi+kmEavIb7TGwiRRPuC0PnA3xtcqk42xZAR04Zw0GgOFrwOucFDGdPu
/fuGN7Uz3y/tkLNzSBoOaY7lXFyc+RaM3dX9BJBbYUZpMj0Frlr64KPNofuvZEG3
akgxULUdA/sCpAEkV/qdXahzUL57hhMel0FHfnqVqJHEIAyNWsPqho3ZcrgT8eEf
kPgPYU8xDj13rpH0hawDLB3QRTqYJdQvdDEORhFbiRtX0Q46WvSpWCcZi9i5Helu
3SB4lFVeXZvzk4oxtYTe0eBQkhGyK3idzIdGuCHp7nMX+7jp5rC4dsWBKMZlZkSG
oAps//B+r/F+y67j9/6G3CpxNIOuIl1UHMySLKge3zCWCZYYfUrcxv1YECzq9PMg
RTDkY8xhpBQZWINxEjMIbYM3JgyI6zLvdSNgMm5+XUfk2r9vQH9hK9hEGo+6zH4I
RaQVES3Mht0PoBBRKsM4iLrNCoUF4kZLM50OdtOlV6DuaIcoMT0Tw7id/PNRd35g
bBDRznel/9KSy5czOKQf8AGB9vi9wWd5fyZnJJmDQGWsub78UV8/BG2JXbvtEEaf
NfsL32nFfjjGB0fPN+Txfyiuh8RQFAQAgrFt27Zt27btF9u2bdu2bdu2M38u0Osu
9h8DhE9CZszUDnFfDqKwBNXDDhdA6eCtNNnbC9nRZkeTeSEm+P0bRglun5Np9E0W
+UEGiy+QFHN5iB67/sXj+m8u9wRHTSSXFQt/4XnQfBLWHTYHXY3IDk273of+xhhU
nMw8elS3qYRfa413mh7m4NS9glQphlsmQTlegvKz/ebUzhuDccRr7nXiU00o/7r7
QCxGQDnoczz+VO5pgsRVbDPdOnDvebjZT4FvEBja2nsVVEhEIXLey37YQXeEXryB
tEmaoFlOTE+GgSO58UTJ5gG69SEhCKD2+eddyclJkNkrKGPNOA8HCh5A58MKcbDh
Vg7PN7te8paAooITg/DyAYDMpUOawn53aONzYipCEgJFivYfRAlMBAVhfIQS+bCw
Z8ii9AB/jOwqZY283TC4mn9LM2LCtrds8KU5JGGpSMp7H4jhXseeZQyk0laeyOji
KlJYLCRbeut4nyh92jdQmevHWT85+qVTs311v3VHfSp95b99KppyY36VPJ9/f2EX
f1kUk/UJ8c8rB6SzupvIANGQr+Zs4IWQm42VKmiVLSGTiZW0tbQ9GlXVs+pUDZCb
Ifgphh/K8tczowezdkUrHGqqrD0aAbGwBWH0ja/Yno9DqUGktNCMH0wytqx6WtSZ
wmdoxlTP0slInRDVduUh+1YjDopp7NRDPFIv16Zz55z5wqD563akxczYQhENbFKy
NRUXomltXFGitPyi7s2G85HiSljJjGAA1E/lWy91jv17PdReC0tlV9UlhvKO+kDr
SRMZWfO0gwsG812IM2mA6EzopuDuHKI9alos+bvVnBK82nP+If5GsZytXHPxD78i
IL2hYdkWQwQhegLJ2Za7WflsgHOFfUFw16/tUn1H8bFg1O5bMRoBQpMQDmwjRkyb
k0BxQatMDphDN9i4/ZueoImvyzb6d2u1Go4L0OXlWGYlw4R53RKjnsLVzFvl+p3C
i5S2NYFtQLiLCv6gP8zfiJ5/GIA+PounBju4hWawxUddTQiwDduEDY31cA7ANjXH
ZHDmExAf6SisCmuzqKPIa9gtFFHhosesArbfzUvk1L0OLmDIRItq8T53UvfgRB24
y8aBvnHhBrC4tz+1prOK1KSMgiAvpfgcYP3zXRB0M6HxLtTW9cZYEZ3jRbEgxCWN
wksqBywtqrTFMDZrPYDQYlzj/oCRAqjo4UzmdPFy7dpcT8N2uzdPIsRm7mjWlyjs
8POfoNc63ii9/rtmUjT7qsrwzVMa5PLXpfIxGlcIiBqsztN09Bw/XWuxIn5HmcJ1
V7A9vlvINUtGWa44aAu7wliKmwMT4VgfJTVKsEPWCY5YVRvNkJtO7YabPRaFY10O
eEwBeDCMe8jl3mp30jJ23zSN0tLMGAB4JAh49xWw+gjUHjx+n8nj77c7MN3L2gUk
osRSbUTZ0WVK7deYCaPXwdzy+wS2XNTcG8kgiO282xwJsXFQtKAbJD5oqwlp9r4W
XHJL6J5ZdqWruEpTujzv4Dk5MkWKMyErKTSwjljzTA5HrVvVS1w8EO0N+AOvIPdp
0sAitMge+LSsaAgY3lygOM2wDFXd9V1O8fgZuAqnCEy8cz0kK/gcYahu+8h+7x0v
rj3tP+DU53/fT3/0N38N7d1asiN+Oppavst/fYV/4oMBRCdcCWv0QrxcYjxcYiYc
YsePVuH8w3pjx1cCfN8eUQfjjhWc3iVTcYPvrLKQa0TL0loJ29cKmOZWkT9zJ6On
REzsVB7luFbqoCwqBgIm2fMj0wanpeH0LPee4XvydRWWV7T/arAp1ttBiROYA/jN
ALrB8fJ1UPzgv7tY0IF0eovL5ZfRuy4Hs1c/30l0c2A0ecHSvSUBuZVUar6szvUO
RF6awYP3XZhIhjJAtHbs7FFy0ae7uNeZdmB4XLwTpmg99nC71piEmT+cpgYiqRyz
VNU1g+BFb754ZLCS8nBp2ARmxw+DB7NjRByve+cLX3OSOrWm+4cQf6ULivTLGgq9
JAZEjNn9ebNuWJL64e1JnOdl9hdya/wBKsiZKtkomT2jRqLAQCiaQf85kxex+cJH
9FK6PFxI7HVJ9Wml7S5MWauqT3RRLs1giHSGMZIELgl/lXtHG/+b0Bk7N9crrvRq
aK54Jdi5Qft7eemrcW7zO70BM9dX+6uqXUWj/B1yamnU0ayp/7O/Wfg9qvpeMWA4
pZZ+aqHacQTF7e7igcsDk/JJ41D52XUsPV1OGHOrzL9kYTmjMMEaM5SIeopK0Ylv
dsccn1y/MJDtQWQHLGIZv+2qs7GGS94gtI2dqNNIDnvvGpTWZCoeQcZf5RJMfi8H
dQGCr9sgdhWEuqNsc2cVWYrNjwujVHamwv3ylbV145qMta7l0K/KjvXXAoViFMRK
SCnlW4/W8ivQe4wIzaZGQOGRi19FmlSQJGUJceoyCV+gq9DgFcLCUL9on/7AgkHK
Nag4fXhFsxme236NQdrqLiu4wEON9efLX82iOo0nFzl5HbOPu9ewZBEYguKkhZ7X
YQp/50FoEev/IDomxlymF+QcSdKFnwPy3CU9Dz9JZ62kd2oQ45mWnKyu4BVJjJuy
idniYwIdzWdWZ2Gcf0tu+BAEwstbiG1IjjsLUK9v98hRgKPX+KG3Hi2pXycdGrS2
OgOSDK5y39Mg6cbPpeOHLYhfDGskRJLfeyOLdjJO9rlCQItLotPtI/8xIrlHWT3F
GiIDg7ZJp8rz+hUFn8RuAaH992VCNAk8gVN5mAWIUb7p3cKl/+9BcjHfTNDzVzK+
EkvJ1PdhiUQlhMBw7dRaGlICH6z8VUhBSCCqQyHyrDrD4jUHkoUhvyFZm2m5f4E5
awglf4Qd+7mfbdo6CjMqfdOJd17xXab1aDfYdGfuzDJyZD2DAPbt7bnj9sLIE4M/
3qQKS4FWthGcxD9Bvu7bmgsgTh0sBP8YTqaaQqJ7Squ/MR1+I4iQDgw3rnIcEWy+
0wGm68LX5p2VteUm51PgKnbvBslEoR/2MGVEnvg0MhpabKbcBwJ20yKIrVZxUMuy
SykCXnXs7GM7dPd+cnlUjKsoKkAj/D4V3t3NtnnvCHab614dYstPC0MRIXfp4eZC
VmSMXPc6ZpS8P+U5cpVzl6By/RTadFKVYF5RZeQaoqnk0RJFJ1ZQVd1JiaEl/O7g
AxI3KduLYeldQSPETn0Vaoiewm7nPHsu7lyLBKfddu5WruVRMTvaM5jbX27gFpce
nT2cWVHHXsfjB1EXKjizRFSsq37ncuC1Eeepm+3RmdsjNEhrCcwB0m6gq4hP2j0B
8bMVFrZMo+TsxPwXKBWtm66oKYfabRknR3CkIOwqXO/rPl0Seyf8JwcTtfusf4nB
3gLRjMjrDOeMdA3JMG+cWZqx/PIRREFi6/ccqwb2Fry1PKBGBs24I2DFyCAvVlMV
WDu3zoeJQY+SmqQi1WGLCmCwl5ui7NxO26I+OdWaYn9YoKoLvb8KeFkRxMHUtbfT
AnA2SvNFFCa/kcXyAjcoNCm3mFMKQNPPkLbkSScWHOpm+m3zdBX+lViPfDWytBSK
OyG7wJAvV3mKX7MVzUOds/s8dt4rdCZhy98v/E1pBZ1eL58ouNOeDkdweyi3BBbl
HB22dyyLn6WCssqA8zxCk0kaskOVhWnarvuR8di3FlDl1JoaH9hgBUjhCwOA+h8g
hj6qmRCCuss/Gbb0G4pXSIECuzFWmjxpaIo2tRq0UEMUoJNJSMNfs/kC6P3WDroB
YKu4mwLLlPC5pyX0ZQaJWwou+NACPPRsMOSWo+lX8gRLTeFueec/gnBpkAfOSf9k
l0+N8CggxLPbs4GGUsJADr0fgnDPIzWmrI5iphC882JF0FHqnmrsrjt/4qaG4HfB
U5H+7m297WaD1kpq9uEk5eYaQ98Q3FyiIu5msvktFrHkYH9ObsYyKHmoxOKadv/T
Kt8N6qPQ1KLaAp6gNVFpluFKgJ3FA0mqi9llEntpox1M2pD10fTo9c9CfmH9/Nly
+pZlh+Uj5yCIlmrykBuxJw+vs3IKNEbbSHuVWQ02ENQemfoHpbaziAOVtRLwxVAa
Zl6EznZZ9xgfIGtnUq43x43TAH1ZrsWNkadNxsMCl/oK2Borz7qiS+vErII0OODw
ORcbqKDSMNcNudNt6z7yEWzf56BfHlyZfygG0Hcm4YI4Zyvz6uDz2usdqpXWKyUt
JVRa1L4M7nG4CuNMROacWNB8RItgsfnfS4DhDtuoMhC58ITYJu6HR3jGFCYbHICf
sgq87AFdhh0V3RraldW09D4gnxHE+BcIVIftyFJlFCGoTEcUIqhK9JGFn0khhNV7
Kykfynmofs03WP8u6/w9XVEretvbwbhT4MW8EpMrC2/WJWzhQivBlstrVNVXU63Y
vlne9QC4y54Iop1Y8mvc8wukthFcQLD+/8x8fzK4EVsV3QZsJW7+3Hl1tHXVAZ73
G1uAN0fmdUNgXQL05zK2NY3Zdmdrj2G5oJqy1Y/rR9HKc6qg+0N/9EbI1Hkt1NQ8
LLL2ArqaowWAtkdNbU3TN9cd7P0HDFzW/aBRKXN7s0o8LPWPalQc5qku3HlgngmC
f6irQAiB8yGTk1onH+aAsJ+DeJM8GKAtxVYrLaTxdSxQ+Qf+/t2K2ufD5b3WQ/zY
ZWV+cxp97BOdy2hF9FlbE7hB8mUgsuxGihrKKSOs5+I3H2HNINIcdZUEHSKICkYw
hloHJdYgfY4Xg7ZQtG/32gkZ2BTjolc2YJNSiqoSaI3zqlMSzgQyqshmhzJXA3ZH
3oWVRVBbXV01OT+nD2Tf0FYCkqxu+hv0+eay9IlJbTIzQ+QxwtYi01skZWkL334P
I5tOL8ri8A6TGD0VlPO29/mobA2ni6FpkqPxKribmJterGB5y8zpzcGscggoqSsj
cQQ37a+B5nzZhat4xw7rYimJseHE29HPvISMdNQR0kkUDarLw6CCEErGlpoq8ALO
ccnTac3zVXd092tiXziK3ZR5L+Kma/KFlbDKDrircwI5wM2cCXb1iokNwOA1Uugu
575wbRt29hA+nQfUPEpe2jkGDCApkNIm5y7evCSpb5JWKU1wQM2kaNqXScIUPL/1
f2ArIMsrzfrMYVC5i97InhaZWKScg4ea+1E3AF4IW17kiFQFoIyKAi7rcgBFLp7C
FgrRlUxRVC6x6lUUlZVV1tIkAqmPDF1moujwvvR2yavzxCzT4ilJseSjGPht5cKz
u1GbNiqxabT7kVqwI9+HhQYFKoJTh9YIIyPZ5qvieFImLLJk6GD7I0m/kA/Um62A
YH5ve0O7PgztlPyhgB9nm34YLV/SY376lSqLD/ypVtRxr/h/NF978A3fPjDhvxZv
X/+ivWmBJVohHil2CphfMIEQs9gQPi/Kv7YmtT0yIExz+TQpnsXRRy0UYdgOUti0
ihHOzq5ON9CVBYDYEKCHQjirCy8nXQ/+DvzKyi5R/tbAVO79cNNR3vv6vkV/RH/J
S9uAo9H4LqXqHQAef95co/NbXOt3LHBtb//mNeTZDAMcSjqULWtpZ1yLOXH3cC59
tNVTVD+2ZAWrVfb/Pvw4CZ1Sxcs7m2u9o0PVA/zOziYgOmUJqQNURoQCvor0bnHY
tcNiilZXr2aIs/9EX2qoUCovu+4S9yKt9FQZg7nBJ7nV9wyuOVqzc7B5vELVMjJN
N8+eVtpaf55wEh8vJE8qbIM0ATbR1vCFY3baftO20gi9Snw2XvBZ/Z8/+xq/0/+u
qr4vaINOAP7K3fln/bb+7pSX/njL/+hraWK+/ng3/fxEf/5aTirp2o7Uxnmn/q1i
iJqQ6HnqTbYYzwPuKczMIJuKtL1E3i/ekL4iu4SCyKaqnEt2Vw2zBRYq+X9Wsjqv
xpCWFCiadvk861m1kAgYXrlO1s3g5iqOct+ciQwAxDi12zE9kTCxFB0yU6I3DSMn
5/cX9Q5r1yPRKpfmmkTmcrjOmcQVXb8H4KwzFD2ePWVrzUl9pbVHKYNCfScMG08v
XQoHEpIBxnDfj4dBKjCS0XuCmQnTByZ+QI6bfCAr2hzHCY0K/MH8yzCiixxbv3Fh
IjAr3XilsTECwOE8MjZA6Kn/oZBQwZeH9l1JhCCEm5ZrcGguozlbHpSdZt+M7zXw
oT/U8dN5ca75M2qMLK3Sd/gR34vfvPT4rps8+vxj/TUzN6z4EdVtvzFEaNzR6Vsq
gqAbXedwydZc59Q2HGylkFl3opxte9fB/aDw5rKqg7Hy37rSbfcpL+upXfkN+Pz3
dG7h/PeuDvTW2NDyUbqhMFbnnnl5f74fVjTDCxrXxa0d82NmrN3DZcWyPEAdAg7A
zyJ1eQaG9mVp3lXAps8G77aHw+7m52pG207q6g1wj1X5MOVo/KeByxb76hYbB7g6
pb9yekDoP7p/VPmv+9+2QlcWvzHFhH4rVtjY7PVcHfbXJQAV/k/3UjLRlpW5/o93
s3N3059wxIMlXjdX6CnW5cpA1s+NbPSTaqCSNqn5qwU4407p7xHu2e5p7+b2nh4H
h1H7pcPTuUfZAkuPxLO3ZxNkTx6YiFusPn43J1uOEJLN7V+l7/bGHl3FKFyA1beT
x7IFUQrA5yzec3WDrMd174aYSc5GGoDR3z7GOCSJv9MYOClRDMrqPiK+hUGdI8j4
Hb597/bGTgAboL3568rsAx8LkC6vUlb0z2rWjuz5eFbRUJAZcJERUQMgFMKxRdlH
UaDcOML3HXsWxEQGqAIHAgAIRKMoceReDeIYXpU+/C5AN5mLjzu3IkDFioNZG3Yd
lvYYNz8gsYCiRfmHWZ0gaBtc5phI8Y5uy946UDR7nK/qzOiCPLc2i4N4zNAMLkYw
sbnb1f45xADOdVoCpKFHgA8WP2FT98beyCwe6+8b9rlcpqm/JoC8BSGeqbkaPLPy
q94vRRoL/b7G6Pc9tdNuwObWt+oNrs1dN9EiMNIW98xRES7GMEoWQABtrd013rdO
oF/2xg6uEHJ43PIA4tbu9tZ3wUJze2DmrqgVIAuGzrtY3yvcq3s9AVI4ozUeW6sb
m3sFnQPV/Qgd0+YqoMz03w8YOI6eBLAVshheAfHS4z5XE0dDAvMbqzCg0XstAjHz
bH44rCPxvG1SfUFYGiyN7/L6nh3OQvL29qanczAzhlY/lb/wE2z0yCwfPDYCDJjE
HFtwU4We7e11LyfWEZ/FM8B5RH84dM3AAdIM0cJeRsoe6SFay1PkeTQlHyC/R0PH
zxKcrHgAvMWNxNqB6tPMqvV1TDTE/o8Uh6G1u7N5nAftBJopUg4/yytgh266A30A
YouFSHUbHJxmtNrU5ZqByG9tO6fUXpOO55DyOrDuvjgyftwtqIwJtfkq7ApsP4an
7dwYR7+i5FhAzz3X7zmR64RQiGID9vuNIgOUFztAYd691cXO/YykR6waWa60r0R4
Dkfj8Fe7L8KHbb+hp42r5oSWYunaxn5um+msDY5QlixLogEnSyqhP+TM1ENsgMxN
7pW+h7A5Gt95FayVwJIlev6zcFxxSOVI86k1bfGwAgH8HSGjtygSoKJMsFMhU2sy
qxWKf+aRe9tJqTlIljLA4MBKKPrydEFEvOoJnSksSkjAFQgSmmJ5yyh1p1OUY/UO
hwGHNqoyzi5hiQH0fHRxXQVWI6nSX7ThMI2gWTcuMhlT7Huo2hNO4J2Y1AIDFFIZ
G1L9y3VGo0Ug1lAbRLH96eBTYkjw3tpKGMoxpvLSRb3LM12xRYrw3+JIv5dnMUYg
HH7t3UQ9kxjUW6Cd5Hae5zRM/4UE1KZ1QwtTpiU0Ft899Sqp3PmUxocHRWBtFw40
nD0TKD2uuIIx4Xcp21wo3gdqeaD7ziuYogxY5mV9GkyFZSd4SAG252bX26KxQmhe
gXnCWCibQkC3cn2SBbxRkbbSdr8Cz1aUKWaeGyMa47Yp+7/nxRce3Cgl2Fl7oUtK
LFtwXUJoAiQ3Q+OxBbN3M4wM4TfyDSZPHE/hJUBmvk50DJj9zI/wO1ZE4GE3+JjL
Heb8nQxG10XAPfGfgjXiO1jexVXJ+G5KgiQRBhTGJBRHFMFokJ4EyD1MUOFJXwaZ
xIAQUk3yhxEmUIwSyimKczMLuqca2nihsF4YUzPmDfS7tCtji64GG0wtHrlEWFHY
NkzpaK2Ew3CnbHGmKLEmd2oX9kzhkXAkM5BpfwjFSwA1VsSyJFF4LfaM/uojJAhe
YDowjotvilaaMXdeeqkxxbCYSU6ZrH/NsMR9HoFEjanyFYmCysaFros/jN+cFfJX
AslKNCWjiK4zLXwNNpKp7EaTEEEEoRyOhlTM0dhzotRe2a0UfghKPKD2KuhDUucf
s9E74gtXkS6Qcz8DABH9S/XjihQZUpad61c5MkcguMgoSRAxeRFKN5LCVh36W1Dg
oMsgKOvkp4beKSY6EHKagYnUb5yiPKRVQIk3WvmdSLTpRHoRW8AhtzitjP6iRkBL
g/QJDQD8YAbxzcxxPDyu23ijSJRAknoLkYlwUfqRYXQLrHOiTXCJMxP0uouEHDwA
nJsajOprqM/5w46SE4cgxLoI2IJtFKuQYE0EBSYsZSg2wKnm8JnR6c10DSOMYR8M
QdLGoEg2Epf+IjQKZBRQmhlkXTWhRb0S7SUag4RG3RTBJvZB0gaULbtXrCSEn9ma
GbTzrg1qFzvDiRLOjtXjI9DUXOfPjieAyeCILsCizylzVZfihEGfoPgmgVbM0lcZ
IDzo5NRZQUwKzjOZ+LldKChoYDwJ9Imwno6IwNf6wPr6hdMLl2DnfNcvFhpqRvTw
js0jcOPF26R+7tkhD0wctd4KDlo5GWmpTH7lK/nzQuA/Kxd0wLwbCv9WOBwpdLLp
dxDBiTCfvdv20GI8O6rdOgNFJR40xsHhUpmWMRAlquXHnOEjJZHQE6tLpdWLNUlL
XbBHwtalDHFA+qQB7Yhaxx5dbHbVQcorIp6henI15AD76qrplmRTNkVgvaZ6/EN6
nMHivLIqlaroev0H3jeSLEYEqrDh1yFV1eOEbg+yTfIsmrHOKEl2v455NwmTWpHk
DGGqBEjAReZVYC6wCTd+4rfmBwLnxIb3yrLhIYXpskHrN5UoEGNr69pEmksNuInR
Dsc1GjwFWOMVO9JN48byA6MIFuPntTTM6bE8iZ2awzGhx5zL6I+Acu76ucS5AMw+
HxjmwsxpgCdu098c0TnUky5lNjJ+VKkCdbheuHFbF07x2y0K+QQ7sMmBQD6tSYPV
tGCqYVFU6np2ASocGfMTFsbn8o5GSFxuscc4Lzx2kDl/UM4StJ9Dep3ljqGu3Ngd
uJF2MmYlTogUf16TOLKKL/t0m6j2CI/YE9QlkNl5+M4PRAIiB0eRPAeXJA3emYDH
vYGiRicAoF4FqNp6Pidsv60o6m4P1XMIKvOSj/Y8tnX5M6L0PX7kfkCMd7PYyxhU
ectH/rTuDlS/q3T5Lcf6vj8j8P8CJ9V69H6K0f82a/KurZi+dm8m+oFBwZvxJ019
C2/PmzUkUJBJMZ8v+hLgMgvpddcdg0nPmXHRAXQOB7m4IPKy92BmeeG0fK7gTgsa
PmL9fNK+AZSm8/hxXc8Ui7f4B1UE4w5D5xFuA6BOkY07ceW+RcDh/bPDLlLmE1JU
e3LXStYEy4bsDRk+d1XHwCGr5OR8Fu0FfETg95fvPEHVyKoc8FfKcumyvnX5Oc/C
2gch2dxP3AV6yfcCMMB1ct65VeAYlf1fWnydIuryq540/eh5r3ntB0+b/rI1CZbY
2CqF5RArNocMHA7g9sIotAXX3xjDAL6o/Xm4aapmmBDafoqgqR1SkEBSLzgg+kd6
9j2bj4v1A2ks+9oq0EDzq13kgiBSF6GxWL+s/aGLn/leUiENWlTr4DbdqF8eDwky
M1OOFTgoQMCDTs7luNSAX1RtuMB0/RT1RtmPIFanqt5N3YAesD3sXOgvAh7JCcgc
OSaE1n3mAg7lg6yVkL/IErDDR34IEl0jRvFbpKItABgs6KGhStmPWVHYxvTqpqxR
odRn6dEUyvFVmBUvBpBOPOjw7H7ny9dS01ARUZcTPmtCNmwLRam83ccGCelYlHtW
pnXl77udD90NtRCjfQFo23OkVehcLE3Kj6Od5CwOxqk48mj+LYL+C+WmE9gHuXDz
kiaKFl/M1bLIjvGdx+g4i5X0wHKxszOvdG+K7axTY4cgqgTVRYsupp5v+D0XoiBD
evz6B+OrpLgckiSHECsgeO+ADtQeKBP44HnjCMHJ7uhpwcSYz5BC0M9lj135+1VP
qwq7XYXnFM6JZWOeqpwWxYbb6J8FXju0U8Ib4XjP2QM9d8qkesJMV4efUU1zvB1H
zXoexwDu6fRNypUOGCHuySVaaAKrwMQiFQrdNY4nNzwlsPv26x+b6YPyA0DwTOx8
bsAODhzxNULDeGTYi9S7SFNYL0gmUszUjnDMRKNokoIfG1rYZzHGqpN2L/tHo1IE
uDluwVdonhk0by6NsG31G24aAvlk85sOKV+P3Ua+iwoRk+S8rvTy/nFLVyTGf+86
lyCASYqBJSx2BKtTbQPpvgiP+O4hWyGPIfONNUS6OwGQHfJCCmuWuo5Hjw1/YyuE
xiAePXdeUUE5CpXnJGtRaTR3EWallYRVRVZfmJEVs4nLPFbcG0TFAlUlYauicMwY
RDDfBv3WCex1+DTs+a4oDA/hnVEg3o8/Vj8hCeAwTWKQrgzBRirzMBM2pbyoB9SC
GMXF0wZ8EESfTHOrJTYvfxrpsVO5dSi8E7FY9Q/yJGIcSPqms0W83rcwD4VhN8fZ
C6gRU95mN8em3LPlMjvbMlxrlUilL2oMYVyk3sX5TszHRqpvsCQGJSfmU9KcQVn1
0af08nxyfKSUzfEE8ke8b8zPsOlqIVctiB3fJ5h5m4P7KThiZcLLfj0vTc0Qw3Ae
JQEzxbLHqSORPYV44pwaVHgvuNKISXf2UnRAqnRi4dOgDEf3XzbqUyDye7QnO2QK
fGa9a8/GNzWwpC6GIBFAXM7McWQo7BokEmwqEuUl7AT/KcC+vAbgLagJdTebAFUh
K1kmsGQyQgCjIQMmaa0fvFRw/w8Aq5TAtPC0qAl1FilOJF8JnJgrItmyjKo1dGc0
H86FB+/fYJzL48He5MmjNg79JytsX+kDuq2HonpBFbbuWkpUP55thnkBKvVTytSq
nJPEhKKq8CLnPOXGnXG5Hk/u0kyRT/JC6gxJaO6AdMgTrLkPPnsP80qS8jZ6ToAb
KwekXA92ogn5DuLo64iRx7oFlf5eSb7u3uzhcIeaytoVAroyLoKl7r4SWHXUEShb
Zxly3ZJMyKUjpymUUiHl++oL6u3zBXWzj/SMg4H0t7fZUSKA71fAz2AsIksVfhs5
1Y4+2hGjBeqQHJGfD/n4YxtLrQpI6OHb3pudLDhqTMQg6Zccu4wk9aYwSsKaBjZa
IgIICwTgoR8FPzCwJ3kWCHMtuYerR0247ztQhvbdpwuTvsnpWy67AvZyXgjs9NvK
k4FuStPqQbn8btFtilfQSpuCLd/DV8xPXnjZg1qT3wV8EN9YEvW8BFCbFgjV4uzK
HdCvxg3I75IrpPpwnsHOI7tYxgj7N8jEWUJ7SeB9IJASY5ehpT3H8hjlDEQKzMC4
LEEImj47sDyupJUVVDYAkt9xCmAjGU9rkcnT/pMqBU21brppt+OzK4MozwqWIV6z
v5ZYxMAw8AJ8F2cEm1TGvODcnn8aacdgxyFzsnMdO4fl9cPDJW3BK+7Ra08MTiwf
5L9LnhYHa48wP339rIlyv6NlsE9/735rBBzow0w3iQsow0phvw/wJSwOlPJwihVY
uUmy66ze2OsYdAWUhxSvKBwp4hMTobIZXAYYRxSl0DsVl/Cj4YF1SWCo5AYWNJyk
4vqZG5D6sadfRiiKZnro+Tc9FKsJsBiN4QB9NMv3tZ9gSxOFU+Dwd4CBeBABugK0
jEh2h1DgBImrcSGhulgVDAc/h/xi1EOdDPD7qUxw9+5uVp9t6Lkil6EIWW0BuGND
J2stZCxIGJ6pSpQVkwlpKL9PUVyzHmxPMcRSPI0QAwC7ltQsmklxTEoPuAr9iUB3
htDXu08NUrMuMuRw/tkslzAr4TioDHB7GwqofaGvB1iPB2P7Zc6knAeIU0P5278K
iHGZhhcubLgo09vd0ZsbSQgaGT4Y+aoUKOV/WTHf7LuO8cdlTtq2UWC/zyhQRd6C
9nkFHjgv38zoa+UKmx7uXl9yVdLy9vZ5Tsj2Ir5XNhmRpeLiydC8zHR278O6gLmK
Jvc6ussA9HahGaCpd8c8v612/vdRXZ0VIiI6SxEk78lRcciC8hEeKkZPkBezWAow
/AbhwwYaY8Quoryb6UvxOnLMkpwoJavbtLaZcue46PRLCVBQX7Pe8zljCMDJV8gg
bfguxXofrdkWdox2t1B3OXSWO04Xn2HYx57qxaQ5R7MxrYwaAWkW84ceck/yMcy9
p4qjrEik2ntLiMGQRKhtrGGaPYm/J/R+BUQEkCXxY1FK1W/xgV5OlS0EOi6hk805
UtyUb7QKhXJUkCl3IIoeXmXPmli6x/vcA7F8/JwXB33y7aBcn5HYhKcjMDI2isGQ
NuDNQJm4RBMGm2QvcocxlMBPtRMTcHea/krle0xEBce6N2OEkRbXjE3q/gusjq8p
yZJrV2IPuPyEFGM0RPQVKVvFBsepjiGvlOiMbBLc/wSgXSmjOTfoLp5BgIQVRYSb
+wR4z0XA/fbjJFlVULpMEL14C9H9vh/CFC+msU2YpMkOHcVo4BHZFa7DWP5lt6Pc
AXWEq4z/TrJ/PGNCJ556ejF1E9wkhol+QSXmAIeE9Ds7U6PXTjnycQ7RR6edmlVY
uCrvGvAji8qwX7zCiFAPFr3EDYUPgu0ijHqbXb8XR2MKjcAESRx0JWYneuJWzPLT
Zr+LRid+5BB896DkCChcIcgnu/az45T3hljoAx0BE1IKQGdiIE1BdB70C7HixC8S
4YuYchLy5sGvOxSZ0YfIEE6cQytHMj8t/iKkaEjOSCvbFvGWpkuJHgJSYU2xfsws
qtKN6U7KzLyCk8XVl3L9RX4VPlNLw0btGfTdiogc+FQHhHy5mOGI+b8QCp6xVSB8
eXgaMeP/tmYu9QGOy8QMKMRMcO3PVjnOxLKXQxHE82VZ4AOfwyJjzGeBwH3GxICu
fQnwsIDlb8QrBuocZpncqDEVWZzrF9Ki7gliq+x/qN0VT9elH+oGllHK9SGBUswE
eY+aw07B+vD0DhGbccZBIgkB+o0uyfsSGh8RK522ZVhd1Lxg7h5UZWxuaaNV8bJH
Q1DQDg2zfqZcO85Ahd6F6qW5T3bGt1TILHovMtdDAi4A3EpIzlmou2O+jhdFLc0t
cQx9EqDcvyAcGT4bee5zAwQWonSM55rSZBjKgvsEwel9ZJgaQf6ent4ilRxPydSw
NGlkamZmddl64v2bepp0EALC1iA1CbE3e3i9rR2esN7VrDNc5UcdPy1h6i5Ks1Zq
lR6+rNt31JMpbdnUO1WOPoDdGLSJqEnfPHoWLqwQ96hwRBPb3d++cc1B9vYB6jy4
L9ztxVCjpgKRhIkUcKugCFRSZClYp+n4lt6ffB2xbFFCinJo/nHnvIHAwhpou7IC
LaHnf0Alt8hWPC7CxGgO1YIfhYeu/fSeFLjPBxs9h3sgwfgSw3S4Z0mjg3/wFiY3
jJtFfSnDIfbbrEGOp9lW1Zku4/uETyC6FmyofzNgtGGBIUctQnxzzHMxX7EUznFb
z1WQDM2DX2aUni6Xt8q8peo+qNWLAy6v1IyW09etpnuQ6SdhttgJMqZuLJwiz3/P
7KUKtXiPhX/8KT+zTH74F05Y2oitK1cYjW5ajKVk+j2C4lcwjX06iu5Z6yqn6LZ/
xe3DtArp1aazNi2BED98HM0HcHLnfQs+NNLyTo4QfvAobyG/T644oi3c/YaqYzgI
C9FSrUenFUL2GK9rQQS+EUI22w5SLCnTSlEJkjyAx/wbuwzT8zo8u3zIhPxllJKx
jlo1PZy77kDmWlx64ob9JZieZbe9FlepamEkfi2E7GWEnrme8l/Ap0JK38XcxX5Y
gbExHeMjMbjJ0BJJIbRIEg4zlAyTnXp+67tlpu+dWhJzkSMAUWmGwT7dLT1KVni6
rpTUjIKYLF1RVno6UUv/bbMitbyvlBALYwkuxt8ylMJEi3AwSyx8sDNmwVKMucJN
CbZES4o1xUoaKytE1XU5DZtjk3VsymHcfEPNMzx+FpySD9wRdC0S/wpVq54xAAPs
mPPl1OvXi09JGocldVwN4PWIiNcyZAi2nip6ENF2WBj9xssM1Ubhxy4BftU7b/LI
Ng2/g7evBhVnczeAIDplVJqFEJW2cukmy/zOyMHOF+CF55uw7BLkpNlaENAV2/ZS
To6VXhlRhz/0dqUCGgQQFhbSH1Ny7oWS2s7ti5hlEOVS+e9KCju7l/8G42iJzdK9
US7E4gVatntqZVR5B0LN526HImjbguE+FIM/o9miS4Mb63U5WK4/9TC2pQkvw+sZ
gHFY4nO3yIp37xLPD2MRXIMmw24ZES++9WXyTPCR2LesxtowQ/SSQarxvBT63jDJ
B5xdgNueR4WQmZyvrQuZEfGZSyMgRu96ieojPyqLDUuN+DQQwi+3286mkNiD+TyK
98aL5zaKjkOR+GrIpVjmkvI/9sow+gPYvr/t+VXltds+vg6U7r/dJCXF3umB1NvF
fZ9H1EAjO3n+I8vBiGvtgWiSIutdMDEQDm1SyNI+0oR668J+/vaXfyRWoZG/X1bG
hm44eXT0tyQVvsMn5hJqeQZSY0MmG0Qrzl9qADwJMqmOVKawpC6O8C+Ogi80AZ4E
pxSDDHXlbzfi7jC+08o2mO/cKUZxknPJuxov9uQUjpXHch/E8IBEmiCl7ZWLBry9
leQ063YOZN2RCYjZQ9ZAuuj2ITLXkjKIP1fIQBFygXB+2C02AepJEg/cZPAGw0Zj
wixG1r0ASHQEpp6v/nAWfsLlX2iUXI3BFoJQ1uMrsa5fpYU9d9ycJw/y+6XMf07j
/2PZe76wik73gcLui4HfNEquTnyYaifwpN0xAWKtu+Eew3hCAXtkCxjwmHg3hQqS
yT9lNTbA1lmhtlLLYiWBFPDyu1qZgaVDx/Z7/MvZ/7Hx8GXXU03Lqhj4Qzvwk1ZC
i2ue9Ryo2JKud8NFC8zlbpfFSV81gE0sUu5cydDsbpqmt3lEznzI8mrAoXfDT1xt
/nbAUT6qjbDc5RWZaQjMy8nOq8lDm8LKTVCHf5Sp3BbOiR7ZE7+XgZp5nxHmeQKU
0GJ6I/5nlp1+ujPE81Qy8RHxk+16a7ZSHic2aANMaQVPU4d9zJWhI46y2R1sc4bx
PDVxt2P36NUWBapX6Mhbck6BqS31O8q0uJxXUantk1/r2lr8D1Sd4VOnzYvbstcQ
/G4ZZHBxDNKZVpNRUvkTDJUWJN+P/0hxL0WcVx2tQarRIoobCA/RK9mvONIXPMzD
iQOrMIrCOn/ZVkF8Icp7vFfH5tRC6mlyCpSSA5RsEcwfGIem1ak/3WqTWEacLOSy
mSturUDsmupTMb6EEDxHYw1QAi9Ta1/Vqc7cexrJeLHP1J5+fS3nZeJ7ASETtcBz
ZYKbBrmvBCyr5kvC0MwLuChBBqVCZ0TJop1ooN1Y23AFJyfySaocmd1iCHbZcBpx
m0YsV/SrUcG2i90K/rnP+YW6szN4AXYs/WBKtEAVxWU7awu59AGSp6kGWGv8wO7u
GAgwG0T4rM7O7xjOfl+x51Eu7PPfHG7rA7fZKHD2BazP+1X5nWKPYpyvfeysmGGw
vOz6apIt4y+HhXgAj1WSsffu6+a3zK+ECQIVhRELpG0vkVbpu9LSAmdpVz6ffRGh
s9uY+U1u2RfnVwNuzs9z7ixZ1+YAXfSLF/AR2BIOEfeek+aFN7aRESFydRYEpI5U
7vKsERGM7XtQKPtmZRBQ2XxIoGuBHIL9G7CrjHd1XDUG7BeYlt7Im+sqtlbtbCKB
qXZtWxUKo+CtXSzn2+U3j8Xtu4YStu7PPrAq9Jqohyc+v94UMS0K0TGq/YWxHwPU
hD828VRVop6ToOlfeVpeEfshiUYwqN51VARefEa0vNJ8BQqw+mqc578E/6i8qNaN
NxIo9IOIEshOxsyIB/qyTASOyU9FevWFalO1KWg2ugR/Aja9Yy3jNZwgn5ksrXNc
eLC3jDHhrB4EXhOH2o/KEpPC/GAVma/xHYl4nIa0hXKdo0sEhJw6ThcoJIE60fYk
EVIw+kl/+4l7he9jKGD78LIKjNNh6lEwsu2jNIjTV5Ju/9kk16TG2+2DJFt7o5V2
tK2Ih8aKwWEPK89Srhk0qmdunJzCLcgN34rr1jpyFrm7ujvw9OFrTySru7uLzy/I
mb656+8vFeRP9hmrZyKikpvXn5UdWlyBxeVeUbmiJ/lOt9WMO4G3pRb7mqCOK3gQ
y6QSXsBS2EWumyyf/m1LJUBjPdA9weYcsLUUrrwfRWmPTaGaopAOM6vXcFKpwh5L
UA1Mn07gDG+TaDhn2RwdV6q9q4/QOvqd2T1DQskRKAGNs82MR50vRSK5p9Z7obBK
KG+IOzkENNw7DVbqoPMAq2sORmzs9qEm2ZXiCBzZgCrnRVzK3VgnTY2MJi2zSpec
Ky/qHnz7858g2p45i8ufIVvduDbXHwPtNUxb3b0ttA+B83PvWk/618Fr47BR5T7N
CPDdxAkVBpQopaspWvhNfA7F+W389+vbVk936j/z2c4GhcGYkGtRWvPUdYgEaHIf
ueq5za9g6YgtyO7iPXZGrHrHRb2oeexfLK9CbwShHW8MV/L85ZssTg96JTDXVmpj
kaNOolgJNNevVppAzsQb2WHY/InUTE0VZmkrM82Z6vKMlfaXdz0B4m/wweGcB1qb
UHvz1H2/qfu+lK5ji1/BUgPmKGZp5ilm6nVdKNHTF3rN/iIfL6H5BR+RQFes6ej6
Qi9bGaWAWv3pcCTGkecePmXSj+CKKirmqD11ldaKi+nDCdAuNqqqb6TUNtTKjJJq
oynI+gYYsfYpN1BacY3p1eZkUEdNeQrH1vvVx+ThthKKDdPr3GLADGtCGVi28Gic
sS52LbWHMK+AtTSxeGxF/vBDfNbvhZcX/3ERAjKHrgdSREzHi4HlN3mSsEuqijyK
q6OX9TXrn48fjZM3t5u3o5U98kv9uJW+1iv9uLW+1RfNuLQogFg7DiJnHSWJgPWG
VZ3IG7mCo/Jiq5fNiLuwfyxfAS1QC49p8/P7MTWQGew2laP89hLi/hEEfXdKI/YW
sSfp2tHwjaGNGQuLNfwR6EkOvTDUQvzODgVksW7taCViT/q6ynB/jHSmKBIXrxGo
uhcRr5gDuGM3SR/kDXEpDEI8Ym0u2CModHs5LDKIN3MYXxPvEbwZND1O3cUf5dk4
Rlo3xoNXCSCV6ritsRj7rn0Ko6v7ktcucxejq3rvhkAUvlGC/2id9md/2Qr+Ik5F
g9IXx03wzYyGHCSjtG8bWYZEXbCFYmYURq8rJGOBp1Jvxx8R0Fl87IIFbXbYzOae
PzaVsmMdBjMEHMv0mOLrIOVeWKKhDw1xwkhEQsJqsqXPM/G4yZey0fuYnM5EVCYn
usiOtuoOdnMNSKZeRy8hf1gOXIX+uDbXz59WigPArpwRtidaE3G83llvCS7cuqbP
8CbuAzs5dnOc/kWeiEeomte0nTj9Ow9phl0Dpzcpkv8VXrgXM5c5W1SzflBbYxEK
q24QT8MZm0yIyR7OH5DZu3KEkEHWy7zPdNq6WRgpP2vkJoHSKCQjVS8zkhfGxcCE
1xKOmW0wiThBGAi0uiaGQ/Y3ohLG9lFVHr2iLWYIm62GlEM43GHjItXB4Gdkhji3
Tq+XYNsmObtgVi0Q8M6005CnCLiBwDzXeiUBkBMPCp8gWJ7YC1Ke3OZRzslUBQeO
9Sd4sfWunbAiDT3SHVOwMy87tHTw8ZkZQ6rXNgaoBicqW8BLmjuysDGdTqlcU51O
GI7Xmkk2arXtQpH2+BbkzIZ/LigeX6e0EzLDRAKT70l48IZSC/nFwJ3DggE+4vcR
OIzNFFx4ZstLZGGvO+F5KcWP26MsHVE06UYcVcYUtpWeJ/MFH5nEoRQtzWs4l2sM
ypYdQjuyHCZf9iVBtG5pyoQQ4qNbKe8PBWWDtySPmxvqYNWhklkzfhzZgff579UI
s5LL/t0Mpqx3lKIJLEbRMhfcRs0E5fXxv/aP+SyqFveR8oHif6YN/ueYfgjXWYBg
4Y4KYEeASobCT5vtYOyRESB7LSVXSiT+kf3id52le9dOk0ZH6wQ64+irCDxwnX5H
xWYjvuonJ8jIbBTmR7Tie4hUfR4oCm2ul4oxSpBilm7CB9i6zqLcCAXx37DrkJKu
KekAEdmhlwku+6QhED7VLtYzawVRoWhnFV7rFWdGtCseUR+FVajLxkX6hMSg3oLA
605Tc7jLsgaZsgBx4/53qQCc+osi9u4m3sET3W7evhjDbcw07cQ8nMD1LpI7l/4U
zKxbv4SuCOsU7uH3Nhk75DcRBdbqVHhdZZ6QxhdfoM3Vg0BjzWt3MXR0hjc7UWRx
Yb9tspHU1DLdkpXnA9HPo/tBbxE//+OxenO+RHD7S+ZeZlCZ0gSXCg7QiNzQxQp/
XKvPAW8GCFITvVR5uemlavJDVrY6dkeSXQuJtI3kmYAlFQtDb2W5hUsxGIGFV5Zf
ovXt2U23xgkuo6IrPZjGvvgc21PwO7IvYG1Ycv77UY5eAEmEpuC3N5SxPBoIeY4q
IFCUx8FW7vx5Pn7phFr+ZdCWMlOcqvx6xWhrQ5d+AEF3oACJhQhxn16lwmTQWlT1
Ih4zcLQ/rgrnek1z4JaXGJDPNnL3zd00T1s+ABDWqISFUJztdubC/klykxsuOqxn
tG82RuDl6s0hX3eTgxOCRYYuCgKRtNoclDqEyECjj+S2k2igzMHRdq2KJdXgXY6D
QJFjwcqVAvOmxq+iqTdPUzVWEIzQ/CMXx599KaRySsbok3/mmnz6+nulnn5lZSI8
lt6RWeVBPgAqeET8TIB1okdCcxcOunVMzwmywQdBoLM2/P7xTUbBXPsszQ8mGWeW
xUD56TpzF5qWpcSacQYYd3Ztw+pO5kY8RClNZfu2Rqmc3Z3G4cVU+Ks7mhKKINki
g9AL9o6yB+V7yIrucwbgUuEH52K/IR6NpF/9MvuuUlh+jSIjsNfxzBGb0MxTLsOo
IUPCk4ypkpP8elD2HW3uRr+CYR3NtGUaai6QwzZl/xa4AlNX0ubc/j5s8uJK/l7W
ZWZofuVPmrUbC7z8t94h+gv9JU8Ox7qYFdm92A/FIrlQKjvIFzngoJTPY3lgmhsl
Hs4fUWQsUsbODmNjOS5cwNPnSVGyhbgb0BRpkkFymrjQw88hFB55O+kvmTMdYuoL
UGGXz7St4hY3PXYECukeoaTWJWA8dXFCu23fxBzGYg309GCjlFcZAOTGUUfDdFHs
9bmkOzQdOrocjB3QEIZDY9O+cJ7cmZZRxhGODNwgygltyDKTE+XQKbW7SG2w8uHP
dDsRHic+ReDgjMXGcI3V3VSx0z4PenwtyNEcN0D2DlWx7lpO3NT0+voa9Nterl77
fX0q9PXhbtYSfHFJpeCfrwYydne1+wv2kog+M4A2AN8OPy2SALE3TIZ5UVKJ+uy3
gDOiuArDRA0U8Ztf8MxBiV7YWnsOv9mHwiPvyZBZOPdHG33SjBZ55n9jX/+1w7pw
Akp6gXi524oOIUWQJKwRzijOWrNzKACM8inWDTMEzYVROsUpTqqoaweO3FUfJcsh
9MWqN73j2jkzJA1UI1fFNRXyjdr34noxF6lOv68kNQjVPAj92ephtuwpySZBY9XL
XsPLyjEpzgfNUFVrvqBPpbyrMWFa2fRGnr0OS+Co1cZYLn4S4kcOjKvdFNUh2EPz
YGxWujVaGt8D0Y0+WCeWLBwielCDdiJOOKKO6aPoMRlinMQTDXCRTHK68cJ9o911
jGNpDYLAAcfKn8KBMaS7ALK6GSwke9CTl/1qeg+g4L9V3eOAZcWS+svwghBJEJ+F
rMulafZOZYByUk3HVJgPDkVst2BNeKiOTFE/P+tgiUx4UBG1UMrkvZ8qU4C9hqu2
StsU049LUAqd78Wwh1DTi4anEknVlWEIbAxX41WNBrCNF6Z1m47097iPDZwD+MCC
A0fskAYN3ksJc+P3Mg1mPrQoHsJNOGmIRPHi6H7ollCTvcuW2bxUmtqZHCYAcm7H
ssPItxoGxSUMTKegfC0oFd/ghcYM3OuLKa5UoYP6t1y/VfhHPJWtEduqZHgq1iWn
bW2mcet1P7ps3ZZhXZXvzNHI8NW/qZ2ZG0v6ok4zBxm3An4dakG78R1ATl23RoPt
4PIFDUW4Xv88IiVXImW10quq25zJdQIScxHJkUzv5AZLMKNltBoYLLGkPNTWok2t
WA0mL9G5ZCg+KFGp6dcfWOCgsxBGXbMuNzxph9tyb41srK+R+nKOTdXS0j+ppI/1
b/NEMR2y7OYoXLeJQLPh3T/KXRg8H/2c8dC9PMDtZuTnVuhlqCUqTQ8SxzZE9Qxu
KyfSkem9I70bpg/iWaxtT3lu63ry4t3ibM0DTh6tnz9QkRgOy9ufys8WgXjFI1Gc
hqeB4DrHiQRE8MzqW2foRwyTeXO34IDpNv+yAJuZ6DOlfuteQ8uyPiNstQ9M1t1i
lmkmyYLSqwPnqAa2tU5U485eo2w5SFIARpTgSjl4xqrpp2dLlYWH/wcJsps51TKz
3Lma9GeUtS81GUJKExIEwaxv0o6j1UKvxLG7wwaeOCo1j18PDOPQcYwDEQIVI5hp
caS08gqb20KM07QyO/DKUBRsZDTq9TFYFadAutULjjahDbDEvMpMWTRkGaEPEIcF
nji0PvZsUtYxTwVR4qQC8EhQU2WJRcrQKkq1HmW2NLNUTRKB0K3b7OLr5ci8Vm8I
TsfaVh+ED1o6NkJPkYU3hUGgDTcxjXL8dft8h0tQ0SUMvzJ9a1fdLZ4DUp7ybfbB
zeQxp+Wyduv+PfMzF7son4MdalE7qBUzyR6agouAHZhK659Yv5kJv0N8V5IgEdWk
NpizVBjy8VwyOjrqVr5AhKCk55vaF6yb6OZSLFDba0Ng9mTsTUwZbM55mNQt/C80
mcmCSg7Od4CNqH270bH+LWwmiewkSHgiBs2Sk0wiBnvSY8TeRKo2RwtUKJZBTqJk
D18fcTTt1p3aYL7VCmVOuI4To5FZOIwmaQuhUF4bFFxrByx86kCSvgYhiUz0YjHL
b7uTH9yNVGDog4QuM/Ifmx8ZOZ6ZJpOB4mmc9cSCgoYzJAj8PA5cAOxB0r7cEsoI
rCXNzMMG0PSeqkQIp0dSRAOSX5S8gBhdEkAHTjtJYjfsvZ9I823dUcZTSTB+aj6k
o5hOkQ3li4Al5CEszh8qPK4rWafr57A4XB5rNHJwB2W+8uXkWYyRr0izGL1TDr8H
wpzwE3PMPRGSkQbG2DieasVY/dGjbI80nIt35d2GVWHN9Aq0O5bIiYavs1iF6ATe
l953i3O+jd+g51E3/GX6xCCCO0uQR3mmz/4n68TkIHNcQxJhgAN4oEdQMMB9phfz
HC/t3+MAScmBYvcFkQYOPo0Keh6LDFT8yuSFWRHArxcxXxken5WFvrKXuQHAi4wP
APRhIXrO7Ig3zcMkffnE/PvI24r5Yg7RvzqqT5YX/qj9L4dLprNS04J/lhHCX7pS
RJnyyKztYafh3sxLwfrHSGGPNAi9w98YOafo8ZA6v5qPiZtzid7PhML3F2/Ix3g+
v4XGXnXjH+TR9r7evx1IjLyLF/IZToxezUugv6zFR+f6ggJyiQnIw8c/iY+Ghhms
QY1kC+JT4+9naTmqeQQcSxBmMd8T6oklbxFLXiSXQ0Ivvh2fkDb3hIdX1k1AUVHy
Qw9NDkPkkjtfoHc9jexx7z9rif1/OIQ4XaS67X7woUIBiZDNowEGAJwfORi0XZG9
aWtvIBR+zx917V1qE5IpgWZJbbSO5REDNcrsziB2/6O4HGM0YZYoPLZ2bNu2Z8e2
bdu2bdu2bdu2tWO+97tJP5VOdf/oVNJ16pjWrd63GILsomTzr1CnPgZrwmJU584v
wJ2Omh24WlNQMRUa/1tJjlL/5tMl1aS2fTVkbuv8lNndMXswDYPOwHn25sjYT2eh
OszmrNeKtDmJgGAtU1HsIfyuiHCLN+cfGycjIWGGMcwmez0dcHZ4v1J2oMoKPql3
UjyjHM4ebl4oYScfUhTkKMyOnNx9m9OBM9NZ4agIQcwEQSpUNsNmxJeshuNDZmFr
mwgAybEUL5K/vMaPAjaDfNn26vV8p0ZbtGfvOzPnUPdtFgLOuMlwEfIHJoELU+dv
CTAhC6+IaAaAMNaQorOfsI3wzqmFY1d0/lK+6xaAQgXKMbUVKRgrm9yI6tJhR4ee
g+KNR8Ibs06jcNmz6Y4b7swxNGJFVQb+4MhJjZhJgecihLezqy4RhW1uTLrZ9yk7
Xs4oBtWhuC4fu3R8iKjdiH6kQPVK5G2jau0fP616yYSZFP7VGfCK0cT2AggdqNwe
B7hzIwpjSAlA6U8ZwkK4VreqjyxOrs0QsQpfKAWOvK0ouuLpXwSNdSj5ZSdAR9Lv
MOhYm2Kq5I6d+wl141aDNmVpw/sbNCOyojH4ox+i4lBL03aAoXtoUktoHBfwQ4KE
jSxBSI1C23J+LunQGRXpy7HV12K75FD6cCl3Zz8Ag0brJjFhiGdn/PUpgjFyIeA4
fOOdCTl12XqGBCvvg137V20jPT2SJFnftLeq6sqmbaIFaaNERMc9Xrg7xxANrR8z
holgCWa1+oWUsePVdVnFTiCztkxP2oYdhNB0milq3WQZmK9mK4rXRj0GjVmzPlmS
TLXC6BSJIDukbuKWLlG97CmhYkOVmYHRfAlEvt/oJOFm9F5BN3HCckopL0cgkjmy
JjMuJ1UgwF53iR/jOHoih1Q4zSKNFXTL4j41d2b0M0B64n03W8lecnSAYMOcWpdb
NjXzD6Nc2tPsIzqB/I8YqwVNo6D4MsFdi4bXHnZsSdTh3txwg8zhXYKN/UjSlht8
fC/W98PO3/7Fxeq/mx99Q4+eN6KZICC6Oh54BCJrCbNvGaKxKleQLx9XKys13ENg
KIakntaxnn0n5RLmCS2NkkcY93cxHb18a2c02ls+pjsR5MUztbcvmo1wt/bXIU2k
KMBeRjdneeY1xiPm5ox/AfYbISNs91dsFHgvZKZQ8WeiGU2YnSK5F6QDkShCcOHO
T4akFk5kqeGobyk/UqSFdlkVImlsyZiRwyWhmrDL6CWaR34W319wMjfPmxZmlZmZ
qdsjnpJVBlfHF4f3maIKeAGZQnjV2rnfDvycvYXv+q8jPJFhLj0g3m2UNepUn6g2
eHfk90VMwHul+4NQsGqCaDClOW0fyP5sbtjLhiAyHiybG4NqCtXUK7CVIdprjdxq
Ic66chhEtC4GBr3J7IHrlVJUdhJ+xZUGPdLRP9ATlStIuryoCsDpK1ljxPzavE0F
YvdSFJktrJtSajirjsbeYarRhqO8Revnmrd/iaJDf9PRMlmXoCdYpC1JUQ4ogudC
Ly9c4DQzdJMNygCuMX4PgsnTxr6Ypzdj4u40zea4RszqIihfUda/oBU1Jq5vxt7f
g6gLUSLE+bjiE5Gc/zDOW8cIHsbHa4jGQbG71FNOoeVVgwt5/ms9nImIn3nvEoM3
Oso4UbxNjYooiURxK4KFSxPTy6zBhXqU9GPSKeE4lMrs7BtvBHifO5wIOAPsAVOO
QSMh2WGmFL5Gok4KLWabArehEoXTu0U/L9ufST/OZXkPeh+9fVb+tqv52wKAbj1d
UooaQF3+3z5z9Zxa4zzV5m/Z9epXq3fzf+fuk/n7y/Mng+0k5bftrsi/DW0KYqA+
ruP1YWvVzP1XYMgNxnH+x4kEKM7Fft2F8a9cMYa7MJaU96epS5KTj+rZ/h/f0+f6
Spq4S15BxCKbp/rdXaAXz+ocdhSRxx5TNhVYKP4Knyhe0mVLdU0iqmOJ72F5JuqF
MQ6onZL5cOLneWiAYCNNaBtVA4pyfnzAUSUdI0uZw02wFI7TwI+s23ww9KL74XSq
R4/RyBCSq9XU0LQHtgDT92QpFZLEkXmvkt7RxYsbkCIsXxZ9/31jciGCQCjhQte3
Twe5dl7cUS+E2PQYXPBJyb0ehJ+4IW0SfY9Sy0mgGoQ131hz92wEU0wA5MVBEKOL
isRkzBhRRg3jwAKIqAmR+zU5Wz2ei6GW+xnZM8YzSNUwqJhtYYK3os8Qandq45t7
iNxHAU9R+d3EKRDdcWBBRz0lBjGC0gDC94mHwlycKtzEA04UW72d/IruUKa8uGDr
LvP4vuRfpS6/VpGysa9JWsE1v6VIEdsyPpZxGjm3WZ21vMxMD2dmnrGlOAevr1Ts
dUuGwEy7ZBfs6IhaM0sbz0+vC997J0K4XKIjHdjA5QJQ7cinu4t4AUF0seE/n6dG
Ftwx9M4wXVeUcPYuVZJYPh62zkaMcCg+FeUz3hqC03IzxDDHVqxUKakpRIhk4kPa
j9WatSSQF5JCwGA6Uc5uW85f950QnloSDossCdR6kNTAHB14fSoxFLWrpllyqF7L
kaAtUyMpFVMym5OGNiiHDs0icuUlSyULPZFKcszeFSWhvWX75PTMALcbLotRbEzp
vCpQLj1xFsy0nLyAQFYbqeaJ3fS+6W7tsqC+1JJZVTXHLxEdyE0wRAYFnX6F4Ioa
Fu4wstU3lwYHlO2QIEVa+acCJQSJZ2c+F0M3Gx3v4QCRpKaYIaL0jbkTKp6rN9IL
GFHiEllCCRo8u6Cgh8OX4jXLCrAiz5+FHUez8rIy/PL5cHkCkSP/Za6VcH+nuWKP
250LIGy+NzPdUOSrACwRYtyDpqlzx46CLCRTnfPX45O2FfQ9acYnAJIcy/MXx0lz
OFfULKkTE2omqoOHhmKOqOUa5DzYFclHDI2/IvtX+iGlbAU03GlM6FC758HwmGfw
UI3ykPBccKiAa5UdNuvPj777Tt+34KRPwUMTiK/IefMhUH7L7mM4vjnLeLHSTnyQ
1AE8w3cfQh9NAgHmT8YRF9kUhYMg7xgy3ItjQv8eIeykgF0Ky3q4yUo6IjoEABM8
CdWB//hGhAaubEXcSXoHhmnGtii7oP4KJYAmHhF6/M66mJCSagaTUcZxW1cpIr42
/q8XrC8rXKbMz3y7wjZkc8BwBcGWIS6pVxbYy9l9B2AgOhOZ51H5Lw+M62hi/U1z
rXKP1BF4h8PSJXrtc8QYJfxvIUgb25YbiS2LBYJUASdCbJxnyrumvg7W38iiAbxC
VdZfTf26kigxDlB55lFS/zUmTLUiyjzJAYpqlyPZ3s+cGFBXSmhc6Xr5+JzzpKI/
16y+z0y0ZEN+GBajNEv+/aMOJSleqCzBOc2iczZdfU7duvV4jx94T5zhUukLsags
kkcc3aSkHXu1eEx1Cun2akhHRmPd9i881Xf2WKd7V+4e2dbtVZR2FpKDchaYVJ7j
V1ilKhB7wEYffC90YtMMIfifd/pwYRiiuTG0i55wxMvXOQi71imWEXhprRN64tkI
dZXSSjfMFw6MF4iPfz437x5JXErduXlHxS8GkfCVuRwo3SQKTSAkwkuEX4siixal
Q3bwBd7pMmSmyXuZycPHtpV1jDkfuZ7BysduoZ+h4vcMM+4OwMu9V3QfhFMeHLUc
fbExkwN+KO9yNiEZi1ZHbg1NFnB8D66p47gRwTMOmJx2/tWO0cp/Id82cvR0jLJO
oRpmHhLDa5q/dQ/1/dGUBQ2lAmMBXxjDlIuQAo+Uli5iOF/JMNqAcfibGNtTGDIj
79pSw1K8aRNEDAWKamSP+vC7K7kRXRmjT9pW4KOOGkZ/25t088z7onXr4riY8EbI
mNhMFSy03+BTyOmPkEsaCwT+m8pzEyJMf2QxDLnv5NCKSTc78DBbxKRPKpNH8nOY
G4zOBa8HTAczOUBBTgehdZztm9kAjuqHbcWEYB6dfjHA7BcCnfTY7foQJ2iU+JfK
7biZRn4EF6umuJBdtmzfIq3XdDN0Gc0C6b/WlpDAyul5iyj6E/jp6f2vdkPmYCbM
SZH01G/5NKwS0f5jTyiNmzKQJhF9uYf+Hxx3ubS8UlUNZwKjmuMYQVRAdbG/lXFo
plYVGD3XpCNlJiriMrfHhQuXXI+wdWln86q0j64hZ//fV+UPHPlyas/6JRrM2aDM
rdwXPj1EKllgsZgoER+stfO3HK/bKmXFZlREbLPCoiBSnMkK0EoygyqUARUsGSe0
fDaHrRT5JAZL4TXxRQnh1Yov7GQmsgAiFjZOr1YEAD9vcFdoxoKJQdDglyNcVIZ3
9fyWVwqxBK5bQjLLg3bPy/A3hiEryKApKZVe0CCm8gOLaiKNSJf0CWkZ4303Zl/y
nI/t/J9zkw1nyPaax0Xwn5/iv0xVsgWqkQpueTEaYSoHskh1/D2qWMCl70MI5boC
BxF7jPrFSGqPchizWo9T+Td2ofUriFsTFIOnN1stladBeEC4qewIfbjO3ms1i18Y
cQkzjSoiLfvFEedebgZnshZczmqy1zHwEYvPvoJQY2zAmjLAkutHL2OyLzPN4MKR
JMIUhU8U1jDJ4oh/RHBQy9/oKPNie0PUhkONeqpXywRHFtVITZidBuBpjKXDqnTS
I7H+k5mKc/JaPgqxBYzClv7HOt9KCcxGEMlNzaVOODZkd8e+4RnChdeooTNqVNB4
kCmK4Nqx7jQvqWt50ogZcB7y91CM3PJI/uaSptdoQFVKbmHtUrjCATqmtZjTpR8R
sTKKNHJcd6T9AjeKWfFNk+aNdjkl5zxlA/tz2NO6PnijIn5oSvz1R84qBBiEYMvQ
lPaDVBeEeLGs2iGjMysQFarbhbf2edSYxDS6DHxQ6mIgTlEZA9NbjCtxVWHSEqUd
D/21LlxRdpPxOO+6GDBTtJry4VytfQFlkT+QwWRezaS8CTPK8/wS0mGyidiamgME
ZqaqPgvjO//1jMJVwjbPmt0phlpPcrcP5qKgbozGo2Gnz5wiWHA0bAsydIQCOY0g
beGQE/UlvtRliFbpecqEAnviocR3xqRsysCGFspAM63rRIpOkhgYN0M4adqRRfjZ
s3SMYDi9TO0g13kJ8XHiIiE6fDG/6ohkxpbOMTvh3GLOjsZU2kCUI+eV9PNS3FoK
kyNhlm+G3o6jkYbWXSLJSFtguqlxCdFifSzfbwcT/+kYCxUHLTJIKoiII7P18Wrs
qkpvv7H/UtNc/cZtNV0nOkTW8atxnhu377c9JkrVdj8eSmkLmPvX90cW4HD1bq6O
cqpJ72YMxU85ikv7nwWfOuR3vDiMsiPpbFtJ90vXXZza2Y1Qn2xNdxH3xJF9/ZK7
GxnsPbTllGgi8+VWDDkp1Qtzt0pv9ypllAcG+cjeVieizBv9TtuqADNJAzpHe+4i
jwcNQf3pfiNClrt+UXiIydzdYZLlSz3VuV69QT+acXQo82dk/cu59Q/j2ur7afpF
tRgmRwRXlw+uNULiSQJe3Cd3Plke63RPKdvZWRTxF+RjbYij76AtR63j3XsOwzbK
Qxai1m1Czb88oyr9Lr7+Ybf39cRXSZTFRFXHZwXRk66ZrOfDvSrWuEzXD2kzUz5Z
QXZwPDcyyFWai2vEQcHDlOv9Cj5qp3Aix/Pthh94RwL3rbftk38MSdzkeCqkKjPy
O9aSnFEyhphwHTtsAJaxiM9UMjhXp4kS3h74BaqXYw1kk7LQ21xkBckxnRxCqwhB
L3ZhQKaRpC73hYwG7Luxzg23Hy6GwNr198m7gRRuBm4mgXDYa2nXLvEvJyHLE9j4
gHL7eZ7mpAMDis1Sn0+E7Fa6zl0WAKtY9msJj5zK2HRIsT19mNS2S7PGqZJldWee
LKYGGTMEeKUnn5t/CB1dSOp24CwcwdEvyBbi82UjMpNhsY0jGeZdEqNzDdG45aEf
gU6GgL4U8UNyCLIk7Ve6vBCLWZccfByUyrfAY31JlrgKJzCJju7x54c5y3ESffnf
rR7QQG9m6uNPL5plB0v1v3RJYvz5W3YPWn5PDiKHm2ps5waUzwqtekdsQ/axkhn+
z6IhlSLWQoJe8MWThZpQbaSvBz12gvw+7YI+BKHpc2koZBMXBqxiRsswPYSPp/9K
yM7BEL7Z5eukxF+zDQvflOotvSHI0RLhaANiRhlGrN1iMZlEKzmYFOoTpvSeQAns
uyAx2HKTUQAYErZ1fXiF36udbjKWf6YsTn9Q448a+2NagbuIcVkaaxYXd7bs5djB
r0BPXFX0ZnTbNJu7aXTm9B4QkkVZQD5NEb2VDObk0m9xPXJOtjjQWMQrGcblpAnv
VbFf1SCejoDXH/0G0WG16BqSaAWRa2FgMk2VX5hRqRaLdm5RoLHZORTyV12q6fjB
V/TmVYqMQiIq4pZK4zF2DG3fIoGOqmgwXBLmbqGjYGJcL4CAroBgwmiRsPdGDCVt
12KpCQdnpyCYlfB8coIMueKg3PNJclyywSmyo9haiiRojLAQQ2hRmxeR9UNohwkz
GAiDsYSEDIRqPLEwzOV1ZioF4weUkleAs7v7J/WIPGH+SffIeCP+oNpD1BlY40bB
u0f6C8yf1KanReiJVM7ZL7bxyYGLD2uh2JFaXjHhKW260TucxyZmuIP6QPiV9P0Y
42VbpnXE39706Ep4Nhzm8StTy9KskbVZJUuTframp5fNvUbVd/xqP89AA+Y1Ubfv
VOR9hc9Gx+BxLW450L3CxoijURiNesKyqE5ZdV8kV1Pcu3ZYw6AW5gbg8wTLBsPb
VbLTvmst6/mSTf+T1lxeiFPJLGpwQgkVcuR4qLjcRurjHVl+7iIEi60yMRRxrkq8
Er5S4kqZi7q5LBbQjqul2PxZ24hb3tXyfHEy70siqBzqIOegpbM4P1Lscf1ytni2
5nhcUZmnhzhJFR8VFFPsVKgRlYNUPKSdkyNgrS09IMEsEJYi2l6SZ0VdshuHl0u6
PBTVVZtdKphs9MGu3Dyz18I6nOzWhr8qmTAZNx9GGauRLEVBt6ZvIrybhaHZzIHQ
WRSsI00KduRxAEZTVYsMobSVMAYTS9fAYpV6fFCeCWSEGeZ/H64k91eBjVGgyo0L
z0+VqfkaQHQ79/wNmdEufygAHW6YQ5FjJgurqz5d/JrBe1Yyq8VrqIqwH+lbEFgW
Gk5vHcLn1zhL/AERft+w4CHotJOucrGXcAoCz6k38MLLETMlWWETmgqstsv/cQet
BYzUQrEv0JnNRpPW9eP5ZOFvDghna029giO7PaWtLI546HyEk4NGIhZa+MdY/bGZ
e2Fp4Up+sJtOWn3Em3gFdYY7yw7zdqj7RZQJdWGpObSKn/bynzGJyqkIfy8jUOgB
osRNW5abx5WDUrs+6GVPkwOjWiyY9gK/WOAenGSNnTxWzuVbJ24l1qqGHiEHPuNs
hyYA7HMscbkf3gKIjncBTMe79/32pn27cz7bEz5f1E+3iJn2+uY9PwKmaTuzHl/+
cx5v/pP/Mfsf0/8x7/EGmPiPmf+Y+o//zvuZ9378/w/L3g+AmepJ+2w7eabdnmX/
N++jLfWRPbq9yQrgPtZNy7sfdx6eh++fmij6Of+ovh/b/8lfPEmBdW/GvHcZs865
iTLN/qHAu6r+0WOybIiwaeRm2HbUzhkBJVFIg0jXqNhQ+K90Qk9yGqoNpmeI76+5
C9MC9MmymYhWxrtN7EhfTwZTXq+/tBiKJwj2osBK8sddxfwUrF3vnaCYUL0g6yTa
/H1/MukKMqaqfk/xuoQjIaqxttgc8cY2jQa+ApJeYuhyKkGetTZbr8rDZcrzK2sH
pyhJ58Yiae13gmVnMs/OpM2YIF+rsI/iOyqfnbxs2305tw4a6z3v6mZf/pIVgHXu
9SclWJtM2t2X35MTUwLDAAdN2kW00HSCNvxAATdCEdUA6Yw9u2UJW8SvktyymLL0
BaWbDHuBEKTL05B501Rd7w0UBU4C8rtXNgR4dGQ9NUpVb5WLlOjj+m+GRG7/iiwW
hV6Qi59xY3I6SLux2BS6xwoZxwLu8vLh5vvxbfI+F76vzutdJMJi0x83+YkmcLQx
55nFmdXDH7rt7AExQhhOvLKXrzuTwJiyYzOolEj6+u2ihH+VehcS/zClnTFzHein
H9y+TVL0L6zWICkSZ9Gevooq0e9qUKEiDApc+DW2BnMQJsekh6FzTaQOk+cI6/yW
bsFNyioUNza2o2Od5H83Dkg0j+uN9xps437OuH+mCuuUlFPCcUARRW3KXK3//ENA
haUO+RzZpcWujDXtZR/b02ItnNee0hvHlV/4YIP6i+AYt7aFma3zCGaMctH0frYA
fGjr7UBBu//4Ltue7+fMJdMfOWbV2y/Zj5XTiIVckWKSDPsFbg9FzSaOS3BR0GYY
CXHn6ampW22lSgLNeeWzS3NqCtdvE3Og4orV6/2cydV1F5GN3de2DCotebtV0AxT
rC/SGRa5tpg92P03oxGeThTW7Ee5ImoOZXJkME6DWXMRi1OxGUOTrziuVq8/oM6x
/mYjVGE8CjnnAaS6WspzMYoz9wa5k30SQzZ4FAz6pLhsvwncinbepTfsMERlzV0O
VU+XXp0W6Nup1QY01jZN/dFJhGM+kWSifqqAhqtk1I/3MTCejsyx4yMozgy5r2Cv
L6IIQ47YrQl6RqF9yCAmndGRnxnGFPyHcZQSbouW4YOelo+QEtUsnL4wG9azugGN
ixaa3hPGyLCrb6hm25GU7IAqfpdh4hhcno2q1x3yNRPvmS531a0Sv1NDwof4gMZE
3kM2M+EnIhZVZDqxSYM9UGMX/1RtPRZBfOF4SlDnoTUtRM1/i2MW1yNkC9If1Jn4
IRazrqqG1ND4hLmCBSk479Rd85gQHAYMuYW/h0orvJDwjkxxQIEgtINvwViYBia5
NCgBpEp3xSid40zcpel5YlkE1zNPLY3ynhOuodIMrbXg1x3kyp8iQEVdHQnqdwA9
8NdVobp2qp+CGkCfWoir2rxiUq1CszlyZFV0kx/Z5F+2oNm0IMSij8RRoE/halv9
6a6EB0tulSeKeXf7VSJmp/qtRy3c2c1D8ccg9a82sdzES+truyA8a2JfWma4kl5M
mAi72734JGdDEZpdgVZDYoi3N/G4/6t1hvQnZw6ql17XQjStxLGqXCspH679lRso
mRDfak/S2scWu1iAN05ZV7QYzS+bLcqDXujmG+nrZhQOSXyJibJRIqzWNwRXYmGS
n7A8kJtNrSTY7baDEQM9Kgwlio8cn/BgyfExeldWWbcdGINzjk/rQ8o1iJkBQ4ew
wU0jdlyYHq3LDXBKDT7prkub0z2Mi9VC+gNpsy9Tzdah78va3D+SXDz/l9t3mmZA
NAfy6io3d6dNSyyhYa35L4HcmcbTQFnYgCMjr+nIIaDwes6f7/f068lq14ERbm7o
I88fe059Ojoa9qEFKQw2vzZWyrSyqasLDkBfV1NTpwHI6gdU1dTRqtNMp65OLfmr
VknTVLcClKb1g4FITnxLf2m6IocO8pwQfQHzOABG2nz/vEdINC9LS8uld4b6GjXH
7/Sq6ujWU+w4wD/mhpAq3jgABkA7w3klZwsEPh2PpJohrz7toX/ecb2l3bkmazGC
3ZBHba56eMPl2hSIG2pAkDHcQgJtqRa3Zr+AM+2vex8Ut99bmKwvD/9eZU4ccW46
0YWY+kn8jjjnRT6stH92TH8HGzPkfxP+oAVnQXG+QiEV0IE7O2lwI/JWkm6Rnuw1
jnAhG9z8vQNJr/oeFUF6LGTCt82QQPhpuim/0JNLBFANPI6Egrmv2zKm8HA5X/+t
eACIdadJM/qIbqK3hBND0h0hJq/BCJvqPn0q6l6qWME+Yhj/ENtzkCpPJKma/LHk
tS9Bey7ojieMp/Bp3pWtJOc/kreVe6IqofRLg2ROUUkL1/DeMtaPMkVg2HK2M6jB
7rE14RJQra3DXL4B4aH9FNOdy7gwVEcwsS5JVLArWihuVEiOA1s4Sg1rJWOrz9PH
ebJWEsicFrajYPZ64zEEDQbMvYoyjpBFRkfdAAEokNywDj72Lkt2aUc2PmQ974jt
J6CxOOHBu27/d5UXyAKehMCNsxU+cNHwNnWhiHTDwwHESboJAiVCfCkoyewMGrgS
RlKITKt4rz8XyqeWpWfn56ueqPBr6OhDrwsEB9AoYsSO4bfOCppTHclXgw1p24Oj
wi+j0Riwq1vCroqUjdeHsriXeR4UERtLkeQzOUR3zI9wIBVRjhzcedtUxb7xWdoO
OVj90RgBVWhhtc7mYjeJF+lWrXq3N+xadLSiirF8L3iSz+gXeadP97kdPtWbNrZ4
Nxzxm1TMH4cPFwfvQO6NipECy+RADWcEzhVzQxQwxLzqLrg9+eQ5RhVH5pEe8FyV
4tGza3Z4z72t2+YLa9lckQGbRZk9degGUoPfrwl4AWAa+Vn0pFaWyk9Fq5BV0YFS
JVu9s0fQWtEMfuvlBXu/2bu6un9qnReyeHXys4bs0b4dypd6teelYeeqHawNRNYV
8GuWo5myZifnHfg2yYU048XRtHg/98drj9O7a/OtlFsxsXCChWgwG4A6R/NsOPRs
+zb51ARs7/osWW9/rXIqhqE+G16U2diAin+//BxSS7jQ7Z/6TCtKAqCtrAbLMUVr
HVCNYNZcn7BbAU/ovJdz2CHKfGQuVZHukOHjtbfBP8drd3JPHlVO8FZibE/eT7N7
e2eLc/vYOlASonhDmicvEG72DkOVUcM3IPumoKXjBQolv3GZFN1O1vA/uYMXYLoU
EIE2scnSobb9p+510ddlrnsk/2ZE9heRnyoz3QkhapaCv6JFJK3AE/C9GP21PEL3
ylaLDeSvT0jXn7pOgKrjHbNl/EDqFi88Lo4tRMKRHY/5NOh7V3jut6yDqReGjuUS
WVY6wFdvXZJknTuhoWRHqAUiTK7LBxmtChsn4Q38DRExMMbwqlR/CRrAlIncPdbm
0rIeTpOusQVlLFF5QWHRIagD7wdMC/h82Qu6aJi++IDQxvSLJHyQPP7gcGlnTIH7
rlBY+6/A985BHuZF7yjCsgZFC6XgmkLASnf5hFKbweSbrjUGGAH3BKzC2aE59liv
UIxtIjlGwi0HdxhPBlpj1t8TyvR9/9Yfi9l1/py++a+eiu4AGFbVqqdXt66o7wBq
6WoEb/6AnR+Cn7fQLdDRXdv8YGScwTG43bpvqDe7AmwC79snvwXYOTskMaJ5scb3
DuVvgm5lHYkbsaI4ggO5kZ4siMmyWdPp8+W4YMvpBWIW9Fvb2bL+XlXXJZTy+8Md
5b21U6MDy4SxCuqACWVnZ0oTTeR1VSI/3ZHYgLQfjTBkrGXmKHBRx0NhAPC5P4Yf
K8Fn8LKnyGs8L6KPxC9DHT35qX9tk1Il3xSgnhSQe4K79ES+3rmfMtHkUx3yJGm0
X6iDiTjlQ1s6ark+zDbQ6Q5v4MwVA4o7jYH67IejhQvH61RbfM3xHsPuTetOZcAW
9reoIq0yqkX4z7/GA/Z8uBkHVsyBM5DKzAulSSZZn/ejkwyJcoI+Zq7K1EuRNLJz
4Js73aScRzKqfa8TGa34O/0YXJ0YfAbAXTrgwkiqLd0PIH0FWCVD+nQBNHeB0ADt
gaupq6WnEZwC1t+zHc1S8C2yTHjf5+AuRIbdxgmCzJoH5XHkUOG0Hrff18Oelg/P
Hq9dFpcT968dDp08C3Xc6O20vpWxNzft8e3v7oz4PHcc2twREXC+andz09+5f1sP
OXG8tSG/6t38AsQ9HFs8n2mEQAQfnL3PKxBwzCGBbtrY29vjsWfJsdd062t4/eXI
fd4P6+1fEbJ5/K0X0qv8voYHmXpl+n4qHVd2uDbC01eZ+zc3t78LC12K38s8v89M
j8ANgmbn7pXiV33q8XQODPO8lCK+lEqKvPtB5qISyA9kAtH7fZQwIYRWQAYEG4uO
Wd30NaFWgYh8lnkb9JeqSePex6zCYXbWEdA5Of12Oae2/5ybOuPgK40kpUvqnJSG
xtG72c/Hc/hbrPVO8MHm1gb3ivSsW+CuA9MwaA00WA100DEoPT2N2D0tLjzl9BJo
a3tvz3Ln7YGsrAEXuLc071akq3oeHvlW+y4Cy2UqPvEssGmZkT4Y+IgPeYpXziSD
OLs6EhU/jyQF5KOiT2Um9eMS2La16d0ajY/RcMl16iKs5VRShNbWEieASg6XRlv1
1eb5nNvg4uMtgM+v7T2KuXWysAkEAAy9moDO3cwPJ3W4Fl7a9Tja/EKE8nT6fe9a
971FQEI8QS/UQSD+0a4yDCjBWsUMdYau1PXj6Lju0X37ujBpqMP5/J4mg/jy81r1
bH2UVsjVfCpXli12XRoZtKq6sCcwUJB07/r0eq5s2BlSoeI+7Q7n0oGdvHQR3Uwp
9WK0ZcPV8wT4UizN2W+jGUa42ogezBXy9BAJqeQT/9J3awT4SIWEg8QJaCqFlZMa
0Z3VgseivrMlIaUqIgVIkeQLJYJKlHuQbHUvhu0WwKeO0Lbc4PZ8Wzfzm2ZxOZZd
9DwQEAEiEA8OOfaMH6x91xB2EBneWfHxJ+r6aek9TI8yooVGVGc6TyzlqyRoWl7o
irnHzVN0cuLgQE3zPdNAxy3xbYG7mPK134ENZ62HWmIdjtzZ59w0B/f8Rn8k1svl
yKIc327U3RiUX2TTk+kMz1kIQy6vfMKs0GQSym45G+o1tJXFSG1vbH83CirpaHbC
Xqxw1sffKRy6f5I7t/xIlIb8yFAI1BZqQZHCAzDj4OUCegkUjYwKyaF0f0dtyCcG
O4bIC8MBU2y4vK3FzBc37w6LRP9eeqxxHWG14ArogLYgBHGAd0ip31xO6c6yIKmN
r2/BgAirnrS0yB9zONWdJFRa3nmALFqn71a9/QJik4tdk9RAQvI+5R2xvKa6VZ7V
A+GdcIwhebSVuGXn6X6xiNyBS9og/lqjeQ43JQIFZAAFioP59aVR5NzwPi4uCpf5
8kS1clIabAXP0Rgy05WuwNWP1wphsQAZGBCBms5CVGQ6wZh2HRoIx6itF42uObJx
i4vcbInd1FIFM9ZamaHJCzKK5nhofAADEWYb7Bbzoc5/Dud0Uc0fXutzWKZeajy4
xPbmV4zJIpt43yx3WsKPRUii1QgR5YCKmkPkubUXctZEENHDy7On/Nhev+wB+/WF
IcaRpGiL6FY6blj1eW7y7nH5Oe808NRg8fCGw6MXJRdr8JKXTZqvNz4/MFFqIWJa
Y9YlgvypvoCa+JTJYIs3NImWhymyIjqW2bw/NVELo1AEP83yy68LC9yTcE5+Feyz
XPNWkpBjmGFHPTZJk6xOF+PY4d2j1XIYa9BfiHaQyUotLf2SngMVsb0rxs9GIWYc
nJP2sOLVEMJ0ZebCCHBURH73UGMRS3dt8qMYIqdCYhlLpvj1PTh84qabFNrHoSgh
euFDcskEy0t7/8YkpevLDDFUROyfMqgKjaxh4jeuggbCsOvP+r7hLO4zXIQ2TsPe
DFcghhr+CvNFZhO8euFtzxcEawPt0v2pJ5etUcQ2rCZjjIWirnUG1MqZna3ofKyM
6gyJIKqBtDhe70ooR/26PoAxfowJB6Z3ejhGTsZ8MV+Xu2qpIHg1JBxNDllLQoXQ
O/XmraPIhxSuI8x9XtSY1RdtHdW6K4dN0fY8/xFmYpeSq6WirFttNp9faYNwHQZu
WVwwjdA/6PadSLRIYgG5+mZHJVJYklRYgMHLhQR7jslxztZL0mcmtKLZtr4SIuMo
jCXdG55HEedbsE9FvXpPfRsUhlt7XR9rvaoPEzJKNyRhlkwFDL1f+M5t/XSHM8SE
2jStMb/S6NubeASnY6I083XVk7fnwk6HK7D2ZshQbfrV7fabfw21SNn4rJPfofVT
Yzyt8cyOG3cvM8xNtjzpd7sLfLuKUczgZtVLwfM/NjRibv/zN4RLCqezRpnHJjdK
ydrJN0UW0Kv5+doHTG49jN4C0NPT05V/9WlU3789AG/1BoD0aVg4Q17uIL6st9js
N837mSuH/EV9kBAe3uElqcjZ3CV+lK2wLUlNt3qeG0mW5zmFYYKoy1ck9CHp9va8
bzO4rwmEHAEYwZkSxfPgYzuFCLq2S2uMH9qCke83KgykGBg9iXfdAjoDxd0jPhhD
IEGmBYkFelSxnwWBa+9c4s0+jAB/rxMcoYBk9s9Rc1V6NnEq7mB6NiUwnzIkLFAe
y2Ao1Y5uTPyKhPemuDfR4dcDsXW6ypuwdWjnGgbwUAj3Z32Ya9FcaYVuPg35fhSv
FsjVF29LQ3dEr+xw1hvuBNpkbAxdi0iJtbFCNlxggeoHHhROn17ucZJgECP655Bx
8/kCiD6vV7ioCwz5VeUv9UNLbA+YasQQPdSLdx8lT25Pk7scOIqijUzg3uAJc7JT
1sXeiI1qSm8Y3VzIu9B5W52uk6liiPQ7h93FesqwEOqDaWRhlJAO4nnyphRZWYpE
mAVw1YMmMqF4RmEHpSaeZ17dMgvGx8/cINQmrzq8IiMCBBDPP3lomygOElSbgnZR
CS07izG0gxhhOkG1o7NAMtPZGWuVEOXmw5Z26Itfb0sA7t6980jgRIZf0G0AfdLP
+r8lpVOm3+H+gfdiMjEstS8DTF+mLwEPHblYgR7PZ8AHtT8zIG2lzaq1JwK8+wWy
pwC+/z3exllio5U0KNF4eOHoG5cEYxdWRI8LtthBgjZ8dKpQ26L14r9f8MfbANkG
I+Hr8KAjVM3rTVWjUiXPnaYcrbVSK7sbMS0EHiHdBs8O/5YPziMU+JzSsyuETN/u
NGCSLJvLoK3yxBEhY6W2djZcuq1SXHubSwo5T5trYv9szd05pQTf9rTgHHmYd2NW
qBzh7ZJSXPJOGSGDJuTSDSGqTul6m8G5Rc53a26QBM+OD1FEejIH7papyVMKubIN
EV9sMDVJ4P78r1Gi42sXncxIKihakTYJ5LwXWGdjsvEK1KVY3F2u0rXASUZotcq/
l+Fj7VqnyWBcxkrxekAaKHnqzuSiV2yGAcW4BN950heXATKfOwJB2CZZhoCaUwrp
f9E5hdTrV2NaMani+fhomK+KMU+aS4o5b/r/geb/oZprLPfRJ6+Y9PiDeNyCOW/7
/0nEeuSCC8XJ9f/vuUr2iY89U/5/oeGknp4pz94Jit/Kt/3xirP8QLso7vbuhuPf
wWCos0Lg+lRv+HqV6Nllb+3s4MFC7JwzFJCwEUO4oO+cxImGVuafVzsnKcA5q9MX
18kWcvrMYOt0yJAfwlYTQpt/QrHNKbjIrFAQxt+1YFydgapbw7g9BpSZYlwy3avl
xTnEemdmO9dMiPZMSNig3RkiRI12u74pxSSvtZlGtWb8nf9n+nn8POZUNPt55hZJ
1qji3P8rAe/+SQFFPcDeyeKwp9UzObjcU9X/6UFL11Z6cnhscc0sT8i1VFiuz6jw
kXyc14DqYXkaF5spdkieK+H041M570OqFpAkMm4O8t2UX0z68pOOW9sc9CONAJ9i
/srQz6vRNMaozQNJ12JlfQjB55NhpKscDae4o8cgLj3vijcDyG4nWztpVMN0ffAh
Ek8lq47an1c+7lQl+c9c4vY2PmCf3cjEojG88+D1jV+oDYeLJ7V+qFXHBu5olSOq
G5TqqUcE6TmcnlqUt6XUsGPDOalUu4Hz1ftfIgb/DpNqoD8zGkvDgr6eEmqrXxlg
AtDJAi/ffRZSiu+SVDGWh30EV8/VVFnLJ/VdVavEFuH1fHl1AtE21HguXjhltDkm
FCMj50XSqqVC0T7T1vkRvynDo8ZWQKt0P7gg0kc9rmucvRavvDBH7pdmibA88JKs
LLS/HGJLO8ZC3f/A2ePXDX/6XBNfeCfy9ExKG9tVCly9aN1RhlfpaC+xUUJLzZn9
nQEvNzxp2z/XSMhcCq7DOcMU28tpDbtDOwPxwvQSn/I2jOuNodr+193bHE4TATYA
08uLZlXtGGoQ0G7N9Rei2kAF8pfjSpTr+hEd5houyC/DnTgKFe6HpZ/gFKkNjcpf
pD28I+RMA4q6TA4QuOxc2WBCDWTUiV05aSD2K6oX2ETLVpSNW6O0aKp9+4TLO1fA
VHHNGI5qCN+ZKq6g6kGwjA8//DqcUtO4cNPBkTL7dfivpztM6AqS6wwbjVwyrV4s
VtWgiigR3dkB1/WQl6NblccxlJezscs7L56t2qc0oBL334Ns7PxqEHDELe5REIV6
QKSjcwwdCgSf9FcurpGWMQggX2TXeONw4Mlp4Cz3YsFat2O9tu76TczzxD72FEQF
1v7zzwoqxSauVL1Kz+uW5/XK+4QZp4U076YOqdmfwSvvuCVpJe74ocGnjNRX3Ga9
4Dm2a09lJL027V25i1NMO7VCRbffwDhbxHjcxVDmhRa5XcXyUMll5wuTEAwZXJUv
JwNREfQfIa8LyD2ActHhQ/QmYOh8tPELMLV0/POfARy+4JyuUD34AfgVN+7asOkT
GHrAneSvJQ2DG9xOUx+I1l4V1wL8u34Qb+f7c378bV2ZbAGtXS3PFgAA260/9ZVG
K2lxGCB8fQkiFhkidSfe9hjv926jtbloOl49pr+UJh48HpAwhVojYNqeUhNNttTK
2MRL5j1QYdJpjfXXdVSnNeat+kQAs970Y1yuSiZuNjNiTzkzV/e+GD4ds1iO+Z/v
nRcmMOC3caJO/Lfhba0Y+dLKRMXHnu3ohCkpqfcOUh2n5Pq0Gj08LX+D4zOrzv01
8WXMiTxGvQVXk8LhfRzUoF/FcTxnAuSik3sODFMpE3ySlDwAWXPVo50x0525igyZ
1kRtORezOvMB9b0jq8l2Xp8t8efAz0Xg/NMfevkO9hOgajVNc/ni/6gIAGRdC9wg
+JuctSzJxcySNL87VySG7NrjMvNps151XTiyqS1GFfv5j4r7/uQXApSDnhg6AQTr
AHXq6PgngPX37XBJtbPPmvE9d9X2o5Ph2CoVDfoPlz+4XsI+KslbeLDx17l8T9Zq
9alU5z9OZUDyt//c5+DCl9OT/w7A2tXzZRFwns/3GzkRrK8AqHb6huQBLFvdLgKu
r79nfZodrt4whpxj1s84Ma+cPyfpvln6iRYv2QMw7srw4kp08/cOwmMtzZ/OCa5x
HvLhyzc36uwH/Nlxx++VGpTZfH9KuGuvrrRqjQWD+Hli2udB2X4gcsdkZrRhitln
8+t/JFRz6wiCM++rLykuKfeW2WXGPGomvEBmOFDXEWFoLwTrMYdZXtCPB+KAzTqW
52RiADTt68MdiOXIOwhEKdOnlnh4hHaO3IsnLZbO3IsVl3OowxyLIu2M2Kzkfref
P3Fl68tI2AG6hHfxiS5ErLxkKSQMlvlecX+wgX+uWpxdgK6feUB+Sqp+VVY85UNh
T92eTQwPc5+cmjcr+nlcReJZHy4pNIw/c5173DXyw5jlp24vUanK8wm/Lx8bS9+s
r9A+W41ZY+0Yr9xvFk8dPZ1gd5zGExI272iJD2lCnDhiE+EAKvJ2geNj08iHZUwq
vEa6/k7RGiK5lwaoRLoH8C5AejMod+Yi9gVl/vmWrQFCCHFaPF90d0Mt9G+9Whce
6bAWR8Xjxh6G/DjYxgugn0NQRI93CYLKGOlMNSOQVRqDfgDvSX8E3Heu14y3L4Ca
GoY65e+8lGsobj8TYN/4O7/+6S0D8MN0M18e/nNpZHe5ni3ApmX/6p41vl27rkaY
r0gwsVLYIJADtEmPGPpI/+HK/IAoUQB9KuR1T0AalWyJnC62SMulypQA6asZX3iB
vesmcEU2hOSLsRcC6zLD9It9SzP0uI4KnraH7OTBsmf1u2XTu7UlsAcOhnG2ss+U
Q5v0XcAm/pGfDASHjqUCLChgf4dLcQmSWqcjILWSiSpOlTjaNSDpxCXakNrTgdMC
scgYVxQyOnacs/Hhst5cXAIHYrUTsOKoyOk2c1mx/RJ2HPACDjK+xWTZL9uANtW6
N/jd7VefDLMXsi/ztEmUS8oauwsTXihpfseO+qHmxHXNKP+u7KusjhZ1aGLnPxbU
IzMemMQpyS2j5BwY5u5GBnb+xrCbF088tuPw33N4lonjgCCcqq7QUTioEGOMY/5y
SyQDw+dW/rEQVGqKdQFaPxgCFQrkrsUgwhOKcpr6M+IQNc4Qt/7c86+GneJPus1V
VoTKvgO8FWW0DZrkO+/uGjY9sFhq2mwHldkz0rhHSDY4WSJ5xFxZvLK7IBH1Kp1D
MCOqit9tiT/ybNhVOyXm+63A6dTLraQA5tFX8q9L5MFIRTqyjTBwU9OC2hLTe9xi
BMzjvOPQcQMv5l+bX2/fWFytx+6aAUMsi4G0EscdEKqOZsAVkDsFWWrcXWrgrEdw
v+pe3CjcV45s0QmNC0/G3yqtocmoy9Y1VWzY9wf0D+ZEAbRoAe+wiwvpAFYUZkCs
O8wg2iqLqirqizTGMNeTdmpfjUlj5V/HqRMVMQPmZiNxybmjrIBvER9sSH1jNboC
CXpq6J4yLHaUn5e/lhxRm96GXv/Ed0cnW6c3EIQKDIUEMJ8eC1xbfBv6v6wh7Elq
C4beKKE69ctF5n3zzRgo/+FFT2FpTCwoGdZ/BGftIXpQL6glWLDZQqzWIB4fw7g6
NjCP1VuN1gdXkdmI9R/tkVswORJv882eHSCtFLxyOZHTCgYQEwL6FFZ0NsPwWBpe
tcxQSryBJtt1tgZERK+4d11ky7VJJFLZWOxyFwvUBlLrlXTGHUxBZUyjtK00mN+T
cEadjra6CYPAKe/jvBThonFLgTBFuopsSgl36nlRvzuogS3W70P9iTKQExFWY0Dg
yGSkr7oziYFAqgKHZKrBVfqxjQJagGmtNX7mYIQhP2X2KVkJmbG/jq/gGnxqOkfz
D9hq5tPyjFewto3KE3SAD+EZJiRzyQvLGfsvjxrTmMqvY8ETZCxRnRhLzrgdT/ln
d15qKjydv8kAXgMff65hQgs+X7cx1bGBg8kHsFAmUUb9hOZdSzID1Uk35X0jRft3
AyzmsQRb73ULizPj0upbaLXj1QP7ahwoAZIzj9FwnfMEgs88yjVShnUtvxdHqBYw
PDV+C/kUW4S5AeJhGSNCLZSWQzWFhMWcPSWsAfuijwrUcVyVid4QWYs5aAHIVhrB
LJ6h+NpjyaZrT0quuHIyf6PNKIH240px5NG8srF0WOISJXEfaqh/UDSt1uPPU1Ia
vxQkQ7RkMod9UzWpwF61c28szR8LCmvLrLxAzJxpA9DjzhiisJUfCNSkNQIFp3Th
YN5nizIS07j7KHzMdD3iBueIPIgBK6hCqK6HcpDAsgvctZIjtE8BvBMoDszjP/Iv
03n/aaYPoL+po6WrR0NbZ+x9P7o6dfypv/5RnT+zTQ4Ac1tUNfhQcezMcGEwVXD8
YHkgSFTu860lecSxUFveuNJitaLHhhiP4GfBfXpm3drfub7QOb8yyUuRomKDRpqp
Fa7S8HH9O2joDGnVy9rZN3GMIWDHkaUtzhM+zgP59e4r39cezJ83GTqluoXPVLJy
uVWQJv/1MAk/XHDbbUEibtV5gy8CGSIF9NJuMMyD3fbx+3duhvTrkfKk5NwFTD1s
lAlO1bDxQqJvvukYdxlLXyc3Do3SMYEi8rwwFMnFHICNUeN+P3V7cancpXgQI+Tx
fljsiebjKqRv/bZDlA9hwO8h914pz/BSWHRHQtR1Rqh7goajC1ylsufIWfjn+ft5
rCYeBCzevvDOXkPbrXsu/53EUO2iRxVbazJzTJz3+Cafa7k/UMsXJgtwuu3UCReU
KhHrrmwXzxj0yyMXsuU3Xn77hz3qb+IrtHLBgZkV0DcS+kcfRwkwaOImu6eSPPy+
i4WBtx+Az6ACUgK83P9tqwY7nNXFBQL76qbGFO4CfrbXm+PpmaqMIVrJGJJO3MQy
ihfUVyjrSJGjjtiOp0gWza1p3TlsL5T/7aWOSd+6yx0knbal/lsPMdF8OBLhGQvr
6xQng0IOpUVHjBWzqJgRaT4LfAH6Lxjnj1goK3VOnmvFgx8C9jWK+l7HbRu1SjTZ
6YMn0/NfudaUNmrwnjGit1TvFz9gIiF9+UJXXxe8tvBfQhhgwrz+p5lRVt0QyXln
Bj6ZeHARUD6BUVKtQoI3m65Ni4rZ3bPBFpKn08Xf8/39X5K5yw/TdcDVlBKbKaAZ
ZP+/Iav+kSNVQ7xMiXyA8PSF6VJlS6evpMy95ZR3ny9S1ztTTr38I1+Y4sJZ5TCp
aNwB7BbeMFtVBni8FNvA7uuw4HzvwQ3LJFnvUyF5YFkHIjq00c/pMouZ4gwMrnHj
haqbXQXOMvD8JXQFJCHzrvT6zUKTuMJRdZVHvjCdMwKSF7qhsn4Rjk7Q8RAfv+/H
lBv8z48JEhLMOi3Mvzd/mQtyhtGVcTECRY2Ld6LCIX0f9Nvg9zL0kh45lcDqlAJq
h4K1kLCR5gjtI3ONwr2b+2+jsTBkmT+suhqeKAWZh/GTwQGI4ULmK2IDqAFaayoz
apKxYD978PvzWbj6MyYSK5WVpMnkvCwVK39s85S00PaiyaH59VjO9ljb4zwdS3Ca
0g6/tpuuyrNAb412Pyim/L+kHmGn/Dfe6Ur/CdTS163hnwKKf8b/W/2RP5C5z8mg
irSsWudnxBY30VaJH7rVqaksU36h2vPPPLb4RgME+Hi4BLgArw1KuCirg4JRiCMR
ihTnLU7DXckM6YTUEHrJ8TAGRAS39WP3hVco9nS65rU2BwHfYptpiCadjCJnK/rh
62hciWlDUv8/w0D3MJjnvZDFYjymG5uiXR38FaXN88qIr2ET5rUF03b91ha8nuVK
FzvRjLWl7Wui4P3pznMu42ddv0jFnMxdkWVICx7S7RYnRp9cDsVPrrvpqAhLd/ar
W1fbpCZMKxMXoLrdO8SLCwy6ul29ij5r/YzpWqrws7U5Ypc2csn909g9dYbXvS1r
6RJYrUpgpXCmZxvsYR8GHmPcMbNg3ABValDU3Vt4X4UIO+QYEd+7Ip9Bn43PqA8q
qzJ55ZlU7m6xrgWI3e64C6hghKCCYpGM2YrnyytjdJ4Qn8BymcT7fCObho+N5J0l
KpSJBpomw7qSr4ednQeCf7xj/jJ7YOITvWDNmypGVpQMNt2g9WSfdpDmYj6yDDVp
79TrtFXbzvNwhe/IXnK2xv/JKl0aeQmp85SKb0zImwCxQymCe5ZlqXT7nJDTW8j0
hTLRL3pefJGcwyoD+hKcHKhGiydVnRrtxo6WTMBYtEIG0ATuGxqOF96ePNoHN+dg
y0Nn+COUoOh4aAl4tPfXDmzyw8WYzZSYvJXHsIoQLq6v6ZhPhLt7B+smC6Rt0V+T
JMPnDTjyaT44WJgoTVYYUR3CxjXjyP6Xswj6lOzZNfnY4rO5wb6qrHrlS5q8yiBH
+R/ZvV66rVIKzZDM6OpKFPzPoE6nSnWpYw7JyxHnzLe1yhCbye16pX9nsBNch3m3
oIUKhyaEkbRAI7U6Ihl/Ic066ltYw5UUqcvP2360IbGoNHxEfKyT2kfV4IdaPqWX
sBGuUpnp0KBNJKc7Hvem+9iqpU04/7HXGY2TLGyMpEjO5I/YDCgb3WGdjh6Lbywc
jsnJqMRCZbDsdNb1T4KgGUmVRT/Qft/edjU2+y7btGTxCAQsNbe2b37/wTiktwoj
JGbYefCFJpDzFsrOF2YYaqf6Uk4oo8fJnwpJmgq9LqJWce//QsA/qxb9agYaQn6A
XQf6hM5oyYo1Hil5vnWNZJE/WgFPjPK1I7LD9EI2RXNZCJKQUIqeFH65VuoKTe+G
1AYS0KxToUKPJaP9CXaiKLUQ7ieQ9xSwAsTf8QvOyLsDe1oA9Ctry+b9Dw8dAYDV
V8BT/jcFJJB8lgtsWxklviGnDQPmb1NeSH+WtvZsaIPNhgwfEZL4Xmn8FOeF7elV
Uc8OxGN3mV4NvUoauhWDSm2Xmramtk5uvcoaNRrVckwFEjduz31w00tvzz7uoJ5b
R5kFGAf9d8WNq9g/WwzSBMj9vm1EYlM8NSddKif2y+6lDuaqqk8jOJHR2SWi6c51
v/tlocBCcLUaCWl2xqDWDgVNzQrCna0t4gHttoDbB+aqMCVL5Jgr4dY2heHz1NbS
qy1kwpOPW2f+s3cHwtXWq6Oto2hEUCXlq4/oUClX4P+RXA7RmTCMDq5t27Zt27bd
qW3bNqe2bdu2jan5/t89NyerLJ9NEh8lbX3dutpVoISi67z4cDDTPwgtwhu8OxUG
jmX314/0/niSlx8uweGp2ga6dUB/UReamD/1fP/gewb+ol62zi2Jht8u3LdE1m/3
96q7qeCXF/RAtBJ42aN8oSLKmzyiPSnU69IaJKBV3Hxvm0oSNP5L2ilg7sLMW1hq
SkjYYxOqXxM0tL/jwK06IuuC21eRvOunL/nYZAMBY7tt+pT7bienUabXLIsbM632
JMhqToYJb79L3xZ9DKLvcMk5lESxdUe3SmfrmdouvcRmlssd5x3uQhBWMWvmWTbG
92B6Hro9ktjaQrNlSnGGsSxQeEjnxNaoyhc2oJbWsLk+SivJ5zctT/zwKoXFzomy
HHHNGZ3DdveVb3wD1WR1f9iKjTOWm3+S8OfhMMP1kM+6gvFFuJDtFmN7CVdxdZ4e
o3PVilzDAUHZoijh3NlHrxot3cTlYBLsVwA1kzsagyI5jsV4GWs1rwFlAVkWfzkv
sPm+FhSosvXFyrrLZFP/faiLc9Gv6yOeB/6FE+VCobz69Ev7FKatJnBpUk8qR146
uvxWFS1BE155xjUwVt4THy7ETOhyqityQZk1w2bKpcaHBPpxnTM67XN22KvaZyt/
8MLqXXiO2kd6dahNt/pznX6EvNCWzNfqCRMNq8WjYk7s9lFeY8ttM5wORf5Si5yx
aWCKyBWr/GQm7IBEdMdcoetpaxhfU+iffq1zddZXWuXFhKuoFf8hnzhNukHUPfw+
tHpQvgSFMnyYiGZaJFoE0tJRAD8tg78Px/fyzKj4gTCk95Tt85QikFDuGS61e9Rl
ujlOeT7Nid0ne9KoSch72WCXjMrUAhaL/0PhDcLsNXZNaX8bhUDlGrnSSBrPzTvr
zlHqVO8I4yNws/D9V8D3EbX6eCX5IFALV7wIAxqPTj87AhGs/OG5FPBsyK76c7yv
uQcYb7pETQAi2AAw1q/RXH4BdF4efwH/733aX1FWS64IaGHYmbBYACSAEshNmTAZ
ExUYpc0DEQH3q23aqH77bpsgxNm/QHfRttGbsHu5uVpLZP+oO34jx9rmnz2rXWNy
oPDyAewwl8TQyjv5pZZLRWGpflEZijLSzJqzzY51473+ZUxYbL3LP+rLonACyVh5
fW1MVFUIjD8Jx8bM/t1RjzTJwLg2YiqjdaRv0z2bOJDYwzXAX2F2NDTgk5Z5/ND+
ppwdWKiPbd2i0fIwZornMKr6so/gWKtuaT24ZKss4FrLWXqo5XQ45EiKX3gqRe8w
6pt3niCKPQgxOKVjR9pdATI8mUOtdTXKbeHWv1+NvS6fRMTdDRrb1zaxIbX/ehTx
ntxaZEoZRMcV1G+asu5SpOei/VjKz+7quaEFntrZATUgTde5NxxZpfqPm8mnYQIQ
5akkraf5+cru3vLUOwZRgbA/BvcU0rbXNK11LPcq5Zg9Fb1MjsMPVaz2kxVuTnX5
cPFR5CbLDBJrKKctjeCwkY0mphaYpqcmT4jqkrrrcLBJxTbTI4yVWvmlMsyQaCzE
mEWbdMg8Re/NNsplWl3wRTJNoNKyCbEENsNJjYzprRIa7I2LE++p5gXEo0eR2yRI
UUFo9UV5wa1yGIspev0OfXt8NnbtON31Og0qmNbIQ3SgOF7TzPpPYF/5OoQjX+uT
U1vG0Y9D5hrl2zXoVMmn8nh/dXwtYEkYlpXzS9jFvI82HOgwtDKoIN55kK/J/AwG
IC5RdzNUV42H/5hac/6JRhd0hrLKa8GayYQ95Mua/laJrAE2EROwOfaf/1WM0P4e
egTQxDTsy94CNDBoEx4BfXO/92+hoIk6haotMQquWyHc76VtdfPPK89DePknras9
zpLKgbzCqWuc6U8WmGfkaYPdiF2WXINcsiglzaXPKZ8G0qkKQXVltT8g3gSBFIJ5
yjB7l5qFZ9yw/f18XN7FyncJDPn8LmVkMcQy0ndRPtEZ8stOkmMONy2nSljxFrTT
+D0tqu0rwOG2RSBNDoceWruV6mw1aL00OBj5ajI2f0uFdLli5g41nfw7J07nfUBp
FP0luadEq7s0EdE487LhFS8CyOM4nnN+WyexUkLqyDqZibDYMRJ/XRxMqSoqsISY
+miWayZsuwRBw7JbH1yNj79YDUrC2aFyxgYXgzv7TPhgX6XQabVjndr/9Kozq99M
j24qtS4YJdaMrkfJsfljtGC/sEpcOUWgVU+ol5PyFWtaYuF4NupRM/KqPmwMrbsZ
w1uA5PL3T5a3y40WGY8+S+ZZpmwQ/yQ5SyKT+1fP9HvKtggtJuhBoTZ1MZgNUbU9
J80/ooK+8TE7VmNksFU07FsKnm7GdyKlUsjcfOIqTqv17GjY8nBj4nxtP5qXZOmk
S4y2naZQrDVXyfvH9yhH/GTW9y2DhROiOA+3BMs5VRuzDH9x5IoJg+vTZS1SOH85
3FPbK5KyCr2tZd5W8DI4IHo2TekHlzgwg6V993f5JBbZf2R4r/9VTS395IkZutco
QpklU/G4lsBptpsvBeyWbL8efwTIAGB75zLWAOkYmlWV7wDahI+CvqX9WNaS+MvY
TBAhxxZofFhSDVhuPYhwxSjTsCZadm/lalVBFaAJF1HCNg/fqdgkCja1HvgLjx7i
XZoM5tXArUtTNd45jV4IoimUiRABgliSa9oeKiI5WpToSen1t+g5uaUo/cp7lP5+
yUSwARdgYz888W5mwlN2ESBxlF9Y2hEcq8Ix/fA6pMJfNCrHh6AVzpabMU0ioXU5
2XeQUMGeA3KgAE4kMrubhzoR/YHXXzT+7AgCSU14oE/VwEc0xLUCkdryFdyr37J4
z/CIb541qQE25giAlIdC1gTOwPc3H8TTcqMkUCw+bPidKJMzNCRVUVFJ8fnWV+7w
MNBWx169sp55KfdbekfosH/uqMBsEL9c9E4jkwjUGJbYPALqCPh7sF4m0BSWoRLm
VLx1cO5C4fEt1SH/7OlhVDCNaG/b9j1kByiw3xLYOjXtzRuCyiXJQCI5yiL5STVl
D5AlhRRLrEVU4DHoYSsiSzFBYqsmr+Ss6bmFsY0wPdfh0H1D92CA5ZSL4oGxsf5g
//4Oz5dTEircIpRiud4LgkHagbw0fa6y4lsILdwg1mGcAq6DBRMY7AxdGXmlUgmr
h9aYYEXDg89QWv4bQWXGVfvsR3/nU0CLkn3uchaQOo89EUS8nhak3F3MTAMQFqln
078oXdOSAjIr7wjmxCIHJVjeCGK8h4qpkZqiR6/7XT3wYYRXKeoDvvuZ28uMgWkh
UKObuoDZ7yk9KbjlogTfCwtPbguSMkUbTJ+u1nZ4B/Yy2HLJOMBPGTBp4wOv9ypj
bvAejGnxFF9yPyPU+rUAjIHtQnmXi0yv92y5/7GI1BRJiVG1kP5JdNAydn3FYxIN
m2VUPzMKsq/g205RlH9gC6u+2lz2nQjWG2yjoMc3asRIhneYSzmZCnEfqpwU6xX9
JPeNZxQUk1A8WUSamTqvtwY0BUvYdvDgRbw3F/gp3oo6AAt8IhCF6gou5/32bWm7
M5mo4+GrxaL4EtxkwNrG4yp7/+f163m705oh7l5B3dTh/P3ljlg+d98fsg5iT6Kv
zGb9ncWfclaP17YLwz2JzH2n9USt2dRmkZ4ZfvcOQekNroGeLrcKNFpoLdRwgB7G
3KvP4CHD1dDoppRxjSyONyWzEza+jlF/aGqDXMepQbZcxlT2O+x6Og0surjO+phm
M/4ATpsVv/iQeqFjQTa4+cHHSfjyD0ViKcN6XuVrFKnLiIHrQq6+++PGheQLcreE
LaX77Qw3u1QtssDGw+BiVAp7AdNvOn/G94V1pIqkQpncN/2FoIJn6EPFv/NVgFv0
nqI7kPfEr2WlhmwBoE6D4FhQYAvAtwX45t0AyLWdT/7jjNv3WtxnhDiOUneNTjHD
Qgxkei7WQOseTF6Pec9WXEbsKy99j8KiI9krXMpflbRIRDfOfsBoT78N+Tley7EA
5Vd+vO/yp28/g/rEvdVnrfQso5x7Rxd1BQd1X35h7MWwGmfy8a+uxdonYr9kPBUa
Lnz1CKhOAp2VJjSNNueVDEhPZbwide7baO+ZFD3gjtJiIWjkXrXDqyO1vgRzJeVN
lZ614gWxhzPtGu2E8/f5OFN3OXc4+gwZ37SJb29w78OO4hdGmKdXKtkoz94tmeU8
ElfPvI7/vCX5THpaZfQKuyVsMcDH+7ESIhEtyJ7WQSCu94qUa14f39O36fawiv4+
AsoYao8VXSQ6dOdZ+0q2uftuaA7AC5h/KNQoe2gPAofrDtKEYpOHhYs4aHX331g3
5/GlLniIzHBwRlKKEElVA3HBlDOUVxQS746BRWhAZ1/JpzWZA310TAa9AxGFjMyh
2Nmzs8JDXUPJBzVhN5rpjrb5/XIyzd0IkdFVih13bhhKozqkamuWOiM3XqsDZVyQ
rLEKprxiOaoWFz/vX++W1Mk/sUehcAvNwm8uX1lDNQzNmkS5u5Q+tf5Hu9clLWqW
VdI3unBQqNIeOajUyMBjzRziz+cfcEIu7HThz4E/PZZnSUPfcsyPldOfOVHCgM0P
48KCdonz0OlASZ91XG1akayuFflcozBQULnliU0G1Ulu8proBOcG5MurKCMtb8nm
fi73GxZnZdan2Tpak65Se3Nv0TIogNMFxfrL/0MhW/g8/vVBGuWRvWVarSa9mn7+
txONpPIXKmLBeYAS+C2D8BoA6tcOuu/BXR1FnULuTR0x2U7ma6qKvV1EQ30jlQyY
d/HrtARYFv/VcxWwh30X+lV8F/4oyLBJ+3s1hXIaYKDnGwt4UNwDLAYYLjAswIu2
+yF8lUC9WvAWFn8g/9k3Gne5aZ3/Embk6vbaARHoCvSFwEx8hIJwZyL+Z65Y+eX0
MA4naqB0tLAhfO+6gRIgQx7Mn3bTC6+DqQufzA+Q53FM3bUgCV/R4pVGnN3fSzYE
m+fm6Dr1NI0lw5n9R+cNHoOMcIPzW9hP2BNZD1W4skzVN0qWwvtlE8Q7l8NqVDIg
NBCTskwQn7GF5nHLFJ7w6q8dvlAW+Lu83UclxWENU6wIfhs5VvXZIGH4RN9UOYSc
Qi8Gc7w99i3VgBI8+hYy0VzYB1Em8GK0NjhyGWQg+ibFIFf+yiTV5Fi9uuO7yWXT
ylSHcQF1ziQqgsloWg8id7oGHG+0HiBsIgBzZr3Pw9j4A5TJERId8vO3yyyhrylC
kNWVJF6hRxzdxYZWxMS2B2alItn+awRlFOvKjK8Xmul5gijWxnt6+JxpCtQv17F3
GXrvBIx89qNFnvQc610clwMekQjNSiV7l3U+D45bKbEy3+mO2Uvjlqw+mGwoZH9d
WESJSWYvEawgqG0ahThfkBlLQaQkSmid7MTQAFiBR8g2kFawNLTECRg0HMZ5g7N5
FaYY41Qhl82t8rjA+p8KWezNJi6l8dM7AzdbqLftev+KxivR7VjgyKFw5kpH9E6m
yhY5LW4QU+66bFgkCoyszZHklRFaC8AyHx+eEiprBuL3ITwVRbkZVLmXzZpLrXCc
hdgBg0Cv4e585SuhreLqc4QLiA8HG9K9/fjo9jeqXnRlasXvwGiexr5N++2vUs/b
s6L2ovdmc7IXOXpXhJhx3U50qlaCaY8WGms9I3hT3k+cKjqGyTq7roX132ItPF6k
xbKq18UoNZ+DB7J4CdPg9ofJiJu/myDpSQRvNdN/QqzY2dWZDLtJgGOc+XKhtCvh
a7LI4+aLNf7UfIcm23mTcFAL8t0KqUWVHI0A0hxy+/5cGzk4uAR0twY4wuF+cH5t
39iNiAjqYsbgu6MEsVBAfWv611uKeesJS2ascRfHyhn/pttDy1oJBdsiCplDkBOw
6kcFjZJB//w90fFPqj2tS9+kC72cEpB1tZz6Y/tIhBqogJJIExmX8z5QLDmBBbdB
Jl3ouqHa4QfzaAIydoqyFIBKjB+/5Qm+if/iLHXxj5/EOzhaMKi+6Y8IhYSZsLLv
14F9GPnyvbyZoPLEqHOMOnBeFLtT8GxtQ1MiX/VfIC7t6xU9k6Js2Tq1izVl6Xwy
3eVv0zMPiUADHzgWy5dUs1LmsUR8Wmp5rKTi/PyV42ZXGn7hRdYHUsrTlQ4YNvY0
dkMVPkH09h8vLV+RmWM06XKKUCSpK9TLTFB/aSx/mjP3qXGyarrPchTRI5/eHhqG
MEGIG/GEv9R42WiyPv7LNC812UnpHlMGZZPaoQ9FLxnAiAvAomoQhBnCBemTfLIT
7Vq7XJ5XhEMTv2Dp8mNZLE4tlHViESZW8KYXo3x2lmpLM9d7412GxkGLfszTn1qg
EY9TiRdA5SRGZ4zniY+q8M263pF50P4UvZSSeithLUoKI3NN4Nz2c2J1Jq63e1R8
42SR+Mw+kDUPzmKQnqmBujh8uz0rq6rv/YIAtct2ysVlLZurBC5ouTtotNHkLH6O
orX0g0EgP3pqEVxEgs1WVOUHMJWI3BElf4udhk2H/DLx3/c4y7LhgPTIDLPhuLO1
M+Iz9wj60T+mvH1VxNtRJ+CZu8tgDiqMMBo7XrS7jX7daZGnEV6sEzCLnMoc4kmc
h1fjWiHnbtswEeXDAjrTWjt1f8oxwe4bsxaJnsiI2CSBoZLNm4zAGiii8dLIXWZq
+9N5z8ImCN7PXQyVd10Apiq1fsZf/aNbS0eZP/um3/X1XoCnFN7nEOUKhm+BM780
PeYLn8J/O4i3eIJ7v9/zfT+dnHeuR+HjYh9bf+xu/xCwX6SWTkj4v2sxxTT4cRTN
h3siOotEoEblZHC1rRVGJgG3eKdLaVednTNzc5WjgNwBy+0oz3tqyWeUy5vY3WRw
1MgOTAQVTIqzYYtq4zW/+aAqNqUi1PPg6gyqbwKy3H1NsemOQ+oa3xWo+TnQ6WCo
RgXGeYzLPvLJ5IvXIhbOjI9G8szvb5n9zGdqaLsFs1XKZDVs5iK8ycWf3Oyuntxp
fHKTBQwXKI93UmaUgHDCNQgqyyRp4Gb+TN/Tnr6qyyERLy5Ynn7GXnTVKPVt7m/y
7tjfsL8m4G5fqL5ixbwWWAGa3e5e53t2D26mPwPW023MAM1NerV0mhq0pQB6ev4x
wAdNADtW7MfUEp/FG5fAWzACDxVhhCLo3z7Zk9x3gmGxIQiCtkFieih42ojJo+Jj
K6lVHQapC12tP/WVswqSk7toQjEj95okDXIPcEzyp6JbCA4af6qH3I9Xz3L0W8L8
vDq8vrs6yvYij/Eii0rGzl7v5vxLwgqY8gMAS4QQfjxt3WDck5MsIC5WQ/nZdw1+
DEmz2uAlTMSiPCxMUWDC21sjogTKvDIw9xgSpaYm0IOJTxEF3vgzv7OS1M8hDet+
hrmGNSdXvNq2Gdvko4/j065tRW9u3+l+PUKqGZ6GpXKGcCS+EWBC0vartkXo0rrp
DLXraan49DiCQ7wVuWQ/OA+In+bVQGvkMyVIcKTFWwn7BJX0V3Q3Ykbs0NNKb2kB
tXNb9uwAVoPOZ2NdpTKG2yAMubk9f0ECbrgUyHudhpnZ+YL4bwNLgWD9Fk9KHdfq
upPi7VGf6DvDuvTkW+JuDAXhtHxB+E8CCZpb1LjlTOAM5QPO6Ie2MvfQBORVBUT7
k9ubZIGrAzSN8BbvHnJo46AXHpWJt9Jr6GxWFmda0Q8z3uSpJTCSlTe/T4sY0T2n
P8pqnLPGhCHrfCIRot+iFBFBF8PBiPNUQF2WViknHuAPnlszSuWzYGP7FsuIuS9Y
xEMH6OArDlt+mcPDXGfGdvto4ZUhmBKbFrwiPnQHDtLmYdQjzJciyxqxAmJaIs9p
79mM+DiNkWIKYILDHS0L6p67sDvxeIjkl0pzqcLUC4FzfR7mFyR1sqR8xBbu1AeN
7nwjJ3s8jdLDqt5AjgQxuH0CUmPQyqDQPIZej9LJ/RbC3r/SiVU4Kub+j8saJTDC
Q3Wz6+koiQJwSrdhEM98cSpwVDyEL/sZIYebP4X5svdKMPwAtFwNeqFqL6BJFCE+
S957NPtHh7KeRyLQdDDo2EtHNtWjT7xCTQJo3Ay1Ly2h5VI3YaywN+gU/ik1bpwm
KjNcX2iygSDTbF5BO/wbwhI34DlPmeeNoA8glKepEjHsjtjXocKRcWIw2D7XBR7E
Y90XiXLPy7hyPO9eBHJJ1G48hufgX+wuAha8KPQl4c1IZC6FkGZlLRX9dcIhvOtY
hUuzGvxYnnyMoY69v+n9oY18smd2XY2Z/SPS3EHufF2tLSTsxq7Hq3jouDwqh0nL
g9efwgF9Xj294E21uy4RvsXhc/80qVrn9WNdPA4j0PQ0CJ1wV6wDHYMO3qmVfkBY
ASLiuNlittDWQE5u2oXwBauYMyZv1M2Wo9mLaYqgrXghMpcgiBUgh9zWQCODIz0N
mS+uZtkLt949Wlmlu1xLf1znIhLNmKcY2E+xgmRulz+bTnRA/qunJrSQKgZFILfL
IRbWLgbQ/j1EO2VQ3ax6en+aBh24m2Xm6rEBmtWeARSaAwKbhiZmbcfhGPDsLfMT
hPz9joDXOlKrtF/r0f3ZBcb5dYFOyp4pdSP0zPGTFEK4wk8SCCXt7JaDPUXYxfPe
a+C8hGPzbR87y751jjG1NgqfkGg/Y8l9u2LhF2qIMhFeyPcpXAK+PY8ITCxzCKNE
pT+gv8aNdsR2b1w33SHO0bMvfyxufxPzp7VVfVGPLZD/taQsaNZ6/nhDbxMbonnl
kcJG6K3IJAcWiizJM9/KIsVxwyigHyWxfi5McFaEH0q1e8TrQAqyx8e7t+HS2LZz
G6+zamAuyNZEZvrl5SxC5nuLUUlXD/0kFVGxnvSirWI9XLnfte0PJ4NUWY9ftzus
OK6ITuD9wGJGG8xfI4sQfRuBOVojhFPh+DQgu+dexWAyKlnX9HUkuKFO01ijtAEH
0rliDoQWPoOk9BuOxxt6iSakAfdIrZIKY46YOegR7NcciivgAhVGk/D59XyIpmws
0miNxdHKeKmNmcrgJBm2fap/ZFJ/6IFWzJiqLCNCNtgAV/jBBaIDB1YvV4EbQfFA
PFfnauHsw/GgvXfa30EuNijUDG9Kk/Qhp341AsF8FrIXZSGYn8Gzryolyu+ImLUJ
VqJO4xz5becgBkNVHxM8H9Y37GrKwrg0MdSrZzBx18ED1p3jScFRWKocezwmvq8P
Kfyt6m7FhDa3RnmubSbWWU4vDFDkQxR2H76prRzkRLW6bC/Z/5n69FAhOanREIIx
k8s7RTfhhircVI+C6XR0cBbVPaDNCwX6CKHH8yFnrXmJ+o48oaFdijU6x15b4txn
h3vuS+tSjIQWSlhK2zPVaJKh0PB0VF1SuP5IAyOaC2WiYQ4poX83aTJIU9jriR6a
L6KwyzwC8xfAxoroSdRHGiwQMUqUOfagkjDvjN9CGvIcH8R+qsSEctnfUelsoW4o
DcwZn1dIte11nNsOC1QQpjWHe2XAmX/SbMLqId7Gm34tvbjxlQ3o0j42X0AHeu62
8sLaxgvEqlH8pRcZ/4G3g3UKgMYTVxaP+o538RVQyWHKMcrXyK9X11wXIjGJvkvA
V2jRIOWZ7GLtYaLUYAGBjtaGOOLXw46XzP+8rqivqq5S0dfV0wvJm4EsYY0yFK79
we6APgzxrfoPd/qakOSn3m7rR6YqTdo8s44xpMet1U84BJSwZvroysVmCpft6sg7
4Q8HCwuhTqdvfaRkCotwtDcbpKi67pDvReYcH3P25V6RxBov4hAV5E+Lv9jkhrwo
k8KCkr2T/eOHJU55Rx7MxV59uEC7qvrque00bebYd3P7U+6HyXyYe6DBQhYOnf6l
+51+O4GNCfuiWG1XWw9Yra+n5rtEBZqh9oHwdPYWRbtsrj5PtqABEyjka8glSgOO
H+he1H30he7Ht8+sxxBfi/u64y3E2Udm52CRzbbtlSNaEqG4oQPoZGrgt+vUOd8i
4laSyrw6eIV+ypiGwPVAnWN59l4ghDs2Njpa2/zeXBMTzYSyFpRta6t4pte8YE9e
BOKV8MxDdLqT81lFJfUAE4Oda+TECFx8Hcj0PHhtnlSskTqHJlWUfdoKC/eg1ElD
kUgUBpnmDe7Rk8DWE1DKdrkB1xn1133xMRswDz0P+lGL+iKKYKzWpmV5x9mDl3F7
RITM0LrPXVxV8EVFXVCHTo2vP4aWTJtqUevpaER7ipau+2vOeE53d+06VkR1lo6J
WblVPRNx3vy/iySFUkUjMkO4OBNenMXZiUi7jP4ocFV7dEnQtR1y+QJF0sliunYi
EIxqqU+YyNTzAnDXOOESoCB67kADf4bsoX+iharrIT1Jt1Iy3cnuMzRJfo3ogNwS
U0qxiqgNo0mlHUBhB/APSOg3iquWKTj8bgX9DEZdn+2wIG55ecC8UrgXzOZbH2PO
NjZnnqpq1E9H31HeOrD9B0dg/K00dCp+IIZqQwSYUyTNAuygwxHPuvUbi5Yq2vY7
lZFYNwZWA+W+sQnPgjrXEt0EDN/J31lcCMJ2C8Ea1hjbCcxWxCLl9CnyOptwgRrT
hAPOqw0pumyEB1yP0O6OacYtnPWUYDT1MDNiXdHwJD0S9fJP4wuL3Byt7eBMgmgu
L+gtT0c570K8/P3uotTwCybgZzmklNLgfG/9UEq9QeD7+lQzu6Jb2DB/Kkv91fu2
Fj6Q095SJvacFxCedbYI6yxeugKT2evj2kcMtjitLOwy6rQDmpX8jweZuj5j7OtP
S8+q8uGgaYPiiC7T2qa2FphlJz0RPUWlRiv1QcksPTpCu3xjSIXsYsy71gDhcvY1
YnB7gUV58W9yrj0KNTQlFjSzbRB27jLM3fZG0wqBppIoOYokLjO+2ZNEIVr7DmMd
jYFsIscq2gIaRyMjVnAEwuHAMmQsSiOBPwfGZX6PmUYmD6bfClQlVnq6BuhpN8vv
+OORiD63zDAR9gcCLF8DtJ2wzh0kCOwRi9796BQKVOzawvxhP0B2/Fp5oHhvF3RH
5LWdV92w362LApLff6Ysf5Q3X54aUpgQCTAvDi08qAVw773wnPymOMgPGwAjFFLn
3OQakr4nMfPkL7VrbcNaqmbX1fmTGIdy+k3AiyA1Rg+MJkHl875Y1hQqm12YCXEu
NXGimsCUoQJ5fdvZgDZCceHNLg9zW6on4uNgMd3v5lmsMaWxccLX/cICXG7nSXaR
ieoGi/WFYdVnqsnI9B5gOq1suAX8wCNmSrJo3OwVkJ8DmPtx/p7ABiuhHZltjq2g
IZgGPZ9E3Ze2zy/I0YrW8CJ7ank6vSA7Y8idrbeeeI5xQfw8N1F1piAf8bVk3XAd
KMUfgTqdBIxBw9FfzTmvngvY84AqjQzNpY+CdNvphNd+w2OHqbl4gvD449byDaz+
jzPzp/UzJ9P61o9/B1Dw//IqL8uccNwVhaW88qyrxxTjSs7mBv1tHco72716XnBo
v8lwce2NTTLGH4iImPyHnL+I8LnjI1snFdEEAovrEaQEj//ZjVVgcnTfaGUC1zT+
ffK7QLXshtD+1vnZadrNZO3a4vIMG8X5mfNdyKN8cYmMCkv+i4ArKQRbPOluGhAh
rCvgjF9/T2mLV0Jpj3JfIhbYLHcTxFGP2x2RWrRIEV99TE6ppOh9u1SxpI/K+/tv
Mur1t5WWope1AYeqh5PcwLzFnqKWI6nrEWWOCshiKmT0Vnnvl3cSUPGkvRSQ+G3Y
SQnYZzkPMNDT0a+rZaj9L9HzSwUYjgM0s5z8qZqbqbHIlwQyY2fjo4Z3hqgKdWvT
oT/GKRt5Ivd7oTOlyQ/EGudcvbpOzEqB3O/W8Hlb7zNLytMu3g7XbLrYd0ZO/iQm
m/op8cZ04Tc1t+Lk3OWd/+G4BLwJ3zKSb62Hl0BEFPl/yv4xQwkUgMsyj5sRlPAv
1f2VvEtvXItg7yjGPQFS65J+e7ZN9FfnZFgH73K7t2X71eP8zahf3ILd1Vni5wSI
KfCQBEhtr055bjs3/SLPXrN+wME1/dNdVpDY4oSuks5Mw8OPoKT++/x1iU/fluxU
VeYWJO6mKTNUo82knIillOnTeL7X8As5YQsKLneKDfftDtfCAuG6CJJtBATqt15+
kgMUQc/rWaKQjFRv2NLlRXgmq0EK/ZhkNzLAoqx+P+y7CRKdTBx+evlchm2GH9H8
jwgcx0/MRvjZFNrivPuzTcVyFKZLgvROmSrOh6rp07EExXhMvTAEkBzZ6Ep4cI4I
IoAHkaeMC3ydGiRVFQPE31OUVKjoYW1A+crSUd6JyVFQDoIs5YMHmBw5i1zujkdU
YIfv15kMZWxmq4aenheUpHWXcE+FndOqELDDVCfq3RuVXrO+o614LigF2DIuAD7x
PgF+54LVMauu3wWjaePfAYbMvwkEV+xuZI0BUj2IvVYXPq55EoeNo+67q6fkV/Mp
667y/WWhTtm6urNhDTVByeqNVXQMA4BmaGl781qdnHq6Y/imV+XHr3vTEJeX0IM7
iNs3qLfuHzO7mPvLL9OjofEOcUPmP8o9i7E6M1uTO4h2LCtvdSfV+Hdk6MdhsAOf
yBllRIwod9n6IePbDUMQylwd0oGCZDZTw4/77+HXsmMButr6MpOA1b/j3/WAm2/B
BJNn5Vh/o38FBTi1Y4vIexJcx2sdZ8/3gwuORMwRi1qlN9SxI9FOtouESKQEE3cN
x2nT5kOislbty9KnEMwi2SQ6LmxKRIHzj8RIEJAJ8uKiFHxncnluv3W0dYrEMuoz
ms5Xg+7QnvShAV/4gxEw89YHk0RTle97potpzAfMY6r5WAjxoESmjTwSQgqjX7/w
gj3q+0b/MK5AI44oG/CIsYmU/HME+WIDu8R9SF/NIATGht69x8w+B+6UDi3d1I/j
S5zSfM+j5Fs79qXtUoVN66g4IsNcsWlNVYxXzpH8xO2Ux/0lgNA+sEnb49uN2IM8
HdvARH3ljKLssChJA8t5w/9GqPrNn2RqtpJo805ed3nJgy6ZV4le0mCwOlXIE59W
318zp1AF+BPAxiufcgK0X+wlatyjNfgVRvbZxGpSzCZjGwsoF6IGPVBOKhKHiixj
QyW9PJdGVMXNIXQ0TFXHUmVnwF6UwpG+SOGvmarSLwqyR0bU3T1YHBTlj9/C1MA6
tIGf8rhAadiiyBKqsMQJAbCAJDZCFGtsY1/TuGhfU7qiz2ZLoMCrsfoUU2ZzFJcp
QZcdG2cw+tN7F/CxbkkAbTuj6FzGj/kbIG3qn/PWr6n5CzPgWPNjGUIvPjOe2+Rl
eQ3xPL7z1aenD0DoBiiA0345PQM4m5uHvQZMT1evbv0juQVoEB4HAFRfA7Ao7p3O
3zqevqasDckpuKrqVCUOMf82ZG4YOdcIVKcp1G/fbX/Jdpasdt0m/tQeUflD2zdj
lY81D6bkA+KswlQaR42nol8Jhir2eUAIbV2SdRFei5igTo7s+gm98Tv/yvfcth51
RNCzpJfWoqZfPHMdenGIXFvTnYBqYjQpwVm32vZEMilEJ9y54/Uh/dh+TBQI010k
loxhL5PviQwTbv4tH6qosqaNtOaGm5K1ncS0RZlA61+tIbR1D1R915DubZgzQF3E
UqUs0S6JfCk7g2M3I3x2bHih5p16wbtxOAcihzsjPw4iLDsrjgH2tT4O+NxzQ7MU
pZmZ1RaVzjpFzXqlUmb6KZ/gQ3OwpnzKZkU/BnJ9+MwIu3Tt2bLuFf6VmMLgxktT
k43LTI37gsgbTmXnAS7qYay89F94K4uhnou4A5WTXgVT9zYw1KQWqMaRK9QqJgEh
3EGL9OzqEJi3IhV7b6rbehbkIemP9+RMUOTSUQL4agk1Cer7THlBFeHTRHzZ4cBu
Oak/t3OHinkZlFF9i5+8Seb/ajHdECdxIP9bfGTIRgTopfbEeB4Uibb3F40ac8jN
YOLvRxd3tUOOuvFAZ2UPQT8Q5HSVgEJO3QSjLa5M4pxLp2QRrrGaxZtZ0MyQf8RK
1CzDOjCUpjCldq25OgXn0iyYTYNOVXHqz6T+YabznRArXwdhaetVsBVrDNVR2YTg
EmbCmLGTnWVI6WLJoeF7pCBi3UvOUg2L9CTTH45F1eYG7vcdDoY4nBc/syO2Ri4S
LhsJrZoGHvRk/RNK7CB0av33KrHIt2qTuaEFaasX15B16El5BbruU4Wr1WbremLl
WOIhYOhXMXdPoDcO8jWAdlo27fkDsQuM/w5AcA8g8AgCDHYP3LtO5N4L7qMXrxPq
N3T/gc2cU22/Ol/nHY87OzzTKCmNR/S3u8lYAfi7OO5sQJgluL8GCDXzS9cPZ4Ee
hwZlPlBoYihObQPdAImRgVZOTKFIX0kA3fzbG5bCrTkLgwAhzx8KL7O+eHx01vmn
rCjz9iGMzU2qlkMe9qklopAinD24yD/L1VLg1KW8Z3nIKtyBRJl5doeO/XijVxAF
tnwcx8a/lQGxKyYDOpk7fcDe/wPY9Hkao0gucXr/0PxE690DJyOd5PENjIMewyis
QTSYvnmk45vSwtlslsIRJ93kmvwV+NLVJHSZQGlInB0jg83u6+76PyF0BhJwBtzc
5PV9FyEheP9VXmyrJcRm92QC1PIxba2PDl0Y82PoYGTpLQ5qrzqRqWsQSUMyNhEM
ogi72m8oP6GV4UqFRbiLJC+tsiwa8S21SCuQ9P5QO5ij4C0DSX1ZU5WCXPM0Mtdf
qKtrMtdXbRHtg4S3UTpWfhFkl+iWBHRgeWL6LjKxpttmWTFJx8p+3bXiEFb2+JzK
5z7po2YvZ93VNY97OPMY2brXaHSpZqMX+ehnpK4nsYGMisIlRLjVHtaECeCzFfR7
Zc1PXhMYQqkbg0NeuzmR/7rXfwXG8xruXi/qO64Wx+E7J+UXhGWflpJ6SNylztia
8FRdb1+BnrwximxQL2hR3nhkaheo5osuUWxlChzw1uEWs7vLn51mLZ9Er0AIGRCl
qQYUhDmSZYQdLbhe0ODpNmCBl93tuB0iQ9Fc6M9xTebUVzwFHCItvW/E5YxK+1qe
8s+9k7PQw2PGNxhw0aFaZ3Eq8DCpHH+FLpJXz2EfO7g0BI01AiGLnRrLNSHKbWYl
4DBwCaDIJ/OPYNrvtemVbafJifWgOzSlayA6sq/NgQCN4xhALGTD8UCKqQcD1fVg
5/mAOqyEhcS4g3b2OdZyRFIkM0lZ42TKLkoRJz81eAp8U50fDs/wrfEnousVgcuF
W1Joq88Fsorbzea/36YczAvipe5wpBrO5yd0YM2S48JrVMIUsot6n6ohmVR77Ncu
HpqWft2muh/3eiNyHu/fiSNy5ZYhWFI9Hq8aztTbt/4Dyzi5jObuDE3krepsqgj4
Pghr3wNMCs5h9gPqOTk4Ul4JW194fxLqPQEBcbK3WAGF9STO85V8rSxwlL/R2TMS
rrfmkv1WoEeD8J28uJ43K9A5lx81olgKNB6v2B7BYfvqje+zTtV+7kiosDMSQGUG
ck0NpWjA8VW+S1kPcyaXQ/avJGhFKiS9ZCmTohp8aSCGSfNg6xUfFyct0hQjPZex
Tiz74TwUgZiCxCMsH9JKSXn/Nufrc8JGnuKQnReGipbpn727eaDKqyONL8hqTUD7
hv+UE4FZlVJb1GbSKSrfrk2vPWaByAljWnOGbqCxgNefoqLioIIyzJeZ4zln7Q1O
dXTPLCWXQ2mVYFKW759fouAnKI45SNAwjguAIEPNML54FENRX3UPbjBKEfAHq92a
6hTFzic6moPXXBtgAEnvY74LIx5PVjjb8yqnLldvuwoLIQBRYTnG9OKv5sRd1iIK
MQlZQ+JEL+XwzeX2KImKxEEr59nUQVNCsF97B/ar7QPnaInF18hdDXPDWWkU1rmw
+LUww0uAyyULFd05GvhckFrrSp8/57YXFwf6KZEytURGTdcTGT90io3GygpNy4C7
24lPu2WvbPH21fyObUsMjkaJ1B6mByTUmtfmtqkVu10/er/4BK4/D3Q1rT3Vr5Ut
4xq1KPAI5ufjEf7GGm06cVFVWXDRlgAdgFDdP4Q0FCww2MKU0nkr1i+Hg9shwVbg
uM0CRi0JD57JwjzMgxa7Q632uD2dtE5enXCNrjN3vfw9mwD82rD742zUS6JQ8rCp
asn6yerdu3y8W7YBjGleV6G0j/h3E4Z4f929OeUw2HCA698MOBQfuZm0MZPo1WEv
4W2HYMEW+EeNcq36SpP3u8z9nXaIo6AMKiMcg+F7gWuMMUnJlYlkqiLEwOZWiHOB
Y3mxYqOUknR4Cl4CvNT8xi/OJ7oeslT212HeWaIuDCqKt9/8pfmrhvgKppoFDr2K
KLRJJXT2DMT27kWiAugA9XmJAca//Rq7NZwqr/txvIAAwySAYOnfcHlOqGFmXW1s
yQCeMrqPhxrPIeKTMyw/3PkXrJkr1Ng+F9jYvtXd2qM7jUdebb8APB/FRtNzp0cn
/4KjUhSXBEwQM5esAGgGionSmxN8QZGaKKo+Rl47IPLOBUNIBdYoiMWgeZfrIKkt
lTD1903h9G4to7AhNWQU99GbyRDY4SJgzkP3uwuHqIqaBh7GfiK8nPRvZesz0s+B
d8mocC8gcldSSFv1nSjNQs6c4EnTwS2Hy0koJkcJFA4ubvKLLl3PB/fngctoueWj
Hf0uYmrKwyBYhI2gESRAYZb+nIr22McM9mVGN9x028gUuPdhYLUOPGSvgjO3fAna
9lXGuYNBiy7ga65l1M5hItbMcfC7/qy3+xks0hAnowFSonTjgUm7xfi4wqp8pB7S
9bFYrDyTqnOWvWlZlSSEg9cv3xg5bHdLof47Nbe2CUyvqnhrG/5xlY9/u2L9mvsS
YZz+Q5uum9pX0BUH91NUTWZ1gbpy42iatnKg4WKGplCaPkZbTlRvJJtVw0c4MYw+
Mw2iDLce9jVMpboS9eAi+sAEOSHe/5/4iHQas2nHrUqs1MV1JH0f7vx57XXLmXtn
yt8FO0N3JGgN1Kys1GAtz68apBIT9ZK37YgcRbXCXmWVHm6rfUjSLlBlCH2kUgeZ
jSRIBEp9A22qgZBdSztJ3da1IT0dNXprPX1/dGb/II8beFZo0+bW2+kdcAKNHb5n
+frY4oMZHnKp8Wdn1/Ez42i27BfU3KLj0lM5oDjBg990Qwsx90W8UYMuxvqyFGtP
Mr2kD0oRYvJnihm0k077+AIL1v5QETFNAyXzJmfSEbMvnU32+VQur6ezk0C0Lkbj
RxM4ixqmHCDLKoy27o6tHknhf3KvFs/+oZ+tW8w722k+i9voRjZzgdKB9f09+sbx
4074mPKLmtoKuvAeMRioqLpSe6gvXVppMNqEA8YSHP5/ptM9L0CpJdBMSxdUJuyK
M7kwnjtRUG8fKk8yC1AvmwR2j/zdnrnLEDda1nH9zFbcz9CEqIUgsaOwr+K2RRfx
Qbvg6ax+spOdw8q3DMn6H8YhKKtkXN3j8pApLM0Wgz4i6WIoFm1McDFFAoeefZWG
qBeiDzWRe+WxIF0RgWGJ2rEwSerdI3rjO+7gKZmZma6CJ+GYFBijFkppyM4gBHCt
yPz0mr661Tmu96PUB1/uhLrkZx/mOqvEzvlPOV3UBVrl5RFQysYowiEm03F9fd9J
99KtbIJdjIPI42kGO0bsPz5K38Nhi4Ng50PjwQelvR3XUxYRH0jITf85oEHaaCC8
wacVYjxmbERf3Hbj6sreNZe6UiISLl24UarUfKs9g0ktSZi280t/8Zn6V2Ws++cn
mJWfJTV4T042TnGPiYTNFe6bWQCdIG8B1TYNJCBDDhi4poMaZzQBmQg1/CBygv+F
Wtr6B9m3aAITgw00YWbGjAVpRUeBijlQt+pQV2ww02As0Kd4Ui541XiDBV6ZyuDS
FSAYJar9SvTqRezHnq0poHmQNOJu4UQpQEp//Ss6AZAzwoxuvVbsKwVEvOjQFwH6
Vyv2JgF9U4Qb3dvbMhjafppcdvyCu7w/nRuXBn31no4NM0zuembTB2MlhNsfOw/8
EoVN2FiYtrhL/bS5BIPS7JfbPWbT2wvrk0/9bcYefCGzwLxtcLuCw/xUrV8P2txv
ey5Li4jiM2dkFWoXr67HvIm9Hp9nL8AZBxZFUtg4W7zhf5h34arqadLYfwX4ynC+
/SgB83sAkt+f5K9+5fryV8Bn3s+85g6gaTrvJ8HHsNghrUR2BH5jIx2nA5enLQvW
sWrrtifEZG8Rhddb8iWE5G5yReJ3w8/3beyt+wbwNPhV2P769Qzc3d8VJpB/9hFQ
VfyzfyZRq7O/syUCYMSNe9kCVMR1/wAcDACVHo+n+wHtXL/bFiUwI/1bhW/7n3mA
+/qPX9nr2MMACB73C5zR8FeIQcH3FNdVyjoXx4oQzUdtD5y/qfywX+LPZGqqPiUE
eoykbkhwDIHwMzQrkRFIGW13/G+MwcpZhFn3xlPYAvAqpa1FHiGIhc9I5A7N/Oy4
xisqvuojRhVJPQ4m4nCtXheSyGb9pd3rQr1lmCpuWK4/yiNnNm9M6Tm3DJf4OjlM
FlsMZfnweZwSW1L1kxzKYGSpS8IPj4yuIPCGdEnDMZX0QADr8pR9NCZjTXS5P8pu
H2f6rENcBojWGYIVZouPu8TJd751bjsimkS3zXPVZ3vChwJodIL8iBUSoRnLneBS
bMJDhtbJY5Vh1ju8JHDytBy4Lo+/4QJ69ZiQ84YYUuv9Lm1vTWY99olXWC3iDhsE
n7sbvZhJ8f52XCRk7NaaDVMBUQF/qtNAom41JxKonle5PV2ecbpdeMeCGtvTrKLj
mVUDhcUpURlAVTw5idxfv6sD5WebbGBXVFap2ehXx9dNRPhBlGuKk+7HVD1QxI3z
L5MzI1mXKumCT/IAJEj0IfmE4FgY2MZ48amUKYOcb30jHuHIJN8yMyuTd1egglzg
EE0+0urUaEQM1FXcoUoWzvhifenfKkLIgJD1POdDAdvgx2FfZ8NnY6t3aKMeFLpg
Q666Dk+MIopkuSH/qLrTl5WrjRuCmihnHobcLVg1yLXGEGE82OPkLkR0JG9+A9dk
D+5MPjMXJvrxERyX13w3u2s7enoBNEnehdyQyVAIcU2uKAInqTtC3JdbW6mOUlFt
UzOZYmfB7L8DriAoGBxYNbb/omeItVqYtNpF4ae3FhzubOY+N9wrjvXj5Nm6tzES
cn4rTktooFbqmgMJm+3unOkbdeiQ4pYbejqKopJYlnxPoLGlrIIl6JOI1IBGCqW9
kJM3TYkh4ZnEei1f76FeseXQJstuzGr52S0FmxGNBISNtyg+e2pnu/pAqAOulN5m
/Kwnm3Jk9K+DN/ZWBwj1C8tpMEWdyboZrMUqt96AS0/swPH2N7KlYOym5hH7HfAL
0YXOX/Yu95L4JTqBm/dK9uz0EoUvixKpMpeadPlsRHzYRuBkxB0do544d5K92Iys
PY9SXQ27OxP9zBY8LSu8oCHPPctsjlFBbJaBt450M97zSbznRwQfFx5zuEl3UEE4
IvnpPRoT3mH5nldWuMKswqOtirfUVQzqxxsvZpErNjFAKWYvmDhJEA9QzWjy+k65
R2oQGRK8aCewChRE+TZG76K6lgjG364qMQ+w7ebv0az3izI8NFbXsVsEwfuCgzdL
GQ1Erfj71xSOx1sCQa+vPLK1piG4XtUjYF1ymI2UVbLXSiPhrY+PbYrqX+2yRYdT
BJj9osQdITDPFZdss3WgdKPWhnj8NOeayKzbvXKzm2tGtAa7xiRHXjKNkpu/ho2e
DYaymY9HG0sgTwALKjx+JImUPpZfzK2Gwts47mGWi1AJOnEJFpCUV/h3/A4EFDQI
PS4BDQ1nOZy1IWKjm3QXm/iJ8yIG7R2gC79Alr/1+qMrN162/U9HDc0Am/t38yei
V6K0c/OdOd3iNPHmmQr9NdULaApbPIWVv2bbhskdQ0Xp62VRF2HDqrTjPpKz+iR/
aY/mwNQpE62F0xaBDaiNqX2E++9VsR4v/3KyKOjzmJ0aDgnBE3R1ifXqvgZcDjvB
RZzajfjDnlg9P1Chv9E/39imqlYmY4o3F7Uk18X6rpCz6HCUEvBiU72nwfKEAzOt
C4BvEYiqCsQN4BYyjMe9Ky4Q6M4w080PmavUBU2ZhQ5zaGue5JziddjXycl04s3q
ohQnjkfDR4nzWJ9DYM0i42aJi9t/kvvrqqFvQh1cK7tkqxdNs/93SNZy5FXgggKx
EYQJvL7x04sYFdtKAR4h6TIKIEXzgq2w8hJ+s3SJPKc7uCRMzv9NJAJdgp0YggEY
ZsaRWHR3RQpH57fSVaG6ogMbvUkqwhuByN2MafaaTHGUTn2/GUpupOfXeajG6UUE
wuRoDe0sGz7B9RwQ/jNZcpYFylWKnIfXoI3H5nRwnU1Z3HBZdtVibmt32uMZdbOG
YZtHK9gwAEvXwiW+6p/PWQVyCGAL+6NYBQE3nSx0TKkbqWTucctfBYGcVyTuRckE
UO3hl/xDfudoxquKVYIMJeC2ZgY+HOqFDvTK62d+CyvtmhPJeLNqTBTd4wCiVT+7
oNQGhlry4HFhU65namyQE+1F8yv4kKRzmvVl5hExsDdETWKPjIZDJGPK3zREpguf
FJRfcTEKuFUkh+UFCa4cqtrCPxBC/Aet34OJ4TD8huAntsV/63qRc1BDr3rvE2Y3
ProiomfJ8IcPd/R8OEuVAEQkzfLBGz4XU4RSYkIt6zgoilFncaZAuDhqQopSBw2W
dk/bOLiQhTD9feImfl4cJ1HtaF5mXcjTg8IPBnfYqPXnET8Cg7ALJXhefgW4xcxc
+tm4VZwEw8E2RN8iJpv2aKQati9xMN8bNm3ze41gikyhdjCxHtS3rKwoLY/o2VVJ
2JRO4EHo/if6HuNCLjy1zWeXe9rNLi1vTa0F1f4Vaz1xnyUvDI5YLndJ+LvQuLRD
GHjemMIekvtuhaQ8Fax/Brh7gEtcWBqf2DNIly1o/rrEqyy//6Xzb1wid3lnRBZT
M2yW4WufQnYzx42A7DstBumfUrT+c0FCBl2NrzpyuOy2xCUJnU5ZH8lr7rN6mp9r
z2hscByBRqhUGiQte57pqQtktB3GRvdo2Nk4nif4JHxKAZ0lK2sThKqLzqLJfqLP
+0ERcQRlV3jB0NI3CYSZiqyvCoG09PsF4T93Su600xC5gewo9UM+iuf9wIxdwous
WdqRMp+1eOmUXjA1NcrWugO1bZ0KDmE356xl/NjkGMOdHV9CVgeMTyEtd+QBTgyz
xV9ADCzS0rpuvH4LjqwDtIEjankDjpqerjCpT9ASLfE9EgGik30NzmzSxY9cLNEH
Wd7K3JNMCtHByo9Xmr4RPhHt5wb9zfAvI/vdhPbGRzHThGUi4SS3E6puIX6fcq1D
9sbkKaKEA0ca/9eRjDTmOel9WVFwEq942pED6M4VKelYyMFsXhF4Bm6X0OQzNW0r
cbWnjNuN+GWIMsDxky/VXy+TJMPCmMqR6IuaUKemY3tDhf2cAaEAHyyaNNYZPMl5
UC6atHmJ1d0tntwOodKiSzwUjwigbCL7mYRGYw1M8cbUGAzeN4IsnTX8ijD0wL+L
BHTxTCWiUNaQjUyRLhYpfgvEfeGJacC0RfEmbZMhDbFsuoPfDsMjVidLIsMvTDst
NW2Y4uGE4eWbDaav3Sjz/WIdr6chO6F04Q7oSx/KthMVRoZRRM7XIRpucIRtQgoZ
PF1zeTEPYH1zQMP1N2U88l3vc6jbgvRc/S3y2vJetCGIfI/vPqEGxUV5dmjQzS2G
4CY45NUQCvOj2w0z/pg9iqGoRc5bilT9F/Tl9DhwvZxybjHivJsTeu4P+do2ulKT
z5aPSnV/cw9YfhZcaIPhGppfAdZGA1g39xnfADg5qwCiNMS6Hp+EhoqA4Zpmmoxp
V5sUL47wlpa+vouptMorZZ9vzxKxgHE3bpoAInOEzlE3hDcFQw7DFoScvNfJnOUf
C4m5s665aQ5oAFeC2jRPaxv3z50Vj5T3qIAdfv9H5RPJHiFODqSxR3aDMCFYyWZE
ax8rUuoLWXZRd+2y8Ne5+3nh6m8+2Or0c/Bkg9W9dHTe3ND4cSwwWZe01gnvFgsU
j0G2QdFyEbUbzzOLpYou5fNPnEKg6LX5U83u577FIl21vKpSn9KPUnUGgQPGJPD/
GC7HoEwUKAyHzbZtu75sbLZt23Ztfdm23WbbbrNt2/f+eGfOnPP3mTnPW82dJXUZ
txrLzKLfB83pU2cAXot/mfO9yqNPSFn9K5lwoP+lJsnvldjk8CuJa9QipgOcpJUt
GNjcJBJOKZSX4cfuZT4qTWGEDxkfJbGbbFFSviUzXfG7Qfjw4wZOMy46kamSqnaU
3kWNQpJX897/BbVmp0CTQUnWf1m51bmnVnNn9ySk/kP/F114IoCWiNX3WyiJxvTc
ids0U96VCm7CV5733rwdU1J2mTHFBOFAr+JXSW2MwjwW1NzExSLZYO8L1J6nL5ks
FUwmT3ZT0pEOY7sagJ4dB5VFheEqfatg1yHL1hAkLewu9q9mB0hth0hRW8mzPCwz
eYbwZjFEE3d9OnQJ6QiV+0rXrkh0MGMVlcK/g8N/DHP7BKeultugm8H62Ykp7fwz
BTJ+atNJouxkmwc2tO/1aFpU4awiFWbRuZKKp5HSZ6fMZrBYh93zCLqlFQIVPPwO
RNR37iGoqs+ZRCyEc1/Wpz8Q9s/04gTviuTES5DlAYTAOe5YXd0IgWqKbNDB1Xh/
CMIQ0+oU3xk+Osz3tomu4cIKIbgKrc5F68FMjEIrCEbJQ4auMft47neMUvlINw2d
Ri0aJLz8ySC9DHByTqiaAyyqZbMVPyHxs5i3Nxb9IeZmkTgAMGOe6fUhp8cDuCfB
XspwVkmxpqrFf7HoCzO0ROd57wez87cDmukeAVN3ivKRPczeeMbhH1Cfki81Nl+C
lpFsJkEjMAymXtFWM8LYXLfURVco1alVFP1iVMMaV/moRz1noQuxG0fTPmIFTg8v
6heMXWdCbn67U3NPDxrVJLTrFMP1nKC1W1rIHxfw9CaTKSmWKxgsOjQ7Mwsw6vhI
pToS/iflu4jNNu0DzUNuL/eYF8FkIZ0FGt+ObUTTy2zrG4tN7+lmOQGbltnb45d7
15vI7bdwxwoXhmK7cjBJ60Krt+lkoIaScnDuJ7bCuNYDGggMib4BOU4fCyhTKNJW
gseeg4kph0DiTqy64xgdFDUs7v5v3BNpuQpUXotYbuah8fQq+34eouLEZo9Tr9tH
EH4kzGkUwHEbZAtDOvrMoO6ciYVK3nZdM/txYAY09kcJVoVPBL+aDxOUwXAs8scR
ZZ4AxCfN9SGbnNAP84tgwkq9xqI08zvpS6+3X/SlIG7zdI02+E3AE+0mxM11gMHJ
d5kb2NsCsU2NVPAULMxJT5yzwb5jUE/kNficxZCrUff4A6a3b7bzJkIe3xTYFYMr
lZEYExDrm5yW1i040UxZ+H7NyVVMQ2jB2FCyUalc5wiPOFYKnbN4rWtTTyqcwgO0
ZzXfXb7zgdaf4bSeeXLaJ2t2zVa1fm9TrPtYwcJNZVqfZv9Ki8ognIRiYfVsivAq
vctT/hc3X5DFWHpO12lT7GzuHt1sUWGFiLI5dWd7T9I1GFsB1NTHMlEbA0Eufq8s
Zxj+/WcLtYe/SQPmQStrW8zNYMkU+9qZY1IOItvRY9p12hYjFUiiGtDS8JgaTZQD
q5kd/8JckRthdL00w4cRRnJKRrb76/yQfQmz3i1JR/vAdoNwSqOi9/J6ob9RzhhB
4nKdMqoRptUhb9TbmzDm/dPLcJvP1zGT9TV+LRXSWcIEk/pCS2jcdgZEfF00H0RW
FZY6xhtSEZ5sTWuJF9HjJ+fw2Sb7h/zoxxaub2P2R6KmoV3+fuddneC7suBrx/yK
8XtQI/lngmdQnFzopEL4B3LVZl+/2RX+2uj0DH0pmxmT4OIJ+kI625MvNwuadcrF
bVYyZssy9/GVpSWuJbi86MEXdab2LxCiwRBGDrKKghM/VPr3Rj89mZgVr3nEq2QT
i+z/ZszJIptByqN8Qo9znw0C4QQj82F7Q0/xGBPtqOIW2yNo+R1fye6LtHpLI4yz
r+woiW67qHjjhfATRcX2Xji3qnQmhKg+CY/+9kSlYIm9/usrPNJFy83VsWOFp37Z
XrDQusZNnO6pKPBxu/SwlCYdJFWZ7P2LgCez/yrBA3i69n5JBCh9R2arIh01X5W2
WM3yFJ6FdjvwJbeS3s/Ww2s1cths0HMnbeZpioL1hZo90qQ2lLVwPjXz6373fMhx
qodY2W975Zq0Dc9qKC0b16nvqPs2IGHc2thctbTtG+6ovl05TjS2LHoyDZ09nCSI
kE0gOJU81tSh4iVXVP4wt9K6kQyd0z4NJ7wKPxiY2HiXuNq72xhZfo+6Lm4D3sXr
RaWTb9IntMhqk3Ur9zGEecDVMP0WaGM036NfwM1wh5GRIMGrFQRskvz2O2b0QJFg
WOg1qvtkTwQlhk/JUpSh/JcEg5A6EvlXkB8NKLfbEo28rqVZra7c7M1CqWWMwSzs
5d5CFZbUYpK+nEEbch7aDBJogKtzMwWrWEB8DjQPEQ6Kur+l8ePch67lYy2XFo3F
q1bSsFURFtfdOCtEdNuzV1p2vRWUvfijkZbeb+LLOGJiIlsSpuTMIeXg5Jp/eml/
CVzpHCQ3Swm1qm1RPvTgVV9iziOjUTOy95PA0kiLdOWp5kTR4K7L/2FF4vroPi/K
a5k2IB/Y1xqnfMZ7CibqX/B474Giu/Jos25oysdWXDiClRfZIq+6HizlMbz4q4Ws
N3DG1y0xPlR3ws/pGYhTzaEqyNpJ4IhwtBctWXj9oLjbs3PaZXmd081tN4Bg+3N4
ypEdFcDv5eLd5bEaNGiPQ0rif9tWVeXIjPduS6KWHRJti6OqXIE7EqhqhT9tmby/
cUogjuBMso4HM8DrMY0MQgsDkiEQ7oaJvAuPPyRabFU9Z5TIUefukmdv2zZbjPrR
O1WK4F7XH8XYu5S8bdO7o97pR0WzJm1r24DvfEfqz+l9lsYeQU4CrC7EFi9GcajW
iu8+91mskxiu/wu4rCX9WocB3lN/lqhTDPgfifDpVZ2C6HaWdIFpGojbCkGVu/sW
zvHBM9tVna6OVhc6rdQ6w1VFeDO1V4xVxKfE+WfvZV7qYltC+/PHcIkp0B+xHp5K
NnqF2W88NHgd1rCQt6jJI3apJ1PFcLAe3ii3mXnrktPG4g8jI+Rdq60EOMttfeI1
qmTEdIEyYaGOSfX2vOJ3vek3f6N9aywLXp56NuDeoMI8eQD2NZUZtMLzTO15g9p9
/CAPNJxgUFmA3kaPMOmff8plt4YbnE9J7SR65v7Au3rceUL34TJGj9ob/Z/zRE/8
KlakOJUw+8GDVT5lz2zsV41Rk7OdfSf6oDtAqqpMqhZmXBr3tsCjIKiLIIJDQRVA
3T/S0ZdId1Mu5fecjqm5AAi9QN9aCzrRAab8X+a7UvfEqWhTuJdGkEQ0QZC2AHKA
Sx6s7JYOvjYaVuqaODuNY9jTPaestEyk5r1RbiaUv91fZlBD2cLY8SVbx6q8Nv59
BDZsJXShqVeO7IJx4jO1ei9mcn2FW1CIGCn6ACDPzuDMh0tbRB2GLJdC3nIltub0
np0p+QJznCVi633Xk3L4b+gGCS7DzdbDz4h/GKfBArdz5ScTeWKmQKznpQohBT0O
2qyUZNAeQkYG7N2Nip2ozKT3aMsSS3Ko1jQ7Q60LTdF4neORUEbz8viYHXuvtGWY
4NEsE6JfQ1ydloxh7Jk/LelU395iByvk39/SYgcaWPMBesGWn7Aun0sgxqDzjnBl
fyS6KtDn4y8p/kgALgPEl4M6ZOKB8SCwP23FZHryg64xMRUza8EreX01WxdKj/WK
Xo/JUrQUJ6fa0GrZjyPzrwSkjWHv29hsB+khe3e4M95TNg8GzQh3b7nJn/Vi6lO/
EXtvsrs85ynXLlURfJFmfAGnUNuHA6NEtWZZBbK1sUFj07eMa/3l+lxRJmgg+vGQ
aBqk30J0eT+ev0GnBlzoqglCD9ODlplRaX8H2RFgQJ5WPH9zK18LxFNj/JFNb0Ze
jdXy0W9DpAJxQ7QJL5Spjg1XPP27t8kCc2ImnhxLy7K4D3B1zrpoOrzUJrQsFVDD
zzom6vod6CymnG84LZ4bg0NqDERx1UjmQSwz9hkTSrl1QwmQHdNY/TBEZmUsEAoL
kPNNDlIIoQsI7HD1CQm6/kNnRKapjK8uZgtCjexMEnLvx44OLMzI7Y1lT9jWdA+i
wb8XNFqP0svcI8oNSuw3UYUmRMuw7iccbUl5L9N+e+pqVZ4w0tUvqSTCjdvd4dl9
29DuvmtpaIDw4iZzVuxNaUPdrkqrCqOQ4+iW1nxKUNWLCCDKODgRN63K5JDT0Mi6
kH8abUi6djnnEqj4lkQissir0kirg93kfZYOqLx3EK0kygNt7tvlpjj6rsicoGaM
VKv1Xw0cVsZTfCv/MrkAKCXxkVspjQ2oO0IzPc/gPj0is2oX6OSjJ6njZpnTQ1Fd
eZkURMFlJfSDdOexpcfZlPaYsvVTvxIfmUr+qzSXtLXrrlnGc9E4WZ54WldOccHZ
slfdUV9ZQSlLpe1JUfo8ByezQfgeTLzQbGxoD4oTcahaWt94f4c83IBV7jlP/jkT
/+BuyWTD4u0kugV4TJKtTsZrX0iaWbAZsqic8W0Nb0jYoYWrRvxm31bHi1mN70Bz
SK9d2AyTxlMEsBz0xglUXzS2/QXFUf/uPchbNmg6OAqm9u1q1wobktDr+4PdFQCi
2N58aKJy/3hIre+8fEG14bO9KdOSpnZ+eFjdU686ssoq86Wpt7ns9OE6rhwTVjKz
4PKZggmUPoP4uIh2nxYuMiAAtgHJaAofHsBpLx5tZvGJdfD0rJ7gmfMl0nVr1E0s
Xbg5XdeBBRBUOk923bGvBtEpkM/71uLSYDBnggvpWjUaP0SPSmG4dzmoej4mOkU7
UGKD020L3043bu1f3g69OFDjdkcVnn72XqvHREv+lZ8Dz3hEa/4mRh9R3fbrcnA/
TtKMET/Gm4sEg6cJcm1P2+J7POCs2qKMuHm/aPiyTtd1TbilkDIUnjsWMyS/fY0n
+CA4K5C7f93LLSF9CsfVnoobY1KJNhTPMc7ODFcMGgaiuCWUSWzA7CcHfQCNa83X
TJD17pWOmTNiqH/dpQ8yfxwSR6IDfy9xwVIODf4VJE9G8lQx8JWGL9gRqHyZIj1o
qDDLLpuWwMHgSI6s88jeCmcWDM517Nk/o0E1WZGF8w47voWeMjx/p24RoEal/Ii2
T7oeZnaKcz0SPSbF+UpsA/CrUmfqYsw7D1SJh4NqITKk8Kg4R48eY7teIHgT6UJV
4iDS1IO9iwSeh9FGpdTsZBieXkyonv/pi9VP5pWsMfnHrLkgHvRqMadxCXzWHrWY
XiR6RtSzSvJ8kxUwPzFBZFZS4QvCfSFV69uL5pntixYDl9zCm4qawWvF4fsoGDTS
enGq5fhdaDhQOhRZkjiin1jRM876zHpPsxAjcub38Fq2DJPqoSyPmClInpQ5asHy
huGlg57XxEJVj3qZzKdZj7zdPr+PsfznSc94vit2S6ot5iMSwhUnGlkHoja8M4Cz
cDoYtN0Kr3EH9VdHJJZxPX1HKd9lJHiYqSgxx3dToE7INo+4QOjO5ZGYTkqz7o6+
tmn+qcS4vHd8aGQQePgRu9lqOZA/WyH0NjHOpRazTx/2S4qx9WbY455bmqjL5kZC
Y/m6VQ7eWz19CHOcG1IrlYaTyYXgL2C76PHY1RdIOhIZyJYKaoFQFV/Tts6s8j6K
HTWsOi01DT9sZg/obVOUk1l09lbsiCM4UAvN1vIIfYykQ2+MJ5Oj9onYUdImlDHb
u9gTjT6+497G0oNPiT+85zMxW5ualuAcevYmmsNLoVs9ps7I7gMDt/NJQaN5hXpi
p8kXMVCJZ5xwajj9gy3uo4HiFE46InaPl/zBgk8jXz/vVOSeiyw5Z8/ZO7o6M7JP
z+JdoyLEj446Kqyk21SwVuDpApR0a7rD1Lvipo1dd/kMIdiKJ6PHv5XvwHFusikd
VeFQtpX8w0hiPCpMReKXt1pQuL3LgzQoZU5PkKiuFzoMoJxhXVCiLG4Ao7mKCLRg
0GT4i/EYU7BrR13tF8t9tHYRGO29j4wX0Vz5vYLXiRhKUICvQuBxohLTzA2mqZRW
cS9qbJ+gPV1z1MT8sixy7201sXlOT839xR0h+wks6FvGnNhgsfjdwrDI16hsNDXn
RXVsw03MVT2QNtSoXBtjkg057KG3jnR/dWGiluHcdXNcubQV3YIxW/6+p+/2dQuu
0XO0S8fN5iECtsuTn6TewCvHo/7OV6S3Jz8N1zrYB7sohaJld/ewJg4Fvjgofdv0
YlkTE3PD1Ulkd/iR6d4VUb023MczOQgX3PANYVhc7Te/41dwPDTM6KiqXVU1hTh1
DZejqRVSuqLoh4406TB1loZLzUgA9cBp/w+HMcynu1CfH+c3DGgyYezFpkxTabMG
kwni1GtE1OMoVZlk3wmPZMA8ZA+WLuqH8T03wfTIgWOwO8zvvvTjrS9LCbMNFZ5j
ICCEKySKaDzgNzfvqCIP9MB+FKH9ZpnXPM7zBs2Fn5DBaUYGj3SyfEuBWrUdWrEu
AsOY0AEFAcIQOcuCy0n9hsFO17vg5vekGOiX6uKN2X4vByfz8c7y8fvysXrNxHcv
M/ltzteKxutDzYLN1D3uXVLOD+ePXSqN2tQmLOMidLLFoKH2nc9fUrVGStV78+5k
mKXWaIby+zfLhWHPwc5znB/v1Lzwg1i5ZoPZe8GubV6fFHpvAThIfkbdimo12rc9
uQhBhIkTndErNsB0feWnb+qsIO+6ILf/vDeMILehtcCOwDqvf/dL49r2tFW+Gu4b
3wj9VkqgDDpC2M9Ikp5/2G3dcysmLWd4EJHtIHplq1dHoIaiI0pYCJ1sNN87VNFj
2NzDmYDrnV6QhbruwUyHPKx71mspKPmiiFTQt23hE7jFommofSInFnCpRMnDBIbP
nyvGfJ9S8bDf9xvjXQ9ckRWnTldapMytKyuau2DshOLysnZYTYrbMmdCOGuWC8mA
eGXFPge/KC1VOkV5ncqelKI51vAreRGZkvAL3u5MJSuaBdcV8NU5QA5fRlAeclAG
RmVRl1lGgC2uc3X8MLsBdbt4Vo1IFj+kGpdIeKOK1VNjIDTefbMWlwNymJHkGqhp
I2gUf03VelMKMhr50/H7oy7zY+d/NUXp27i8N+R60QNFgAjSCheTpqXlgqlDG/4U
fnDrQiQ3VY0ucZ72LdGBoQl8/RbA7D+76QVs+qwxVrLmT6OpIbJA37LhOFr8nF5q
uZ/BqREaGDoJqZNLdjffqBshKdG9WbB26pxfxJ+aWYv1GNvhGzpVG/RZgiZVvNNJ
oInJfm68dry0NhtYDLKMUI6OTM720ik+X6iA3CiMb2/z1Bzl81afP6pNCYryZQmu
fl8sCyAuEj2S7d6iJWH4dpS8Y4/RB9OedmCELfeD2WhrDLXNMlIwzLhg/r26vCvG
wkmxLcKLfe8XhzAr/gt9zd1t+odg+LF10HS/EwztWmyxMtGSxoHmgZNMt+zr2Ouj
2u35uFrL1SqbRqMfj2fK04nlKPHLivwFeCU7gL+BIh6zA+KkopCCtNmpY04nj3aH
cfgdVOhggQ/W+hzDldzOf4GJ+RJdNvmcDW6h9PP46bqBLSsjAyTbnAHsp2KLen5A
D5i9pw26+Mx4eV9gF+9+KrUxMGBD5cxs4Iw+BbPUT9ldQ9vSwb1LShjyRrO0NXt4
u6VvtFuZGO0MudjOGoliAgNhtzmhNxaCnYjz/uYMv2zygNFz9PosjjD4oel0csIX
MiaNwNpBT2JjbfH9uYSRXdoE9/BfavXiqVggOH5LcOUlm0yUnQ0MRvKHg0Jc/Fte
e4R9ahquErXfim19voDZObqVY85C2KYZEshIeIoxfhKCgk8dAgpCsk55TQ6Z8iLP
KVflBykrdNcZfGv9i5ZL72OBFSr9TPh4jzNyC0fe8ca2Lv2XcSGXj5TXryUNSapA
yqyLCzi4tF667GsCcNPoyVYZOtDezOiLXVGftZ0CG/P8SDhDSiL5F8JtH2dpijLr
hJ/OGzA3OviGIcSWBbKVXBcf8JZ113Swq9Hn/SZ7r+ISHSLvovDcbDt2QTwcWyGp
PEKSiJahRMX+3z/PMPSELhIBLpDrBK/b1JxjrTu1lUvSxfERoT+U/RCfBxVLP1A/
2T43VjJG1fTwvmVr92rnGmyrVbT9C2rZWh0GOSy+D5FX7I8YjtgSi/0xQIX5Xq9k
kSGVyzY6/gBgqbUEpjHKDbxlwcOZ1BDtHkjHuzq/76sigaJfwL9uJfT8WaoDzLGg
zy4yk7MzZ9Bh6kFsBh7DSWSDtVmKY2xrSjGBiGLQ2Ecdabd3ShiZ740uaNwWBwwo
SwXacXKpArxPZXg/IMJIubEXqr3tDqn7q/NXI8DMJyjyAO6ZSP3YMdOgzYEMsK5P
3Pwm8mXjtPR8BVbI9K9zbKzRa4Npo7XmQhdyBT9ArIJF71grttUvC3i5w77alcBg
z4S86lcAWho0zDpztWEaZgBdJVXdkZP82//N/wd8O8CzOG9jNPgl7/xdgv/6p7Wl
vafB6eX7QW07INh/QunaCO46D4aoI3t5k1eqvf8Ivyho7sx1NEQr9Oesz47ug+48
b7wNd92r2q4WwiPuwFzyj5pmGRowPm2AFN3Ue5toF8cAROGjiOsqXLT5BneZYuMQ
c1pRc7hDLkEtCDQ3BynSzydOQBH0AY3FoPnbiRcfV+OOkqcqhlZb88xVwPe1XtkU
42jsZhaymDnGLSgJceQvaBWarkE4eCwTXsUfSf8EGs38ciFD3SYQ8CyfYmYC4dby
Z1SzSkbjTfH8ku+U2hEUizOMWLJPILl5uaD4crLvHs7J+6FTf6iox8hAQ0FzI4Aj
GNKHvY8Vwp6twEVLmCcPNvJltprYC7CZqD0M6gJU6TaGnDU807bAf9P4Utk6MaD4
Ev1KVRJv3DZ3pZ7P+qvdimCkPdrCmTuwRVAr/jOEeRY9qFNoT+h/Rf2bvD5rqPVt
J9lzpxyTI7ZZIkGwP32f7EebZbPpp/LMTWoSQGrm38srqiPTHcUpzeLDTo7n3dFv
NUQm1mwJ8RJmA7sFLRNXcyxOhDHaJlHE9dpP/YjAkLVGfViAMHgFctilXxevzwMx
XlLNUSLQ6FJvssA1QARpODcnLwAVgNcm/agonSgCJOX+HEUvijLV6ZpoCPeqrwRy
M8azvOAU253Qb5bhT6AilNPgRbTJocCP03HjqL0wK0bev6sc0LGbgNJkEbA4bsoT
462KDOvVRzObekCFp+6agzmHBoGyCgXA7aJc0+bIKmGjtMxUKilN7fbiOA7Tp7vN
MV3cIABa1tKRuBvONEF4SHJodr/8jvHg9m1354v9qaBZSe8duGwvgwRv52XDuPKn
LiC7AdbWGevOh1Zc8IA+eJzICCnLnxqfrhMLUGkHsxWdif2v7GY1L0mqW0QeimjU
UEPy+guF3VtK/6T4aNRWl0OplLRcN1CYU9XlIXOsWyf6+T1PbxXqwnFELuH1d9PT
IrkgSrYd2y0QeQ2aUaNJFomlMaffsb4hglhLjUGSV+2vocPUSgeJvqYO0tQI2UiX
he3IqDuTmpEHe5FeC6MidtvZ5R87RsbtQ0ETTypopRwha8ZjFECES7QXEjy4Z/Aj
XnRJBeEIK2lZiJe0ELhWW49+aBkSJbts0W/KcGyjKS+ikVcb7Ns/crp4CLABd/nx
fWdBoF/l5CN8hJ7V87SqyvTHY22Hzxx712ylwYIOJZZn9Nexojfnjlv78OnOPXv0
6vzTp/Mu1pPhs9QSjGIMhr8LMte5hkRE6E50T9noy5mfTWZ9TGGdc2uA7etqNvAp
lkUAFHqKDp2xrC3ujUCNA7X2PFy+BEvKyXOcs+oToHhc/Zd8NmBkziUPv/EXWS3H
EPpZoKZCxWiVlV+RDVdfMuoLzH64hARTc7XLDAJanA71XKR6NATBevTavAh9rGiD
4w56NVgdLQJ6tFPf2er0Keh2czYqLWn/Rz21KBPwWBjpFq+7uSCRFZ4Y38SQCU6+
E6+cmXFKDpAFOCXK6kWgIZBw/nXwb3zEcurahVqpXtZonYsnQdDjzoHk95rLtZj+
jgGfE6e1GW97roNxxejXducMer7LJGluBD+fSb2ALjy1sofYda6SjvP+R72eIFy9
SfYuqxpE5x/Pie4EeDusujjaXZZKg2RkZniWXcmo1mqCoDQsx6mVHvELaoitEhmG
Kx2nSloZvjJc/etTZq7EQFnuYQetPQnds5E8rv2xq3tBr5XXxvte7W7h+973EfXu
2Kgd7J8ib6yfA7qRn7kbDTPESGoj7U7HjXRysMCxtNclJvhug8HxdWbssCRjc0ck
tJoiShbeVJjVOyKimoMiUrEdzHWyIiVgV4Fo3DTcdQK0QLdvIFLOn8a+efblG9YG
XgEegJT7qQWagIfIC3xJCGg1KdNR+ErKp1q72XU+D3K7vOFG95npv6wYOJbeN4oe
4tei6LMShJQuWkj7SwfWQSIws1PtvtwFJlYV8gDPhJZxUa5u2zI68aEtBrxj7RZv
ciX0QB+ms/nIhmWmzz+lrUjb6kRDvufzzAEycmwcMi/+aFASQ+HRvcPG/7PHoS83
1jEl5TtWnfJrEFtZA7uvWZMPCrUttDwueq3ByTJkZMh5vnu4O2+1eju9SwHIgG/n
CdlqOr8+HnPlfGWoBnjXWscDRxr3tiNgJC8NsERAmL5su/qklGORFCYbkSJin9AL
G8wGF7FFwKmBUDSR4QhaGxUuL0bRB1AHY8YhQ5WeZq0SZebKCs+aj85oBtajRfQ7
uGcCv8ZfCfQcQsnSbKA+UZlwvjG8cfuLTLcz8RQSjSNotfHY50OWrRDxoq8ckg2R
5ZlBsX0WJw3m4r9yhlLFQd6L4EepjOEmlvlPK8Gh6EUZMGPMvOBdyhk6y9ysVgfc
8FrSCmKMOaxYzMUn5JXKcyJKCQL/ApqFeteDZwEp3Oq3LQNMSx6H3Z33fe/i1G1v
zR77ff2aYxZHon7e0y4u58p/01mgr1TwRqVS621e5pKy9ax4iwgOZFaypL0O9shd
nE/vfqXy4GzzpOWTbqJfgRH0aJ6dw0TQANio6DmnohwVq384YinOQPvz4Ntq7jiz
NUepICWbn2hw6oq+nvegHrWj5E2vY6LXETHi9Xzq91jwio+XZ0HVtnVesE0Ha1hG
scthWUDDI6wgJ+xjItM2mWC4U0+X2q5MsrHfIN1o6lguJSiUnwvGS2cVoVYS/V+m
6zDchUuqDyp+KYG3MCfuri7KqFchJLHsj4GnlDEG0/lfAmOQt8osSWz3CaVdt0VT
7U6RRF2u49t0XyBNIs31XImGc1UtmwDMTNhTlKSFcrJ+6KgSfxwoI/jM0NQjjlHC
uq+HyvOZYTFzXBvB3UoNRmCm9RWCoxUScgj10tlAV1ZqzQNPeHgGwq3k4y0QPlT5
sQu1ErjO93GkCaObdugIUAjyEmgxCEqzkcALPRuOdkhIu0O6BX0jsxgaVpixWmps
OfHy+Wggm/JRd5pIoU2D9OJR6UpbU9dUnh3Ro+2tlOTJ13mes50eHktVXp5g+xW6
j6Z+YzowZtiWp3IHbMZUdnvHJ+VDoeWZcVJuZ1E594LSr4FIorkpuaGDT9icCLru
Kwvo8xSutf+9xlDry/VenGT9zRs9QgLdHkNCbd1KJdb3q967RUx1Yayi+6ZNN0x/
XqyyVtdVL1DLnjoEv+OfYvJH557tnKgSth42ARZWCNJ6HKa6DDSZ2QdKWkFkKdM8
2eJOOhZCFCIKN7lmuxjWLrJLfH9reJxLYkNHJTAJvsdHSlQIt3SwoZ7I9YuBpuPn
Or43YoZdkkwaGbKNFqEIzrWwqQ5UsmACndctMIP+TH/wqS6IquPbFt3hqfXO3Rrf
3jWdsJdACXc6kCqf3yk76iskre0SrX/lN8ifZCSgzpbznJBHjAHyxbEZK0QkOvDi
zweI3pUOxAVJkxkV+cmIUBj3yEg76ov/HjD0OVKcN/f9hv2XvW0GyiH06rj/Rd46
EwfmTWvuVh0kNySuGBYO4z2lbgh+eMEfO5q+lByLF90EFIERHTOCDl1WYbu3DqOK
lgvW7xmZUSLJHxXVzt7iz9aOhp6eoPud9Xfz7hYliq/ZmhjetxuN5B9cjG9nnLGF
y+zPLmt+zBnV/Xl4l+MwJ32mvR28xxfKr26MtBf1b6FG3RpS7zaP90Q9wiaF7exr
LjZnzhW37bJII8HfoR3Zp5r6jWPtfOfjmY3CbYpj1taDIrMCrq9msqPr1HPEiPNG
e8feCVs7JWzxf3h4hakB2smDeH9uq05vpt181fCKM0spo5zmSOz32pzIydDYM6PX
e5q0Wd4wj3tXNwqf7W3YXH2NpoRtmgx/RcQESXv3PSrkPsXMs5xzXUMfwvTJFy/e
QR7I1C2SGNRyctyCsBNAkTPyFbv5Gn+OsAtVLncYf5YEqVtM13YHyZW5+K4nJOhk
u6FujZ6uey+JS1oRW/Kth4Z5iBye7k7Zl9NSDSCAcbzhRO9L7+UtVapQ5l+kXheR
VXUp5YeXdHreKfNBc76M06317zL/M3F/Ju5iLAlnvStaM8StE9+ClsDuG8M2eUJw
JieF/O0OGazV6q0c/tEa+1jb1S8/QnsIgPOk4RJxJ/EPSbRB99ARUyiN4YGrZoU7
d34Zr+P52dt/gaC9bgnUz1Eak8bQTd4vecs0KUxhsd983HVXay/9LtwXHoVosdYh
nqnD3/xlb965Ydh6Pj2Std71TtXqY0tisjeJVQhe+enxpTPXv+bOT3CuGeFSWpUr
FWXmru6Kn9V8YKoN1iyo9MfysjIc0RLtqkaAFgxZ/JPu1m1O3vocZtwUuOOAlplR
S7Ufos2h4G+Z2wPge5t34tWszXg1Bzh0BWyahgVy8Y+p4GCVho30pcSm2QC8Dq41
fqJS/2qXhJuymW4xZ8SsovgDJPz78RLgXl8cXV/Baz39cFyZasLLAarZo4+W3DEZ
n4MRvC6UNwKrd9Y/xwt+hWfvABJaQ9oLk/a3Ra3uRb6LptiAVV5bAtdADC+Xf3wC
bMnb/9pKqK9OXcO0a+w1oUn88oJOENcm+9apXOKfv78AC2DuTDHNUXPuWlM6wM3w
zaGxML3iz4CrLwXb8Z+Tye0f62aGxp8NzZ1yh3+4nj8hvHtbXzcXWz9Ns4GN/tEw
A/OZ80wnCuhr2CZMifBKNV7agjjafGciVm75goWlCsp0o93iTtQryauYSE5ZZt3I
nd8pSifFZNeBelosM4tdURYA02XJ0DaxRcTQvF4vHCTpG/jTnrEEJRJBTM0OKKHQ
vQGQr3k1o2ErmxLLnaKCeDRQHk4lhqEhVhqDA/nxgCseUeKO6jhCyc/e3tafCadc
u0/GvwrEdz1TcQYvpAch3GWgkPgFb+0xyns9EbK/lnQa7nh7jIimyl3PhVqlIvje
V1rnx7aEGD5JzKJdjHcIOeLq00K3Bv1Gbzxne6NYZck2SVVuSBtDONgSd5HKlQyZ
Q8UqOgKfzeQVyRW8XqH32vhaIUyY9ko5RuNYexRhJu6BNLPG1esc1/0m8wK/hcU+
/041xufqLE4NcN1bNTPft4O1kOTq8nz103fIwh9iAoVxzQjcHhJBM9PniCNDcsAf
B6Uw3JKajp7+nnDF3klZH+mOvuxz6BHyi2sIKhWIRI2HlrSbQmv1UxOkZhJ1D0H4
H14WFitc7GDGpSiOEdCR53+stpsMw8oAMaLWwE76/+1bH0cSY2XlJVZKocfVAIu4
X7zvUIbp2sA77MQmMBtynIRi2tOdr5RUM+0AvFJfufkuTOvNsW9OxfqziGXFU1Sb
rM3uEXokQFTH66cpFxlSuG8X/UHWlhIvzPEJss/m9uFZrxlZO8mPqE+n2u83uZuK
Siys9/cf8dnDnI6lkB9lxs+ng8whpYnLTP6XnYt5tioKmCHRsUkWa4PMl8l1XgD/
Y90VOsXXYASuFEKECUwhiGQsV6iak0C5a6ipEopIpdV834KzTOgBboVHnHvAyEde
W/vbwEvvO89GgK2drToXZ+vq98H19wvGTcB6jpJWsyJNXVx4pT0gEHWtL0eBT30G
ztsyaqf3T8WPeMByVv7YmVxoPSb/5HDO7ulhu0IQJfcgx7/FOMdctGhsJoFjF7pm
6WZlvd+HhJc5HCRV+v57eWkoQ456w4QNRdzA8iK+dhcbrfZ+nupQhp0zsawLFq+9
mSsCcJt/8yNpVeG8//5/vZA51RfkOHbLWOjXMEo8mDGSc1Mju2uCdqT/nu+wS7GL
bbMZeZg3T2xFKseoWSiX2G1BReu4QRXp7tRpIJdmuR93ygszPHukmtcQqNAEcSOK
9MnlEkUY4M2QZR1Q5XosCYgOpW75oQdfrDlbOrSGpNOGfgeyGM8XXUbPV+D4FxrF
iiT7nBVNIkZlZ+Ba/X4DXTu1iQNb4CSDGHgdqUdzL3VCmx+SdV5C8kQ3NZ2MUvRn
IDMwlHl7AvpmKJCsFb5rVKI0InE2MmNX2/ZTMDXzdnyK9M/aiRCJaA3Xsl8hs6p1
ohlZuAG1LIWtS55FeUpcYtHd29cMOboSMRauJnrt2zbUCGVww+1vhJaPW82NhEf+
ILKnLj20INQ7KG6E5qSYJTuAirBe18Uep6DcrujR1rBltpLYn/GbEa8cN6uZ5Xis
95t1jUhFENDTObAuBL4mD/2N6mlCGrV11HPk4+0amPkUH4wINn/1/sRZ/Gso/ewq
o3uoKbjnE3AINj5dnDChu8Zmgqp4/ZYg/YekbYuUhr2PFtG50876sAUcePb51yJc
M5HQBfdtK0HrcPaUwQbPpkCTef8r+AR8kkD5FoNGjlXMVd3buH5mRgjBDBcvqwBz
waaUChgsvNHjnKSk2fjQYP4yoPDldXX9I/oouBVIZXD53apG9TUr0dwzX740/x1g
Y3LxP41q36rbtYC0BuBGJq0n//sdvGbvQ7z+MN2Wo+aUqNqnQlcaeB3fM6OvGwLH
76ijF2ONMWl09d3MAb6i4Q7tkh79AnNbneunWrzYkPYXno5/FA5OpTV+OGHvKN/W
HyZqOhrN7+7NPXpV0ZLBQ8NNzs/SZ9BqlQXquRwXTOvUWnYesfKxs/r8KvITs9Pd
ixZ01iUVJ4VzoXAxR9kizqI+kPHWvcqjPpJyaElS3Qyj0yeH6gS3D1U9DirDz7Oj
VHUbNe4997pm+hR3qFp/RtJ3ro7pGIKNSqJ3HCbBn6PiEAjYNz7KalYsmEv5dNtY
doZIF7F83btXsgLmJcn+nvqpitHhcy7BzRWcWkZRGkH0OiuNU4kQq8zbBDD3Bexl
Z3jqJToXojDIL+O1NSzML9ygdufy1Cjmz1le0eJPhdv6oxbEGt6+ZEDgBwYgXL+A
NlGqJziqZLjTvfFjbzlCIxRhZRMvcEasPCKUixUkepyNhCqJuyfMRlLDQvH0B4E5
Zj5NbNVDmcxEjw7Y+95Zinm6h0eZKE6vsiFChUBW++YEEOrYWnS44mXlt3/EeN/E
lV26jMFWO/GvGJI2/lO54YsTRYA+WPUixUWTn5dHb4E3WB8a3efujrjjj5/c6wny
UrgPy3cQoK6kFxfCManfirwFHOJdDXXGTjcP2cPVgYMQbpJGYwyRa/RcI5CCMhsu
WPLB1BI/gXk4haZWQrBpObiGlLr9083V3TEG8qqOBcWK2ut3/tYRztZRwkpy5GTc
51s1/7dLvskNI7kMIgJ9hfk+nzPD5z4xOdK0ivN++FgW6neN63myZ2s9iPRXVD3D
QSBdm6LBEAB5KM6sZNY4gZ7mdvzu0IKceSyUM2D7Swq5gK6Eb93BONNDgBhPG5E3
hLBQ93GuxzPaknNjNMr0dU1UC8QbEXKESTAbobTf01CYeBUfD5J2qlDGgMgDJDz3
tB+x+16Sup94DdJ+ust+T1sRWo4JRa+rYkAR9xfgkX9KGeKSGD/FSbiYrCItL8ZH
zLngzgla6pdL8S0m9CdIDr6Cr657tusvIUlApAOtpCtpdIR+qlIRErI59vMYBsLF
tfiwcjChVfrCUC3YORYzEqfYtuduR4EyYQbyB//oA+EsHHPqEekWjGIxYzxyn6Qy
RHHBiRVgZTsmxCseS2v3IJEY9k3Ie4wOszKviEqBn5BGM7j0sSW6DvOK4BTW8n7o
5wOeOT+N6jBCCUe1Fhlnx8fl+fyQXaL7brM7vAEcZaQ7HjC0Bp4b19R6PVKWBwos
PTTNNJXrt+TLOj6LFAAnThiHrMlL+Dbmmr/kCwYFmw8703sntL3B60siTCI93fxX
0q+8SgDQMSg7S5+4OfhHBmF5cBYCigNljDpHREB6PQzN2N29mgmH7b9qA3plT9Ay
4x8LCk4cTghk90XoBK3YehkrqeduFqhPuFATUe6mY8KeOx4SPmQqW7x7Xs+0Al1N
XyuObnoaqAN+0iCZ/hw+zdYcpI2zrLbY7xkgQjSuKVupAXzf3us1Jy4altVAl1EV
kz4b+wl/mUfTrELTEBt3oouvB1HtvEp4RMgdFck0CQ3r2eu2z6//Vfp7DNrkII3d
KRtLMw99xraPg1rne9SUExDkbXRVL9g9gvAMJh4VWkGxhNu/psOdd8hFCC4dn/S0
cgqetLDOZls0X76w4pLPqnlkqVBh3a1elWITc56q7LDuM/cbzXLggk8W72WB3cDL
pdJUr7aujg6rSAsi1cSuDzl6Km7iyBXwmkr5lTBM55DZVEt3Za5yRdCiEBjg45+J
fl4hAo45Yo69Z8gqKkZSca99z17GR3NhaorzJkea5K5qVJX+s3UdIJH5KL7z04Kr
5vdT5ZD401qzPqL3eVP3+m1REm72pQPQ5rnJwJMgVHnoic79bMzuVvuG397255q1
/2LEz3vI6WbwFAdyO0zOyTRboRpYDHeFNoQIolzdu8UwCY3VKCuKm352H2qX8Vf7
NlJz60TaqiUpYkTnlrrfO6l15oTeJxaFWXa14ZhRasjdNq0JcH/2K/3gAiCvX8ak
xZKDHwF6EagwTDgu2YN/MmOewVLUYWn/aCBd4dIsRy75GacMvLKJrgDLkr3XnWNo
VtVGaumoRjBQj4TZeIt6MpUhht/VRxlYuIr+HZeDm5WDwRQSsKbhu+D0AwkMiWDj
1ECPSDp9E1musc6uNXb/NOpmdoNAHApK9dazntBPSwkfbgXDtWm/8x+rni5IUagf
dqNlocpD39hbDz/3FjJx+irhhC1Qv7HSGo1IXUPpo4OGKMT14CODZoHXukGaiuet
Edqx7HfdLpOl3VwSPM4rkFvNd29xT16jNbLRCfupq81u8jfd/rODPXDpJZooe7EU
OP6k6FG6CzAv64j+wWpu7AyW3qEzjqtMejOYiLfBRKfQYVGFHYUX+Y3KCPDJAbUx
D49a2Zr8LfzuW/+RfzpD1RKBbarux/UURRqzKTkqrjGyNsqlsnDbU+jOJAJEZhG2
gZs6uWqsOg2xaKqq/RXM2C3VC+92ENhIiOx3TrOsJBBNXmyQ1UDbLa/UbGfvaP1P
o6wjji7J1azDjZkyOhlwrA2h7vIJ4NBo7sB9WCfjNaXaiDXGIdA4sIeqQa75mxPW
4x66wOo2n+u2iS9H70qYM2kcP/brgRU/n02+VFiEtSaNkGaWFVbYhTLK0RtyvzVb
5x0gyT9p+Xe70NPmE68AyX/UMQRDGu0LBztpEddascgDMw5l5SfGp3P+FzgxsHEq
naeVldHddanLy1oeJYqK/Btfj0/vd1uFdJzsTeRhW+TpNAF6DPXWFTX+m8JBbYh/
Vl1AVesf+zJYu38Cwigvzx95zHEGyz9cmz//dy+dOoelPabnH726na2fnu0vhWUc
+4AhPU/sV5AMbIYjjkqDatGTrl1Lr2aup2OvMK/qo4TTp1vubJwVLZ58zXrTrTAu
qdi20Lrb5OoHpCoeWIuVB3NtN1Uqpn8oMRWCiN3R+RenavvcmppuR9KLxgPuvCM6
I6/iB7VMRiaiOeVLfW6jJJ8X1f+rhXLJzxlPz2RNLpRo5gCitoESPmoP1Gkk/cKw
tkDEDEkgXeD9zeygfx5tFxLk3hvCyKEhndN9KeCZih52RNtbV5WFFWNLGtXyqCXq
VDTdtmfNgsvVZDQlG0GUUMYF5/i83BL+8x/zV+nA4ySPatj+8oo1b0M3NXs6H8LY
X9oCUK+QJ3J/7BvhFxS4LBH7lmCFbex25B0xCYEeT0+05Pk4X6+33YQX8IBApxXF
oofNG+9XUlB+XW+N0GeekWIv/asSiWIDnDo/mPYQ3ik0g7q2yVOlRPYpOWpZf7fs
eqpFgCqpUSBj0PMu5xKSLgux6lAKpxFhj4WrpRlvVxN6tvVy+YmzEhV2GL/guWJ2
MgFVjrR5scLxcTzGSk3Gw3shVyliomTtzTHCAJw8eY0AVxkXHqIDbq9tQdbF6kwI
nzavoXmbrx3apEp6oyo4Xi+fNxZe9A1J4p+XqGr8fCGXB8qCGuwySCEOHmyN97T1
Y96riizUt2Z9PiUTwvwuJ8m7Ra2ih8J2j+fjprU1QW7vmD2Y5/Wc3twubv5t3n+4
/bcW/J3yF5rWOZwv8x+Dkv/iBRQjjen4WQ8vRQWl91V9UQRO1TQ9dj+EyVK1Jqfd
pK+cnOnt9kt/22n/xa2zrRSE6vmD+2RgjQd5mb5u4bnCNsEJvz0GAIMyckPdd6Ev
cTC/zSp5QxMMBGdBoDlzYnXIkjPupEmNjfsZ1wMb7w1nAwZ7yiBG89ny8DwyZ9x1
c7Aobji6z5E3uyfSKtoUr5gWOhFDWuqZ5WQpqP22R5Mla4b4K8juG6AXGtprTkJC
PnGRpycsFT0IgjqjQgP0ayi+y1Z+MjjHST5bWb1U9pqhZ2MdhNNZEW90bIOGT1Ic
7KdwT+cJEDRiXKTcIMOfF5ztuHFA1/3pAsUqnVQ7xOfS8HPIxEb8V6WusYLKr9sv
YGxEvoeIaW2KEWVPmv5MRuOcqxXKJ7mIuqBbb4gEOyBLdFQPwhyDUl/dOJZ+5cK5
z3wIrrOnUPtJeLRUaa+WLj803lxdO7/XGoq6pLeC+zBqCWdnioEL1nnl9G1uGwit
etwFeFGix1qP5Rm76DrRZUqN3uszhdWb6TsaBeavDI4hx6vUjTiX7qGPg8FnuKyY
tDOnS2wRyPML4C9sncDPQpTY8iIEe/uyi62bFlD3KsU04wIL/akNDz+96X/wSwXx
PGYKcGb0Z3X335myNr+8KaVnJIpXipWc/Wa05SVIUDDoGyHE05X1Mvh1D7pivBt5
olQ2tyLDumSHEkNskjornr6qlU0mz+m7RSOUmICp64WDZi2njneYBIz/jxA6roCA
aESHnf+3raeOGQw82a3iEa3283s1/18cohFP7OeNnjHlEDiDpp9qLq14V3UFuVb5
ZI1dTNjAsyJgbO0fWVeE6t+c/Bg5kVRWq+84sCGIWD2pg7YibzB4G5oCQovElJkf
R1hipRd+WKhy7Ck8afpLjbk9qfqHfk0KBb7moy16JnUkwaukoeIjIm1m+LsigHeR
F/z5c58SzfhnLgdqcezXhxO/hzHo5BG5CzOnLZTaPNu9BIhpXUTGfOyiDicU52UM
r7rl3B94Dzhu7e9CtLkU7+yHAdXH6lzpMDzVF9YUb2HtzpwLxwU22QaRtNIxLDU5
aaxmjGmssPT6khwMFWYV5QVOGDSkI/4G8uxwMcZ4aUepGCdDFP1WlcHyEuXzimQJ
+NA0q+uYQP8zY2DxHON7ybGjUyAkuNF4TfUht7Q7sl31v0AEmWa/+ckDro9TOC2Z
NVeA2VUQ5sw6qKkhivNDlqhk4rk4QElwYCJUtPlmvYKyyuWoeFJTxPvL3v0qZ4UT
Lnuo7rQFXWgi1fofXHYyvdlUWcO/Y++gpGoSDCsYx0BnfoP7+U/OWZR8fI2hQx3O
szxPfjqnENTo2A1ju7AwWCafq6KZh+W18Qt3KgdR1R2eok9BPYtUpnVHpZ+f7aZd
QsStA1Sf+fpFmursRePtqgWTy2tTcYx6Vn/Vo1Y3eRtav1N9/ewqn5Olhe5J2vBG
zX7x4lTIvWZBElDDZLKAHLokR1bFnSVOmRdUcavWo2LV6vGUbJpQ3H93kK0a7j+M
ooN1Q0ImhDbjKzcOTpHTo+iINbkc4hZ8fMjYMCN9w9vThuT9BEgUW6ypb+nHv5Dp
hzCx9S4T4wyEiC27FHelxVNowwj9DcbyuMrL7g9h1Omu21IDAqd3sOmnJNoK2Y6H
Qf6FpDoJBBvdQz1+l6cH99W82uAOQuYK1NSpmHzelXsSlWnUWAOEzpOoKFMWMKhE
uveJEB5p8yxOBzVzf3yXL7OzCdkV5ocZfVv13TNHoWq6TUThhsjXoBwDqEf6fwrS
aSGKXuOx1SRo0l2r0f2opHNk4rS4N2XUEVtluVmI2u60pojePudniPaumLkNYClP
HgwLPWRo090WHNX1k1I5s7u/vjx+FvD0XiP2htN8f7a0LT5mEXafOFtbcIt/dDY6
fH6+cANuK5p19ZhWbGi/Nyv/oWXe/zVirnntXlv0FWitlP8KYjr3WL5GSaDMW2FY
ImRaSlxW21JnCkY6L9xQOyJSwtDHf0gQxup8b8LPMkmM0FZJ1lZqubD2q6h9a+7U
WZjd5gvN02/a4hJZTzPNjjRH7859QiRMxITr7Snooe9O/utHyr/zhYFLekJH3RU6
Eca2Kn5DVvuq4YAucR7G5XUjfv77ZeGHGU/g4daoxJnbR5vmfJx9IuZcOYnlm6yl
xozaBhKvKK+bRaCQwDPpwrDYEbElaX1ZOSdSIdluaUEg6KtpZcOq/HtPQaShRjiE
Jt0BsDyiaOuELqxTThCaamvr4XwkB9aU8KdpHmbD2hhEKG9H+u4O8xoaWzxwSgXM
+xdQbltNZ8GeNaqrtmJN4/KxKmuMyWJ69R2e5taHUVevRDj9FrHHWDrZFZfU+gUo
woknFsbvDDMP51Wa1CMofPKsCL5UJnsqI5Z4PRTNiEbmjHnYMl2kBk7bb6lDoGiA
ZhCL5s8YLpxoV8IRGNxQc+5tCyUx232+KQmhYYdEztSLcQ635aLOmDN9T3l/0Eqy
orwMSMiHF/ESu+5HYHr+PhjlUXhWoYC5DrWDB/GL+7To2twpW5Z0dTDfRcVgxj6L
SebK8ORazx2X/NiHwdVv/Ahw4ES4K+mSmdAFum3ye5uTRlv9MnNB7mvGdkvLIPUq
D22Ns+QOJ0XDiLUan51nQPfCpsSYOQNvQSqJz9ms11o8GlO2Re7KhdbED9YH39Yu
ZWpkCXPKz5Vm5DLPQb+ajMnMDGHwraWryQfry53QR3OR3aN0DSTjTTmKhXleLMzQ
WN5z8VBQqE/x1H1sFGekZvn1a7gC79WWQB7WhblXCt69ppQMHi3lcgzAIlRNeQXx
r2MksL7nTmsYcsFYSaE0aw/7jDRcB+IUl0OV1sME/T0KHmCDqSJkppLej8fqqCb2
xGgp5c8u/qon21VAOimPlGpHa6mAN2VIpn0irk3jfOMGN2xRD5+wbRFbh7C4OIdX
YM7drk5ss/fdV7aywkgrVozrJJFdIASDhjz82hChXm9WAx0DW4T+gmmFdd5RxAnF
i3zwQJg6MGrZZIk3xmGp4To4nyIIG9k2r2/x5RtLcAy6hzGncduSuJAlixiBCKLs
srS87IVIfAURSoHkTlQP2qj0eqLZzW4sTLmhnavXaOSDy3lIXRH/6KjX9C+JX2uS
UyZ1UPF8rxnGCCg2vmYghZMgN2fBXEmrtUFAFXgDjAnnPUavTbuYzBmAw3pJ/vLB
oygKfj5wvMaTTePRnKsOYUs8klpiOOxA3/mkiXHFpgSaEVVoo/YBFoymJPWZaT2c
yNdfU14FnGkingdieXvG1gzH6hKWWp+FI/zWMo3rCIDK371RUjgd/gvkWcgfm1zL
S3u22sZ8bM9ZaAFABUAxJwx7OPrSpz+RFsMlhsmCgXW3paUVsoTz9TRJsk+IzQ0k
g+SIJZMM+j04PqiYYxecqNI9Okx66yDi/jJ1MbYMs4eAXg0sxtotjjS611D2ncB9
qUq27SzCrTbpDmH5TBjkDhlp2mmko2OIL07epiXgEgmyi0JpRj45FTgAuqJEtmgJ
fPKdhsp/b2XGHAi3gYRTa486tiTFYG4soMot7PmP42qM0YThdmPbtnZsc8e2bdu2
bXvHtm3btm0+9/3uv6Y5SdM0OWkh/Nnwpl6gJKVYEinigGoNR6D9lB+AhuTELw9p
9WHSXbqdmF1AcbbsbpcCxYnERoRWG60N5M0x0Krl3I+spg3Tmdrl4fcdf5QLzPHH
adtZTEji3bl+o7PHFKj4VCJdwLRVRruK/UT1E0wyZLcjSNwx0FyjyyS9A4qVk7/g
B6HC6XnyXqPpEdGukg6pD1pIsl4LgqO8ueY1Yg5KjKVKR1P6bdfmSZVz5svjibPG
l1lNrfng6nygm+j4MDATX4zX8cKwcMpELFbvlIQdDYWywtMMnFTcrLLYGT+dAqyu
D0iiFCntiISSmu1lDoacOjgSVYzRTZzSC7CTDTJOYINON58U8bGxT5uzkalDpXIT
YzwP0y2nbztT1jNNJlBuktwqNBrVDfOsJvKYxmEYCWBEGbjU3XjPvTjmcTLDYRhE
YFleZ4OF+unJ78/zQoIDDZVSBTphKA4sIrqjT/sLs1DdhvXOrk42Tx+TwHiNlp5y
BPh8NUYZB+r9qcMCLPglZ9Hm62bIdGM9YmKkBqWoHxLAmwKs9NqiawPnEWHC4vLB
zsZJovDljy8HXwejQKNf4pMqUxbFm6c8UqdrmVYtRbv2mQadL49Gi9vRjiG5nb7H
Fu2AnQKWcHYK0l5EL/nJd4SlBUiy3fhhIfhmpqLtLXvhgVr867phEe94ndSmavKx
zRxlG4bAJ1qiUsw6uVOzdatdyCHQVTOO/nLyz0UwJI8LXTrgZSgZYMh9JQ0wPeUa
uwhHa5t0zeXVcuSBbe4pLQbbmdbGFP6DUBeeSk5J8Q/tBD3dwpnlwjxunWOc73m9
gCE7RLvFxVybL80TEOtg8iw35Luttx+lcs84RRS/SeL+PigXqdpSFocMcx/cAn5G
HbR0Lv57DH8skwiC3S2LQSgBdYDjgaNtiAcsapGf5I6lpb+XDRQo9sZ7flh1zPx9
njd+EAmxexxUZ8o8HARUyvnm8ZPIm7WfGXnTw2+LjCrIqnM5eofktmVTtfbOoxaP
VfTndhmI829HTQytFtl7fjVNeQ+uJSzuTUAUpxBv21BDx6sIFmaDp0/YNgeB83Tn
AnoN4tiiIP16zNKn3Fm72SoeSzzxbVvHcDeS0KrOz3pNxsMHKX3sMbWUTcYQ3VyX
DGzVGAVHvV6PZEA7mHdYbX7tS8E+0e51wu8wle0he7G7XQ4vrPCVx2hjNzOsS3eg
tN0VofuzRucXUxm9JlSSCt0VkFrDEWabNNR0lThlaRhrFGu1/i8VEALuzguye9A2
e17z4X5MAYquXIIXiVbSvsqF6HzNeTbGE+q5uh5oSes3G1uPOMI61si15pxjl7QT
IX6ZKFXfq7nzQURDY11fd/vTXevWJfhTigvoBbQx+0NmbjM32Z+oke8i7D5SIiKK
zb4w0Ag7mCVoRVV+sAuyBGOlfy7jBYUvfaYtLfphaNk2qAuCqkQhLCKQa2iX47YH
UUMMmU3R2FDdJ+ealtXmZ+aHLblxcm7y4WeanIbRhGjpEtfhElzuasPBBLv2C7nC
p6zjQdOSXS6e98odQ7MkXgjnXVdxZNl4QIOlfQjGvwjnGlqki5mUUyfYRU4p1/yO
ReNKVaKwtm651yIYVt7NHoLTo+keG6Uf1Ew8wjXRzJf6MdiSskQivRxEHhXMmeMu
mh6nb4FDiAbr9TMIFAcZUOcFPLj3ccNq5H9VZBp5cDOlKVDMUPzGZukO9O6fFxVW
8QJedrEs32KvY2WW7Do0ymdeXANKdjZxCZ8QXGgcWeyZyaGLovvgSprq7KIlCVSl
EzVyaJFgu7OjhrPlIDh53rUuDJi+aBdLRGcS8J2oV/K8yPISfdygIuMxz2NY5XgO
EE7B3zvLjvAtDHk8G54FIliHn3MM7lqN78LHz4mc0QUE+S8bS4klwj+KjEl/u7lh
HFA3XPVvtRxhTw9GsXvFIyexagU/yS3e81DbaTjlq06oXV7WHBafxC65xHSEA6oo
+5SkTnSU8jyXLjwDfkM7jjAPjjezn1O6u7nzvq1SxVJx6lKr4qdeKqU6eVXkG/Ex
nYceEyzBtuuxY4F++yZO3kkA9hG6+VtjN5+EL141rcQP+Tja2SvUm4C6NRz3T0L9
JQBug43pGm4NfIcV73GKhIokJIpnxMrgS/wLxJvzCXv0L4DK34G7Ivp70sjdjuri
ywXSXlPuCK/NeZNL9+n5+Z3sNDtu8B9P7QXGe4yw6C3bd/T3aCQKA9sOPw8fz4DF
XzHx9qfSnevmTcqveH/myM6UOAReBbTQULY0xWzh74PCIJBO9rzBEVBdGxp/tFl6
eklA1vOrAlPXy5Kis7bMmrBz1KFxiG3e9QR+zc0xkNFlKXNi8NDqE1YCHoOvkpb3
NG79EKN958x6hjdJ+qN+XgJsA/or8auKKnWquzxXfHVefvXDmHKFu1jt2DxLK+/J
va5m11fLKgBtyDK70wr/uhasJ7WM68FND8kfQjkWILrCjRR+FnOSQP+XsNp/dRCZ
5FAIF5zhEgIYOodniQQ2rwLEVYIBz0JgwKX/2tvu7GxtHaGAujXYyNJlRZv1kfSr
uVGsyOHocMBiYhoy6NrAU4SGHExFDYokDogEB8nbVp94hgYP5YNJ/BsLjJNeSh18
zJjXM5hBSdfpSc4jjo0hAm7eBmjcA5xilP5ETw+92fujfpxV6NngfRalB3EUHy3c
dRZy99w3ULnLWOk89b39PjLrs794iG1gTP6RbBVfwMci99Nl7B8db5njslZ8myzh
zhQ+LhbW4wr9SZM6+bpEDT+/KrBwXBJ63Rd/UOiou6WFul0z4ftjKH0G5fFckPCK
XpHSfXCbPaHEtx42zdmhD1XXZwBv+klA8tPu3fDkQSXw28nVeLuGPGiBt6Qb1OJE
MuTsmLLdAivVzY8bT0bAeRxPuQEZ0WA+hETHChNI5HO8m6pTTznVafwfaqYUz3Ky
Q3bTgQ8NZ4NpWVxCRzNJT9HCKidNJpPxO3RsxvWLb7MfCiOezaXMytGzob9o5hMT
L1Ev9mFc5C1R0eLCwfI6HlRkCNNqXBP0ioPuJcsSgyDJCzNohqHZssILHcvAGI7G
k1/HQUnUKP1gilTYYQ1/rW349/j3TdOscHSWL4fC2cHT8M3J6azFfd3cFqtz6dqi
925XB+3XfgV5DITsD7hV6sMX8cWAnqLMBz8NHVf1h7gf67tIIAejMJBXVD4qFj3s
cSiWCq8/fxh1/jSI+z0GftSsiAWmWSTP1shy+4kR3YYUl72PaOQP9x1yiKK9eXT6
heMstp8sou5St6Pn8IWSM2KfS+KODSuCl6I9Iz6EQWA2gOKoPf9ztxRkHzv6DbYn
RHIrrhpTRVnbh4/JT90HgX5W+/HFkHuARp4TNmAbI/MgyRKpsrNAqOHy970ycl/x
cAoZiO90QMdPv6ZOXU6bF137Od4NRJXIw6uwEvcZBrer8o5fd9/KCPaPXxnSbRF1
HI2EqXyIwxeccbygBvVJwtnPQUelrOzHjZ9fo4I8uFe0iJN4Xloo5EeHRoXZYcT5
bC+nWqcxo2cWw4lmYIrn7Lh6eRwlgoyE4pmZBAIi8Id7LkWNX6a44zM7XyhsJhUE
heLfjRQaIY9xBgrONrBnnP81dWwaJVj3UB/enoUA9UMWnh7WQL82jMCjAC/W+x4Q
DpVJIl3TpH00kmryrdd0n+uZUEZebNfJozd+LLhWpvoygfdvJ2dJs5QTGfCQET26
YG7VtMQFdSgT1qD9V+JB5WFCcwnm6l4UMuYm0Agt77YhWXU1zZFfDHLu5UKVArRT
gCK2/9FtrAAuZXoYwqm1nCGkvCE28WgyeV5lSTpto80jzkrFjIl4zzkvLE3CVCag
cmySJJ86/DAyJNsZ4cakcZScGLCnfVJo6G1KPn/qNh2nuTKN5EzfPeLjZExXJmDL
yBtnAMos8uGCyogBlwI93RwlwR4h2sjzwY/mrONAD+7oaFUBB0FtVg8/fdB0ztlN
ll87Dz9LyqcECRPB0bI1EQhHjCGF6fh0tIrrgbw9Gee9ifxZlloSgJz60riI1MHY
xUJvxu67zNsJDw6HvFQs0w7KUG3mdXlKl+2yMsNkHrt3c52YUKcDXX6RQxp2yjZy
HvJSpCu/eku3/EhrQpAsa6lhKgoFjbgKr5spawyVavoKpuekIVO39V7FM5u3c9Wz
1EMKabMZbxWTUSB+cvzQbhUFg9hOjZVgJOHUunAcOYotA//Mnjo4zMZ8CZOZgJzJ
TU5tqMN6RHDAo+A1N8K+Y+NyC8/IriLPiX0iS9fa1EnPRiMy2P6n1xZ2fkcSQv24
SjXIMoyhl0SzrCXzeS7ku7m6Y5pmocAS+euX7i6pOX5YASWFt8Qvv3rhjpY3VE2p
/NOQ830zghtz7his5PuQYcX9HE6Lvoa74TUOyZpu5DqSCLZmkiSuVRm433F9l/Va
qX+ApOzTSWhVHO8slkCpZzzyxLeSAQHtn06mBYyd2cckZi6SD3WuOBkz6RSFbrgZ
XYADgSPmNjR/iG/gUlAEyyP4P9LRdkbgrjksR/2joFNjhV2LIJL2FaTMUzUtXekn
AY+FgXl9MTVxLz4+1AK6WtMSbAVfReK+h/6/zvE0Dih4+dWC7v/WPEMDMcgC2OAU
pmhhmWupv/uoqoMnLa5fLK1DJUotoVX73DSPuTRa0VMQnFgsNWkCY9A2H26j/A0D
2GJcgJ4oPhIussAi215yYzgGJhHwUgeh3xQWQTCFSc8I59vb5yEWV3baaAR11KeZ
anp2KIuUieb+/f7tazV2uWqZVikCIBtHUTvuLtNE4sNlU0fuhlO2IZ4ieixYeh8I
15WHZ3zJn5/jOy6gaJ7GcmpQ01w/Qgj8s4Ys0oxxs7J82tiVdp5MLs/UaRwaISE2
T9MlWGDHXLs3MlF1bKpiTyItaaPVTKR/AZJ2eTmP0XS0UjEbwsWFTGK4y4i6cVDA
psMt6ELzQjotiPLwR+eihzVRXh6LzRYcdj/ILWdZdZEYV2DGG61pLmu6593vMBdP
c1REEbee9TSzYrFIH6KcXL/bcwI1pk8O35fyMF5GIuXLwHD1ln+BH0gUXcePNvKe
IWTwj0fqRgp/FWy/1wQqs8ZZtWlUGyC1z0cJLC0v9mPNd0fYxesR2+WEkKBnoSyK
UW1OWRd5NwLp38e/s1E2JiYb1hSAoUIJMr02cnfePGd6bo/wSqcaI2mRJjURNj9r
nvhQQq2SP78O8WmjgLYUoTAZAYq0QvdeMj/9qAZMeb0wcU0ty3Ujt50XCBJHuuWz
ibLVWHLLISImIzImNe4wkzPnd71qKp2tmxxOl9fe0rIyMaXmDUbk2Q4yXbKOmLqE
8jMnlRdPZkSOL9ysn3Bf5BDk4BH+6rAuGD5nVHgRlqn1e+7Fl5ZK8NLDuKLK0iw0
sxyDShxuS+hnhKmbH4Bu07oclt9Ogd94Wvc9HdY3Aazu3k2fiMi3SH63bh2PS8bw
VNJj6BJUnuLK3uJ1Rm08eYYh5RcYTt2C4I0J4xbTlsZy6B9NdsEU7t6gbqF6Uiei
EhfnjQ25z6ORUvip7dCBnqT+4eC8Prg3DMvH2I1jCKtqbkhldqHmbWmI9yUfY5l+
gAw8yqSFX20s4AJrJ7w9QAWmkdimmuaVZywlCB2OBijdPSej9ZYYAuS3mYQBrkYA
lxhEFrb2pUQFcr2MpBzL09NpKsz8BfsPjW3Ss24UJZ98dNKGXuRV2k4umEy+N6/H
4+qSxEu9eDl0gsBtAlQG676Nm9lLWQu3O48g89Zb7tIrOyaZu91n/g1VAIN12fXw
FA7BvI2E9IS7TXPBLVGMT78szfH7OpWAXEI+mhBbeLP3MQPu2VlF5R7OBmR8j/5z
nHcZ6UNOYk1gBJOxmg54E48tWpanoTsMvXdOXG9x8SCWUgYOif7Z7cuyzmbgfn1g
wH7RJ+YObf1Qd79IGLcHETrd/uKCeRLkszhEbsfXE2ERQHyyHPBk+gKoxG3BGQFU
cLBfaWuvwC8Dquy3P/w/oz79m2cdxqHF8UKK2Y7UQwUSo9XFLvBdvQtmdUL7mhH0
OxVI0XfP4svP0qO2rFo+mVPPH9PEG19nPL4GYIVWV1SiRz6yzIdu0CfixdbpluG6
mOc8mCi41tSXVx2vqp3Xg5ae0e+xQ79qu/8MOpvbATNTO1rwwqPKWZxJGd+6NEzM
P2+fB71iGHUQtD+Q/+UF8YeYmcAlImgI9UYmzGjgKXmKdFc/DGC+TVzv7RAr2sPD
2iEy/hxU8BMWPa9NBguceipCQgdsqeoQtJzANByim5idwCTEFJNZh0LwlgKNaqBL
jNlNeqSKG2NMYQ/br3KXGvG6UtorRc/GfpCHIiynuWzmya+ix/aPp2E36H2zd1Bw
XozHX6y0UhlBHj3Hiy7oJc9QGR0HV6t68FiNeK8FBFUMYGuyZnoNjhcNhEKBrDMp
DeoVH2OdzIvm+own7AE3dBEj44+2icXSYeA7oLsBMUevr82iU2e+8u3X7jPEveNU
HsQUs4Q2SW4aDKOGO9ZACuNQc49Dn+OXiyZmk9lce+8RZjdE04tL7IZQCOPNzrS4
CwulEBBd4DbMhb7NpwokONie20OZhWAY9o/HA9t4aBPhkrRyD7H31WjiatTETeCI
mFyPodpHGiMah/3oyTBTCqIO+eXvg+PW4nn65uMWMXHq4qjKr53EK/XNZ3bENvdq
Vdmr7I9h1L/dZUzX1uBcxmmlVtsZ1uxh2/qwM7ilTHPVl1jjXFL/HmpbX1V7drqv
XuPd9NjcGPvkZ7Up+jfvhsK+4cFsLuT+JNfCczXzmr3tzv78rd1Re/+bAuQaLFGF
xKcyRdGIK96WLXWRc8TEIU6QQp0LS2UjkvcLjsN6nHzwaiykTn/5JeAX3UnyTS1w
QmTQZZlxk0HyKVViTj9xpCMzH0TWMqjlaQekfjlHDHGqSz1sYKPL6khT4TQTUarL
bTLSz4lq05UQRv1Lg3nezpnBlvMuUmN1ATlwqw9Quj3um8joQcaa0FFcdtgDDs9t
omETewh4Ps9BWhSRnNEsTnKKJ1sqvO38Vimw2kP2Z9E4xRujNyoMkmAvv37opqU6
VOrAWlR5iTRW/7hlfjHvBjSgH6Y3AyrtGn7Ui1tV9ets7RIAe13vdfofv5R5EpOH
3oH0jBzDpJPJiKIkC3DGn2JvDcB6G1TVepO9ML+W14M6pIxMfF7OcOm1wRkXicbD
I0nNpncFmRAWm8MXZ62O+1xzuzJvpyqW+YZko56lFpEw0bIzRraEvvHmMo0PB94p
AiayetlTpvotLZ4YXjuOBIexhIZGerPG1OHPj7e6ngMBvs3MKC0uEkpusCStCqPG
2Z42MWwh3Syuwn4kEqke/YVrpPp9lY55nrJL8AqQ33IZaJgWfIMxlPZvdhS4rSIx
KJIXS43gyKHpCu4cwdbo4IBn5/ZeMwowGBVkzh8EnHL08wXuAQRk+4nJIgTEZto3
YVLkEzQLMseHM47a92zx61QEV+vXuKxjlv5Ueiw2ucWLTsw/N08pZHANce+KocRj
jNGaVxYTEL1c6IcMEbVRlEIDqvArKERV4lSHiZwh+LZZ/4poLjussIZhSt+dg7rW
hBNFElK8TKrX5fjT/W4/1mqznjaLCxPyvhFnllaj86MjMym7L7XgwcUHVKXTjyPz
D4FxRfFuonRpFj169AZL0hqmmHDIhjFx/bWi2Rc9pKjMdmEmWGi6dPZnQu2KT21r
PLuoz17rN2EpxDDljgpVyYXAWfIJBOt8UZ0yfZx4wnI2u5dKbNDjsnq2a5uLARk/
F1BVKF/L17gLelumCRO4Z0Z4giuPuRmue/a13bBtGkpCcu6FhPWKoXAYYwuOnMJ7
DXmfX7RA/4T6jCazqZUSD1XZncqwFEY0LhbvesvU8OQzqWCxsSpnqP2JO/LVjeQm
mFGbiYHVIqdTGd8RYTyHyXNx87eo9BTMr8Ux+CKyRrBDz8/GPBCOw/7udHfC8LqB
e18Ar+HoYJdZRHoqsjaywdyU7Lk0iABTGKSBRw2aNxdD8TnaIRI+XpKrSg9Xx2/9
lvQGSv3RkIGqxqCu3Y5evRUt34WzTUUT3t6XPsDQ9dwJKqFg0BorDzPMu7cXCkWj
H2c6lJ0Zlwg0wUTnBa56d/X6OyRJfIPXCVszLarmbGDVSGhN2lK6XeiNdL60qtfs
P3VmF6622L7/fvxscTefCgx7/QSSbotNQx0BAlctu63SLBjOp9HOnVtXLVIZPNHM
LQ7JY6ZtZpGNsmx8904S6e3r1RiP42Je07Q64ahdUw0se1uLbXxvMYL2Ayx3t2pJ
TykKoT7UQqgnRsOEXOh4ZPXz0yTAEdVPTK9Ts5H+shJMDydqtqmaDlz/Um9sZ7I0
R4Gaj4fRNNDRWkW6UE8BorSnooo5gM6vNl0ksxYnUXyxo1IxKC/wM1xbocgaFVsA
pZqYL7O91nPPIMrhhj80YOifeBgTcZfWFCtP+YxU0eMZBv5WPYAnpFGlwd5+2eVl
yl1EQqOesoyEmYBrhh5idTkQhk0zo1hohzwrmAKTw9/yrwFItwgHxZJ4w2dVjHp2
iVvG1YVhUy3Uu8eosyypyDqMqwDok+wvrYITk5nMP1sYzHKugYTo1QyevwAKX3qK
UYOtSz37LwK7lC+o1q+hADMSHNKinZjbKccmZgOWCrF8dIP6PjhZ8fTISE+QXFKa
0tgmL9eFAdSdR9IYrpSBRuM0a2Ou9jSsHYrR9iIxoM0dMVNVHHQ6fgtFTIbSm0qM
gpjXYQTvCRuF3oipxcs0XXB1bJ7neBnkVwbSIGAfVGHioIF9qSFBEO/aQ2jKNCiK
i6JiZZQEHB3X5hQ+ypICc2zhD8u5ZefU8xKifQnT0JhnZmZqmglvWBci0qZGH03s
IwdBHKq/k6Teeuder8fCfEX4Z5yr5M+B3W7vwib72kqdmmpzXVL09Zb+4gIso0oO
cKVJooHvqTIM+UDLmvwVWTr8PewJM6Tu41gtGcl4x9p1SlfI2khLYk5COXA9RA+G
ZzZlU9VRhrGx4RFVw0EP7XiX48mmPxyYeCqcvVkml6arrGJCM5XMbakaGqURXrQ8
adjx+diz5W52d5Yj7DVGM7uNW6bpNP/2phtUBbaragEmribADnLqFDX7o1d0i6KJ
PE1rXAdB24FJZAPMtPM86iTfstNoB1ktQH0nyM9aPAslbA0GqfT2wfzf3AI5eL1c
Vji3ELlsdQ1j2Mf61bLC/LejnghMZSw46LwHCbWjcxacNb+Kg7jR3T33C3G5cWWf
LpgYPWpVKNGzmad4cvDctXjTJUdi1g8sqJBmCLKPvn/zoBrUHvdVlDzAX5BPAFXI
gLcpQA9+hTuN2JNqful4OUB4DyJCpJqB/G5Boy0+nZrXxEaFfpH8IrXgq2iEz5Qe
z0mChUmmMIMOnWdRV0XYAkVroNNij9WpG9agOgc0anj378hcVq+2VbwkmoPUFKXx
IyIqYWwubcP0EFO6ZoA2hqHbYcToNlHJvW/Bp3TN73lu7+DKsTQZeZBf7X2I8eRZ
zLFIr/F3ycb6ahrtZzgayGWkasGJf9JExqcsswa5MSbqxJ/U+tLONWq1ROK79eMs
2doZlpgMa+P2cbGAQWsCrK2/KfKYleUEtypkfOeUk7FjG9z81nm/9e4ZzdCy2BEW
4Fs6QXrnz++yxJhnSLLExOoiwIdfe3rji13+CB4FWpNSBgR/kP4SVYletQ3RAtMe
A24aUXqEyHqMUn5m9XYz3+QUEgaAfkFUZBLiwV6QGoQxXgqSFdzTRir35PTGl4eS
MBIpmgQyKlr6GfMcaxe0OTzli/mAr2+BSBcSWcxQ7mL/buGJMSpXMWWipDoKw4WR
kiLTAmdG/K0davz3AGYhwlms45R8Zp0dpTcvzSq+0H4vdjVHcXzmwcPF0DhExJet
54As08GrXtShiMUPh2ZBmWCXbETR72EtZ8vESO4uRpbxZT7/JLVjhyRaInnHAaG1
ARRLXYNcFcU6SJtbrwONrYy0YEH+gdkmpZl4+S3QhJ3+Dz4sFMKZqcSGHsI6Aoh8
pv28FpwGqwFQmFeJ85RXcSTGcbKM/rRxfF3FDs+RJenE686ZSfbkNMKXZOi1vJ1e
08T7D2wiPSjpggNWY9GevSm93J5mGBgNEkL/05Cjl0RdAIWQNivrzGYTf40A2mQm
aqigGTgb9Nno1xiDdhR03v3RYX0FckzO7+EJlpBLDHMmcslEPjrDb15cY7GcwUzq
KfYBhmUvTQx3frw4vvhIfHcpkBhg05SJXsSM5eoaWpe7whU82BXFKdLPoW0toOyQ
IY4NbTlvhkg5Ef0AY5mNr14/kms5ECHDy7T3AcEpNlGr9c37lb314v9s/PVf7Sq3
ValyXQZo7m1u2tjUJgPOajZPc3/n1pYATMBJk5WmKlk1hL7dGRbkNwJVM5Dig6nt
bc9v1ioqC3ZxqBfSnA6rnYJyWU0VzM4apN+W1wdDENDFAaPKwCBjrKudf3RR+ZEq
G65El/fE5Ft7vwok9WRm7VPYtQq8P7094xJATDIFIek9zfrRix+v5TH/sPgVXulo
EPvPo7ZRnS/U8GSLdZI/zkqPXIRC4IyOjmOLimhxDkMnQ3f69c75hIwW/ylxqNkr
dr8P2IumCddeIeSdYKk6XJZVDQpeMMC8BaoademLbQVf4RH0xSesa2DeI3L6NPE0
s1vBEpFArxLleC1NH7akjCYlUXxYQ+1DFA9R5S6SiB/OTgjq7O7vkMVV9aclf/zO
8WRzleZGHNZqArqqV7eoEHnt0jhDyqRA8LYAQedWcMrkqpW0idnCjxrYtwLxGMGT
c1oM0VQppNMQqTPWyXyg0gRfYFAFlVOCMxR5h0BXINW/059RxCcSF52krjkF3oQA
OnASkzLCcgow+iv6iD7LxBTBtsIdpu0rraXlvobtmKhbwUmfN9/CYcdkBzPknHjG
7rbA/BoUGSJE6ocGOiJjE1LLstF3PGD0V85qH0RaCthsTMp1IY/poav5CKIU6vAm
iVdDgTzpTL9YW2b5RyT8mqCMOHKBZzi6qB4XSWP47x4xlzn3MNKudDLpEZ/9P+1G
VUuNc1BIS3Q83IH9MD0JzeIBFxpf3QRiVBBpeUVUfitffnChzmRZoVLppMDpSrB2
D12cCpZZzkk5OvICHbLxAChwBEcNmdQwS0XDh92hEjrVoIcTC6J3g/CTUeLctdnR
A/wAMHDEVq76BTU9rL9qxheKjDBhTYVHSvyPXcRRYLM/Fy138S6Iw6di5I8wI0Ld
w885KcRHecnkUGZIG0goqH3XYharZDmhomu/IYwpOUkK4mgiy7iJc8Sojrn3myGj
pAajO2yUb3RTR3FaYx06OzlNEiuMtIEyqMhJKoIbF3Zkise2EqIGamG/jMsN85HB
j0yV3cMjxfePOsUFO7jGAdicDJPJ2GMz/VPEzNR41rDZRMWM8pDluH8uQOIVjiRx
AjiM3aW74det4H5ypvOrMfhPA4BJ+wahe4PKcGVQhAQSvg7HpcB8UDcf3BCGXH9w
oaHPF6UnUbqhNzKhgxdLbipkP+iZ6jGv5q1wLIzIz6NCjE2wIrYUfZYcQmbH7fR3
j41Sxsu5e3IU1iOxMLgbChOnz+WG29BzpUY+TMIfSLLvXeiunCJUXpVyxtt35oh5
daWblFTpvlHMPTkc05aCHhXzqCXleN3Q0vhgvC/6h0PQNcf81rhet3x2nwwJnSOQ
y5xWveFVlwg1RtDmuIfxG6AIu12rf4vrFNkKLY9B2Jr+KDq4Ijz4XhLw6TgWjIDR
GFSb4vNoKmI6tzgq6DJ3HVOpqliXTAaPjzw3ZmR1uM4Wqq1+W7rLikvy6nes+GGi
//h5plshlHzVJOdsjkuIV/jL8c2Oc1kRnFi9xMDh6Na25iW6zn8Tq09ZxezqOb1U
n+a16Z1eaqsxaHhsjecftqJjggkRZpg8M41F2HMuUSVjPQbr1irOjHN9A48mpjq6
JFSpcrEGi9T/aU9qIfmzfJHzk3yEWZOOT5nnusCaOSvdQ8NTWxDCIWtSWNNV4MMM
KTj9nj0rGBbMQmhqkqegVpM1XvQjqvligsFNX5Tz4iL3dXwPWftKlbmxe5SjxZbp
3PqGwnJZAfesCMQVX1mR0zMkPO4B7B/TzwLbf3HVzsYoO8HsbkM4p48RVoIoisGE
YJio2uig6LueSCU6oWXXXMgFijoTIEeJdcCjXjaEoz+aDyz4r59ZO6YT/UnIYIYT
lixgBktr2k4ZxlgWxbd027wo4e3GYmQhEzW2AzyOnRj6ZFV5AYEpv78RQ1e3tSNZ
pAx+QrJzFtyuSeOjvCOZJ/Z9e2LnG4WlzOlR78+c75852MjF5goghXckp3ehAHR1
w9lyUcMsoM5gzUaIBvcLGMGceh8GTTx4jMWSD8bdkrVMcYER6/ofhdZY+W3yUZJ4
LGcbaE6nmqt7krDz7t/Vi1ACboYZlAgRNJZQKUn4iBO4glNSNbjg8kEULLKT4w1I
9XSd4FHCkO2XJBjsq1SfP9R+Iapqi14nytdNRl9pwLY6Xr9pZKEbV9EEvL+Rc93/
pBXoSqfGtvR08tLzrMeNpSvjoF+KyQhqjiwCznihvn7iIIDEa+gs+rIbUO45NN8a
vKIESFqYbTQhneVbbei+UMIYo/GspbtQMhfYu6qNFWvpA7Wb8GjaESOdK5M9Sx7G
gd3ljefWjYtTYmAX2cdyZ8wRN9rbIwkteRwLEtG40Y07E1x4b+87j5EtKPkkb8w/
0ypPkXnTKnODcUu/J51O8mGwHhtT+8BFjXqL3E4DGW7cLcfqcXLl3OGuogAdXtHP
DNyi8t3G+xq3PkTbH/4Zb79Tx0dTn4AqVesX6g/AVj/gnq69tUOvzxvwE3XX5yST
MsJhs6jPJ5nKhXCe07b3lC0QP9W3pcO5fZo6EDvMc+a4Dv2vq7ssVCPXlI9qXWuq
3WLcoXb//ajM4w4bsv5FuzehL078XUIjo9CA6AB1vj2ToWGZ7eoy9QCJ0R7N20HF
o/Iqw79Be+MTqNa0ARfz4g3NSGtyZDiX7kgM42lWPOyw4x1oOcpZdqr9n2/Ll5qT
yilFfucYZe3Dv0WCuu9nPZNDWRO9CNRPCxkjv+l7btsK6W1UtstOkh7Jy/a92cbZ
EaEFNfMpd0VLZ08+lfhX7w1Psb83nRfx1qMH5AMacvQXmf61IJ1XccyuyUt5E70f
JvqvzSuLtdf480vQAeqbtLhSpEXxPJtrFf4TUrJdaRhtkNU304p/T7YlSYLaFQ1j
LbzMhs25UI0EUwCcKgGRtA75MtN59T0cC9wq39YE+azxczkOQCrq1YN8j2JnzQ/G
Z8fealtTIQaDYxJGCJZjWw+CQNAFVnfgnzXytSgO7fBjxJ+Wx6XNL5AgWl0k7Yrl
EHLyGsdW/bxsjW6FihTilFETxTvtPmsNxDmG1uLgHL2RKELIeowzoCZ9gitgldIj
H7LT5VrUfoWIXXc/lok5JPvcxmSiTn79v07jK3+d4rjRwG8l1PTOqKTtDKDddzZz
1b6aP5QgA6G8N0MF7lxvKBNXRmZIhm2o/6QdCuiScsIUQg83fKP+OKbH30wmqMDt
FSMjeFY2rPolPC2XZ5w2FjHp1EV05BdyHVqE0f1+7khngKHX2NXWYeLLmuEOBKJr
lNjabe7X3Paz3s3X7WHgd0YQ/xl7gHJwQqSW88R+sY3fTkbFXIhLdKe86a9+x9RX
9SjpQArXl8gK57wcDjsqDCNjDaF6KPUBMUTvuiZE5RMi+mcMHr3J6Uq5HVp9xOFG
XFORC9aMYpNdaPHcoyKRZWFVlAqlRBXFHTHeeP637rrodNsgyCnByCJuI+MG5/2t
xtt2yA6JvuYtfNchR8q7FgXBqwK+7IyihStWiRZn9HH8cUn2I5buWfJ+1Fn6tQFI
TbigABZYtMriUIcTWcWS9+8flNdffyjTn7kIbyYoySNIcnA87p9iEv1vYtd34yHJ
ykeeQp1TkX2ieHRNr59MfLMGRWhEVu7ncM+5KHhGW8TGYyTTkWqG5uqHnVCgD4ZU
QGHQzebdMiQ1jI2t7XQ0INBf4bdNscpOpa3yCqBcY7tsHQtQxHV/7PO/+5wTM+YU
EdAG6ib6la4R+vVfu9JuidUqlnoVyH554fm4W0sG4BQTQrcIbqp2f3qIFYjxYUy5
XHZpDva1HRbtTN7RbJEP0ENKlIyD59PvyEY6qSMtaR5LItq+bxxURIcRlOzfbG6z
jb+burIbl+GrlC9l8k3WxJWd31EIkgNJWCxfkESZk++JM+V/i9xTNoZcTqC2x1T6
+/rt2qj5SXXmBN9r7dEIVBov9TPWYy7JWx8wn3uQej3GKQA/KYsvib5h5o4DumwN
zxG7jrJBTovI4bMOQPSbPM8Cf6Pn/Ye/iS6J7nQtVYIWMAsBL1otGGWAFytj46O4
X/9YgdQ2GgRJccKbyHDedpLX8zEWoo7gyeorePoAEPVOPSbE1AeB0gth+3+jDtr/
MhZoj68spxRF/kmhqVml4lgraTcH/3uBaTHKdooPt+NEsBPATDIPsLTWhyj0C+mL
M0i1VlXd2tSrs1+7PIzjf7DQ5PIWDdctW7ndd9ViW55sMvsRxa07vZldmHjYqDKf
lPzo6HD/tBGtYX3xSSn1lCskzCq7WZ14YAFS+0LPBBzv5JbspjGpvWps1WokE97s
Kh0fspJMloRtChDmd9u1bX5MlufX8arPSv/b7fZYVC1iOm5dhoGB2PaDdaqvEawE
AdG6gFy+FWrq8d/0itUzenQoN16ya+l2HPkTHLdYzA6cbvmuvksm6C72IQWrNVlm
ZkxK70waAPy7Z+7Q2UXeQL7PypjMkOdXl9IGPF5lJxZ62vB2er0yYWn1HpFHdZHz
SerTym4zNYd+qBPDogsYapbLGP9NQ2MUC/7z+Xsy6r9ujX/LZ4/fOusn5wosLHQF
2vhheNx2qgDxhN6I1a6vcB6P8Dd2jZI2uy9HbmzL2rqU0yZ/41+0mhimn+mxvCcW
zY2Z8g1+qzxQW15+1i5MrFEkioXGTiDieL4Eaoh0aZw9iiTmsKVsMrlkIXLS7ey2
wMOHfMRTyYs/kT2LK0DbfvsC4DPylU/bTJ2+wo8MeyfvfKa94N6b+h0kTQgsRBjl
1BF8JXYsT9wQondu5d/rPfr3Y47s0wa+X/Qxf9OMtAHQtq/k0Abo2/3lgI1FAzJW
+0yumAd6pBDXPpcnAZbqMM2kAQaJGBYVlIAQMbVgd32JjbggyUfzTNHRgEZZbY+H
fs8p2uNhugetLN2p4v9U6FXX5fBfEdj3PxV/FPDqJ2nVm/KUmvRDCM77wsYcyMhS
+/f4XOFFhm5z6Bsq5lrKGqVx3jDtt2Kk/+L+0Bircet1bX20k5tyKhD9S+h5N3H4
lUwuMDUP0DK2rrLb9b/MZvsHeJ/D/wHA+PeqeiXOjKTvGGhQ5qdc6AT9yapn95vw
zwaw+5KwLlcIdCt+7f4L53el7DEXZoChHvhoX8xHq4jjAx9WHlosC1DwsyCV+3r6
sFg8weKYe19r+mbFc7ep/PFKAxy87G5UmSw8aTKeOx5ImdYoTSDac39XvIn0um7z
b/HwDmc9PmnyA64jbH0OyjiwbOyrfHp9m92/ve5Mm3qyl0Dqw4bMsxB7w7fmHuC/
/WhEVrZ7XXuRRx8p8zflPGEy1iLwDVPF+P0fv+sY4/De8JQcdxp+g/w+KF0kb1OP
WSLKhX8LzgR/ULdO9x7lLARyaFkqkQycOuOH3mv7GRkuYSlSXZRMLS5csEyYF+A4
MolB5Smeos2oEzvyPSr9fqclZmntSjdnzhC15+Tf5Px3V0iwZTgtcm8XF4+fIMPD
c3uCg5fMumTF8rK14yOxlEb19/B67Np+2yS52HI/H49jUI4qSLSHh6VilbTEA1wn
3WIsb5o45lAlxQWGHFJiwi+Z2N05P7oGyeDK8MsDnafOssMZcnqtUrlLmuW3RaSk
3OItG3rL5219DQOTm9RnlhD64QaS5wTsCfvv1oGsuJk2CsnGPpdF7XMPm4p77rLL
87cTR7xPyfD3+dvyGcXekrfclfXy8/b77BZ/q05/32aUC5BT7ci3Z0Evr0E7vmsD
hDf9HdvfGnVVTmo/byOpwy95yqljXV7jZ/NM03sVTh7AMcJZ8CIt7W+6VNc9l6V+
M589pH0fCeBDWmVix9Wr4UXgK/XvBWKE2zG+U6ddgFMB7L23P7Y3axsO3cXtD49P
dzApP59opd/KjW1tctZc5whV3L7oT3MOF2eIrYDOlvihZ0hft2x03PLqB7qVMQc1
ovKgWm1FqlfWLDc43LnDmTuYsAhQLx91B/kIo8NUmRifVtUkAgduBwXqDaCcxp/9
osHdh8cOOwZNI3HvOEEyizs/9f0lqt3GSjKcyatMoDiuYqaKnY+IdEUsYDPc5lh7
ngqFh4IPnJpMra929/tNjZg3J4+CroaZEW0JtblsV4mhFAvat6yd3Mxl4Aseo7rb
RrOW0eZtN3uEG9vb8iW/p27fVW5v51VabtkMo/pBzrCRkmlvDeFTqu/+m592cvsb
akXGUadzBLa5Bpn0zmuUXG5R1OnYC6yO7BKvkaAplz8nOreS3E3VSyj4m4PRPLGp
qpH/fPhny+gW2r76ewus2yyCiFPiQk+0i7T/dLQrazOOunDzuFT8tu8f3spwnfhI
mYeV6BYJKLs5ptstoN3hxQTUI0Cci1hnI9h6R1PVwu/xbLCWvmJDMH/VEtmEogwa
sYhcm3jFr+B4FUM4ky7S58icb8/cgI8ZcGb2NPUUFVLprULBPTxEiPVyc3NRVc68
vIiaTu2hy73FBRJhpNulnlN+W9ErkvMHvwf1V7jhDv+T6Uxd72ivB9dNKi6GiIqz
8D68KyBF1uteIjUhZMa0uum6C5ocEXD7Z2KktgfuTKMYq8f5+ATLHYGcMTuM+zJI
bHA5IqCUwVYWZVMe7W8gHz4m/QrWNh6PNYtpsWnznbgB4yyYGqif31GU38FJyMLH
myXeUNHz46Zao0YSSntJfX2xAoAE5HjfqWKaXoUt6LNdf1Yqdyg1GDjwcxu/64wf
KgUjMOTM4ROcTylAnpB3NQ9FX+6fcWGjD3GfPg0xZiHYmfg9D3NOFkdQ5h3C6QbV
4wSmkMOY989w5cfpoMCHPZIpeIG7u/pUAw3Cjx8iUvUjXoa4DEUjjxYdnP4ocgSY
BJSw032zyzcSGJ3DX7fS/Tek4wJaEMJ2Q/MT17oC9blxR1/uD4RdC7p6C8u1YV6S
KDJAPzzFwTBxjQTw4Aatb7jcI+Ic5nI5KRLrQA//wmZcCoaCWTMyIb+34zVjdAz/
of/89c9Wl95xVBrmtjeRbIiLQTt7u4EBV33wk6B+9nYzEjWwE4/7d/F2LQO7vl0b
c335dh1h6mLHQbL76ctDvKHfjZmW9pO3YxFpfG3H+QnyxLQ4bSKvbyCnpsINmPz6
cm0b/pK3Z3znswlIawI47gE4Wu9/zmZ/z/a+f8Ov4v92SgWofS4xPP/3wPjzDz/3
Ejzeft9UnwXMFkSaGHakjtG58T/RMdo4qlbEfy49VW8qZncN/RQnNo/EdVDws/Do
aPV2jsPSqTx748jz7xgWKNJtGBbM0qXy6BYoZK397R0n6GcsAAaRSayzP6co5B1v
Q+RSizGv6QFn3G2eTu1gOV68ZUvkUo85aRbOyWJe9WAibeVvwWfSz3LO3Bog4l7b
X8xQdOTpIhb5kF0ykiArAxOHxB5Kj2NH5JAL+0xfPwi92QxMaEHaztA5LxUnZtaR
qsVCHOkZu1wvv06Ruu2i5Pp0entasdJ5tAsUM+crAPoFilQbugXv3ISClmEpvsOk
MelmyXubHr1ts/zN795OEUmrp69NFHLovL21dCpJhc/eBg8xVYKzTxRyzxxc6ZRj
Rzt6xaSxjpbhzidOQrr/4IdH5MqxIwHt/9j3FKDaSKlerSKyeGfoy7V9x7z/P854
XFv1zLFPI/JZ/jJ8GtlICrHPpXBb57ajZ0Gg7wZDe6/m1fJRY8Mqi399Gz1a2312
ggYRDObUCirgPxSidWxmJsHboZX8IVyYxGcQWlvtOEbR6BIS5tQDaZ0Oxs+nVWz9
zNDWBQGLh66mlDYAbmqtS8/4gWjx/M9M/KnLpteHleRwje38YWs6NnjLjl4QAaP9
jl+DiGSWpndkU9bH/ivKc8BHV9OId+no984GCotR3mF1i4gkzlk2+f7EGSCbvN2h
d7NbE6TsQ8W/6b261rXk+Or04neXOfpSMpT8ISpyNJv8FVg5kDCPYQB5ifq7ftjA
s++3ftqvZNdfK2jMHOjbpfs/tS956edZuFd5aYeC7ib/T0vDCe62DcvcBOkyBCmF
ohGkq2yt471ZXLi084vE2mDiurSbSC7P6hG/Qm5pFU33SrBiUyteJ6uQJkvzyA3O
oyxarkxuFr37M5/H3qMXr+QRmoltn7Il0Q2LMx9HcLNL11BLTqi6H/LPirqxqpnR
I/LKlU9mXn8XdJnBBSMkm/H7eUd1SLamdCBt/UsduMEnhA/8a/DkWVOsXv2i205l
TL59X5EVcTnVGP0GnxW6Cu7c3YL05hH0jMAbl6EBIEKdYEUBnSIU0Px0mwpqVbNz
Hr83ZrhS6XoLOL6ATdf64UNm7Dud59nw3F6BG70i41PyStVcq3es9vbRzpqBQkrM
NUO/XhY48d/l7G1aWONb6Px27l0baLWO3lpruB/Jed1GXGLnA0/Wl867dM4E7MWj
Xky6hhgfriuZbmsXnq72l7yUt2LyW+ZSG8pzRHoMdSSYAHSIKZVy+w2Yg3ZYVI0g
E0ZYMdf9vg2DThO+3r+GuY6cUWk7EX/Bi/dJsGTTiVpV//ijuu5LDJG6RAYXWF3G
FCyioK/KgmOtK+UumzJNUNlzBTUSs5VySBdIqabfuDCk9zva4dS4U0grIJ8m8Ewh
VVLvGXc2SS7rwk1wo87kubMIdhWOnHy4yfaGpK9bq2RQbTixXU6DKMM3ZOiAHFnA
pEsXa9eY09CyUJi5M6QLz+AI/IkZnHDA7q5o0qHDA93QC9K5Pw1anIIrmQ0IXBwo
bwPLXCUNBDAM3DpuLay/pVtk2xeh9rE887t86jFm0An7X8lgFmi5sGT9lc2B2eyk
M/MqOYTs67LJ5Y62oTiyC8+loAM3okCe7mVQ9NKVYhhyuOc3K/WN1K3L1rNaeyoh
6rx0++wZ1zfqyAwV2/xAXB7V7nYCS7/wYI/lPtutXhPS7SL3YMbBtMEz+UrDQqfb
eCYcDv/l6AYUs5kJfCr96lde/QHYt3S9y+ufIeIQsCfUcQU4/7Zv8Fq4b9bJLSTA
KPY2+ZnXAPRtAPavAtDovRmA9FEzuguAqfWTHcA/VSALrIplxTFnJFNgsxgPUDjt
0xnHmTxVO5Sp2TLKYWUnn5BZa5SzYKq68NlxYbW5YGTGttoiq/7XdLFjaGi6mjp5
PF8fnHnJVcPaVQ5/drr22CW1NmVDdfrVwPOcfBr38OVU/UjuVFYmfbw8/GGXv5DA
MxNPFnOli/QjXxAA3LoA8PnzmV8I6GrRrNpdAAjMfhbLztxHPwBaxH7iAACOH64w
mutat1zHU/+M285Zie4KyD2v3Ed/cJ0EeyfBx8fj6Z/vQHLzrhWpGqUe0mZ/ih9A
tCLnQx/OT52yxHnXD+BOz9+NljnbpxS0XfRqb10qF4DrfgZY+1jChX+8z1caO1CZ
IekrEztXU/oKuporrf++xDlyQuHBF6F+TMQXpLTFmuHAkhVGlyEVnQlZI71Z6w6C
/uj5kbtqd1WrH00WlfH23eS1/fUP9SpRYzhlCtRBd9Vje0P4bxkHIdTVuMjYihY2
DN16u+xWiP260J0/xQfwi6VOFdmejmQf+VqE3NGk+D2eXr9kNwWxJ/Y4a/cu/7bZ
BfDLjzp8/e5ZFdgS2Xy81GgZw06ttF7G/i/jE8QvgOsPX+qUVVQiPjJNwFVbIuw4
7n3Azl2U855nbcDFnbj+LjEjT4BJW3/+GYAD+4lASJDoT/tCfyREWrkg0s8+fFCe
B3CpV0OSesZWnpxfRZ9y12U+zUCEkpqUVaj/dytpbdCG771zQSFKT/IwR0/y27mM
BgBD3o3WiPqe0aWFZES41ECWW++iB+rPS49FCZkw+1CiY98Sspks5N51FpfitcRO
SpCqw6daojvqxX1ZqerOJA9HP9tYCxt86vLEG5aGDyUyIYHTE+xgLnOOU8eTZl/I
ODXTjvO5/wdmAf2dzb4r2mN/vdMSDRxjqBSmQvxv7jsm1KMi2DZtATpb/SY+7Dwo
/syO8B0OynQu44HZdXqKRHqMvzkdGk1/QhRP3JK5DgEORQwky/O15RvWx0ltmIFY
ha0o4yBpO9K1GjAOGjkNu0OLlspbYTY+ejllZSs0gN8HS5/jFavGICwBVR9aEzyp
+UarjosXM3UpiXUiSZ5vaT3kX6R3gCH7Mqxqz1rxx0hBmaNcOkhKsQWPwHVu62vc
HDfk18w7nhbpw9JADYAoWpA47BvR+DmAqVNB4QY3UykuPZ4kooQiR4M70dxvGyYK
LoWvaI/uaE1TDKYkRjgkb9XeFkeafEv3IOHk3dxUF90E/A/Yu5JFsvQhvFJy/FAW
+bxoQ9UQT84HCKfyF21OhZBwPfuJM2KdeBDHRq5cHfVSldyx+8n3/l1mMhFkYmBP
gZLkTr6eaREY3uRWpYM9kEFYX9QWTqiM+iflq9LklaJ7xclXZ1/RgOroMlQxxaBQ
ZfoJ7ht+XUH8htFCIE5shCZQjEbJ3neRZtvVF1+fOnJChsUDLDXz8Wl1HmrCCLYp
rZfm6fv7ixKJ1UL2XtKRtLqOkU//j5aGLxnZxcsTKlBmpfsVZ2i2Z/sVYzNN/Cph
ncCtG8fklfaKlueOd7Oe37PHUff2usadHa/WG4FAZS5omCLU/Qf89d0VxGt74Nl6
Pz9rPSQ8r/52fxCyS2Ho5VlzvcoPYtuQgSPoypxtgJnCzzaEBdj/oJiCbmdg9AnS
RZPaw1+O/q3obEk8d74SVx4aEdwSBeYM3+/NxK5okUaJ36NOul+nx/wXLV++PwDb
7R6Ab66A+4N+8oP+CPg7JuxPJbryblqi94mxD47B9hxHMVD2PUQw7vfPW2adFp8/
K/xnoABTUpvH+Rq4ob5qW7Si+gSdCWbfXhrk8zIP5XyVH3TabAJ2kXigpYUpJguB
lkEYxgJz+FkfyFPMgEFPBa3eLmgaRZSF09kvvFgq8VsqMVGiSArxWxo/7a7FqxD4
0EM/4d8mAs9WFyTo4FGnPiDciw8K7KKVoh2uegnGsFtTxscWUFl4Ab74iHbAuG7A
lYEXNClc4J2T1iBxfsxPolX4zwVbZWMPFDC+Z0xo8ms0SUE8uvqtsDdLpwjrRgAq
5T8Yl4GFA2cZPFWsmMp5rdzIEDbmgLTZm3nbf3gMMOK7H/tidrTdgkD2mjg54owg
SIw6UsMMUnlruSGKInIl4FbdYPNenLjPj/P8tZwCwIlnO4qYtY7YUPeX19dsKjB7
xU1Klm6cuDKgGsPfLf61JP5B7zJDA2UkAc9Il27Y/7l+3gy/cB4npp4AXRn5KreG
+tpWLjdHxOvE1JVa1o6JdnDyWub2q5iVU3ush2hOZ6SW4H2sGz1jQH1Wb7sd/vrJ
QOpL5SizUszYa/k+REnlkMXZ/Z24ygcmi0zckLMvLGwTX1EOHUqvQ4wu6S51cFUF
Chjg7wtsKNdDGnArFH0R47ASnLUtsUCut45noFvEZ0+Np0feQMpssbbr+cBzQcTi
OmdN6HAsP1fkpFtwGpQZ9DlpzvVnevBtEkjdyScHT/fV6H6S9Dtq4H5K7C9fA627
UtbyDrNlxVH99CIQU652ai5TadGrWpnsj7P581LaA5kLFKPfNzvUXBdEldEZ7e7r
q9uBNUNdT9LPjDxM8lTsxIWP0Fsi6W/i2FMdiTWnT/uvaTUptuxxhI/nvSn5H5vS
3d+/gMh3gMh7OMMwYI1jDfe/zt0evPsAcP8G9AUDKBuer3qW3J6idYHxBj9XI9ui
e7cDXVVuk4Er/o8jc4quRGGWcDKxjQknNie2bdu2bdu2bdvOxLZte+//3PtWz716
VX/VtYa8RLsGKXFPQcJRBNoibJ/VgRjzCVcPTtcaNJcVx6iRh6F2P5AKdTSrUjuA
pLo9qf452LMVZEtSDyZ0uSGiZipg5gSajmvSd8+HGvNoZuQlVDZomVdOrg4GRT4x
c34KDtpg0efWd7tGmOttP/3Sp+6tXbfi9dJ+Ih6P89N+8jS+u2p203PG/nlWBYJ/
lDiaRMJV08EgOuixp/Rn93iP1UvG0mZo/WGVkeCfh9MSDKMaRwqU/Z4aIXqmKI9t
Xi8nrxr/Nf7QxY8ZPAhRpx36i7lHrbCBYWplJrZ8eUkVBzemAtHbzaSu5Gku1KzJ
4RuLdAg7ZdArh8g901d8wuiSRuojEXqWDlSIPmv7QfxJfi4GgJm2ZSlwWNTahL2L
YrppOTrjRApTvNRbmlFOP3b0071JGe6Znyxk+OylcQJg78tbCNTfGkkY+I8R1JeA
TY1cU+ggeY3fn4viXEUGxsOx0rL1wsTiSAZrshzIkiGQ9zWrrlLo5EJcYymcij1Y
z1+AEULZzLaVknXZmtqpfKKxnliKu6pcolTz3ua8vXFsRvvda8Je+n9WpZq9Feeu
zWH2K++jy10BVPKUBwywE+9svBUnMwe1e9hoRJfWZKkSlRTCK0tPprHyn15cJr6y
RqtrRrCIKarpNVyVSxPoDRbEpL47Psa4lU7kav8J8zRp8Eb36pHmpFZZEW/dcVKO
S3Nh/3X8uFLIsIq10I+3U3/hjs/RN352jt30TuAKLtUXEgtMRzHQ/a3ff+3nbuZB
vQPUihzpNuDAxsqOs4Q4FI+O8ctp4yOme1e1AqzPko71za9diTmdH72TwXFnafVk
A6vPgo0AyaHXgdxjKXvmMSySXX3tySBkvFqn95z8fBACjt7aYXjRmf5elMZtfIq7
na/1flU8BlI3hxiTVt8zOJPBvYJnduuqqEKLS2avFJk038V4UeAzyJ18Z9R/oNZy
1vScbfIxF/4j3gFgXVw7a/HJ6T4AceZfvCpx4W9Tt7fxfz9zfZvCA8SK3YFZHj7l
XY6I/u/DbOK9Tr8Wk1jEBdyVvmdvAMg7xGdMXmyRlLvSxa7LsBTWzP15Woqr7JQ/
d54HljASR/gkNKWjIU80vfSVaHYgw7iD64hEPVkrc9YrZDDst14gsbX1vf8LbF0a
LQEeKC7I83Jxet/VNC6GzAFk1Ju6vG6IIVIrFE9NEA4E43QiO0KdT+sbTmmSw8rN
w8bxAeeYEFvBkMK3BxvPeLdD/q8YxB+qPhvjEllfxLwvhy3D07NFXN13oXDc9QWu
toARwLtN8ZBwGdvcJn97ofmHb5t72O3mQ7tczi2CxOpZP6iBKITMMD+F/ezyFXs4
hQNOrHVpzbKXmRVJYhfQ6k6l1RebhjQ6IFkahGJg+B/uyZMgR9eE+/yaPlZucvkY
ZGvChsYoEZXNfSKLxd/LnMa8KYsKE0g9RsU1HLvpSCL0f9hqycHny4F56PzOlM7M
ReAZJjE4YPFgKskcFNEaHMO9BEWwR1zMWAHNvW+p0hAeHvgxBtm6RqVpSeEOiTDg
yq6RGT637rwicqgJeK2bN+Rd5smaf8GCpajTSf3/fP8bnnr+vv2D87XzywYpbl39
33Rtv/OqTx+Ods/PBngpkznAE/RMXPkgs2CeFw/BDiTd3uNNHkE9GtEm0XJ4L2wG
uQyijTBlrBaroHqM1WJEXc3up+ujpyiPxMdBOO4Aka9XkXebKhn5zOrMhoN1VSIw
bZ9gH8Fg3FEaXUudfM7ZHIyniZQ7z+4+ROG0sY1c3TeHIYkmy77x+7nVX8/Pa5Hv
0Q+B4rBNiHdHFVeNI2DVYlT127tVg/JPMzTQSIsoERvMVJFXZQUp1irR/7oWq3Rj
D1n5Me03+6vxUCxYtSQJ4idEDuhldHGU9fYjmOJ9uiyL2zQGbGZFvgQtZsFO0qLw
qBwBn5TPmkKZMJ36HpViiuiKM4GAUzrDEgH74xY+0lt5AtBi4z49BViy+19O+d7L
/T7bowRu8HN69bp/hp7wf+ae2H5OivLnkeZp8V016vdjcTzmax329uvpUAIXbvHw
P5DIRE4XxicCJHgKSjUTe+SE00lDC24VatfeuiYwdQ8187wE1+qlSnCZXlAIC6mU
mAlSU4BvmewgZcUh8ipYLZtoU0pAkLJfhKoa4KrCVJKEqb8C24c5wC1O3E+Q7KRq
2OFs/aDpyXffmc+TXl2bkC7/EF4JliljgSoKgZQUPkNACHRFAyPMn+Q9/vQbEwKw
z/rBE4BBn/4vM3QcQHbc1pn/0ozwob/9Ti5QXxwgzLBLR0pQvBHOqmlbhAIGPx8S
3sDPbLVJdiK6YDOhrvrHzsdRtDDh8eC8W3A4GM71phplm5JaCmOdHgQW9CYuSip3
/mMsnb3Mw2VR30udL3YEV6TQLjUeHQ9FO/XcTDLlmU5zS2rylxjA50n57Ppsbcbt
TFVxp7/eZvdp+O5Axv1p99SZLVvOZ0p22Rrgosa+EnV6sls572lagk7tp37lYhbv
JqPHQxGERwBsdrvyz6Zg4Ko9ajY/Hz1RXFAJfKJPD27KvuK+oGdE8xrosf8J3EKF
9UqSLVw38dNO4e5v1IjmsADLQ3TQ/8qNuwkfehFQKxeOfdTv2rO/UMoEkVBrVGQ4
N49nZlKhzkAY7/qtIjfc2GZ5mic9hPKEqmw/7JhnRdMFT9HeMrbRxptRr+S/sfNC
kezQJMtDe+Rqq5wLda11+upZU362UDGXD3U6MwxVThWMlGlr+cecxSywKQ8i5d8p
vEIJLzjsgEhpwGKFOUgoQFWglKvaa/zgtJ+7o//wx9/nyRNzIPoZqLDB8AFodnUH
7O0AgblvwDV+/4tp/u3I89N4AE/L6bjBqX9ZGhQnGZP6px5LrO5DsaQ7DD4SbN++
zv144N350xUu705AoaAFpt3CtvoYBkE+mglKK2r/qpi+UO4OW1aX4TB2//kLziYw
XlVS/9PLl+bnbB47vxrQOw+8U3OlqQT2djqaA18w9oAvQsmfb4DSPd98JUBbG+Ux
wcVcaUWufjPstdbfnXfusb1xe0QkTlAtRlTVmyjqQntZJM8kzG40LffkTh16AYTL
kPL2DdrbFbp8knL26wkEPjwktrjkmTlFJb1/QEulxwue/aCf/sa+xjwf4EbHE9Bv
HPiD+9GfPnN0erG7geUHsqhdXdKEl0yuLMmOyimWhVnF9bG2iTV+N8ZH/oJao+fg
xnkj4rpxeJzGqOoByl9lzc1DNfinSYAxzllp11IFNFAZ3Vqp6GANFM8gQDuuHOPx
BhpBf4iP8igZqcvyoDP2nimiIY1jsTXPv5UNjaGILBXqly0Hn5s8isxFikjq31xF
IZtR8eKRGBWCcaEoiwZfiXFR9EWD7NCBDT3EA1LErnSNkPgieuvsBGcJK7Y5gMt5
B6SfEv7NDU09lAfCMH1HMU3TRSp875ksL1zgd8y1Ei9r3LcmA6000SQSxaqkrBVi
0C83R4Mld9MGDqaNqgauLtUhNTVS6sJ1D3Bxu93pIN57nBI38zHQv1XvqUpjSuhP
lgXDP0GFay/IQw+TJ7bFLdBnFX1+BBDKxzzU6CiD5p3Nf5M/bP/0CpnhIZMZrNAN
ig4RVkyNOXhGu7h8CTqdiaaDsIMdsoRYXjFA3htdT3avG8fEpIsVSOWdN9vqcodz
ncG8ffex48pIPtGcsMOeyeM4edZekoG5+5nFFobgwuoSDt6c+e6uCDzNJgYoOMA6
4Yl0OYcpjzpPgGh7Bw65VTx9e6DqeO7gPjsjKeMmMZujE6vgrcyhkqJsnyYTK6Wi
vY8ZBCdEH7HsfRvUeYY3kTZiiuE4Q4dCWG2+9yhU8wtRWaqQMtlKpmHZXpHgvZN+
I4M4zEurFTcBCtV++sdIbjCi4qAsjKQMhriNe36h+6mo8g0YsYiW4dj3CWIRWgQp
6s3/nqT9TLhMKrqGqLvrY/9d0eZ+EEtwjwv0w0YYlkBpehfJ33CkEth90BEV53YY
5128XJqtDKM8EccXf5gh2+0fUpxyxF5irkOmiVHJWYZp8aehM8X2XmCRd39ORNsy
iRv5FYYQvCw7i6YD/2MIndAl6vcwSU4KudBXEDP8/EDB3CsebxW6matfvHcEaJeP
ug4/GP3vgLBYsX73tnYqVtuptFddmQD9sYBvV9+C6tInl16desqOibFK8hZTc2GD
LYdvZvJPH3iwkgbWj4629jwRLB/f4m0lwkyqQQtsmdl43z4e85w2vPw7X51PXkj0
Ri6PRdZpROiquilStRVXDo8EHZWKfOnc9+RrHmZwqRRs+z6Y8OcGxPZOC6Xh4XBf
ySRKFmIw7AOmYpbDarbVvXpI9Eq+PqllgwV2BJcpnO00MUoYITsXIHbqEuSGKfIu
x9QFAenyuSgquIScv1Q77suHbNwj8CmHCiDXsONPwDitTe44+thHXgxpQnXoK8uA
n+iIfw6KOhtbJfQ5SJwEZp950ou32HaYxwI7SjINXTIMRr5ZGveGfKEWzgdVXva/
uxOyaBUNfJGPV0LyMxB6Il9+Noa4+FZ6c2TLyCqky+H++qQDDHQWzW3XlvDeP64P
D8dudgRaFetq/XleD4aKFo2gKf7klXkbt+AbPTfRqbMb081ZchQyt9YiCuVsj2Dt
oKyaga4maKIL+xkeVnflVYwmSMnIfIhVH6skOStA4A/CKBwyYveqD8QX4sMy8IRT
NNlhTPJBeIlYDA1S9rBzO5zMSpu96Q578meHTTg22x1znPeJT4c0UiNh14tyLCEa
WgZPaMZY/RhjBZsS1NOkl7KQJkp0RD5E/vkqdrYAf3GqVavjA9A2qblreT1r0q24
SK84HT1J2L4Ua2sJCGELFzsKYEkvHwp9i4jQoMsylkuwao+bl7/jzW97d65xuTGC
w9jnYO4nxfiapMhzjVOMzyHJv/YzEFG/VDAQUk1mdOFFenK7TWcER6vV1TM0b5wG
VAA02J8pYYi35p+d2Lzi+Tjs7S8TBbq7VOtsaSFsX9MWUi0wniEE/FB8DDaSX0Eg
RWTo7XsLwgUEId1BsjEl2QQ6r+TLCJL4iLFNpMUW2kZs19Hv8VeuXt/jZFIAA/xI
88KMLd+2tsWAc8faiZShMHdjI/GHnYQ8scOTdO0xtlFsgsyfCIb7jrVaQgmEODEn
YZ9jVNuLsEvpOteYzUT9w0GQ/c1DfQFaCo/5+N1klKw00aXvZ/Akx+sLHulITZCK
cofq7scLStTEOPmGhtq8o9YxdWb4m/mZY/XrY9Tyb/GjvbJmiqr8teUw2yo1Xcjj
VRqVwd4gDOmSln3SePs/CHtVz3+NaJXgjg9mFjZQd950+KyrQQ4IR6OezBtFVh0e
cB51j4eFCHFcvM5Fy8lWTjIzmcwlqDCPKzoQXO9jDtK5t7F9cvM1cCGdSZnxccN6
C/yDCeK8eQ+8JEqYww6VBZCOMQgTvgPHxys+8lLM53xbgfdEDVqgCsODscJfqOWn
4vVPXWcJ/XMjma5bKkHfG2UJHjFmhPMTX69jOF2NM069D52xK7ljVtNsY9MDIsha
WZ+0Q0v/kl71ZuGx+g7X5fj8P1m3NFwvUMwfxLYuoc+TT2HXeiw6zD5Iy9Y9QsXj
KghrO2NQjtX5TNG9pB9PS+g0lGYBv05ttoVTzGdTIYZOJxHHghFrFR+hu6FMa9It
qOKVJgwFUlI1oOngit6E3aiPltqMhH1vuPH0nfx64IcdTcqaFOv8Xy9VbI1bX0xx
m6Gsf+H5hIBAi/kUM6uLzFS+smZP8a6m3ywgTCo5lZg2go8bNZccSuWUHluep6EG
3ZBr7umXYku6RnUgDsET93DythgtNMQneiQ5iZh/pI2LBPueOggRBBhW514TAV4C
97rO3VQ/xFnc505Y3FljqSujfwIrXtr9LfBdNins5d6y10PE59LLUNQ0xPik+fXn
rQdHgF+0AlRg2pvGyMSusW5XHgID9Ix1GoVFFlxgv0i4z0Ff4+cdZp4Zh9KHE3tK
XKCwTbcC5gy3vwYycPdX7FBMTRb5nUmN/q0YTcb+TEv+q9lUJBMsn9tkQWuo1TCK
UNQxP28gcZLj0QFPumJeq462QMD1xD1wx6MduABvtcCJgUZP3br969vzfQiKaMkx
3rBnDAV53An6JbAAVcT0Z71VHjWMKm7mSnfwIz7JtgdGuoevYg1OlQinANvYQbnE
NZ+YPYAFXov07p+yXjj1DtJ85Oj4Yu6m8RbIGI6GE5HxdoOmqiaXToPBQMffTAQf
X+Vo2/15aL35/uFOLN3HZjEOoir8JkrZNJCfepCEabBtCq1BUDOjbGezRgBVMyPp
EjCg3r4BJSFznG8quG4XncmToEGmU6eQFQMLp2lHjI9LO2w7ya8sgGsYYGOQ93a+
q8wCtvud8dO8Tx47Yc7Q41MlS8H+rUDufpixLVV55jDnJ18vwiFIgbRhWQAFCn9A
mHd+8OpzQ0sniBCDlZUkgf8xAC7DOpcyFKIFEU9cyPHZKOiPr7U3l9eeaUUgGooa
AJ+KCKfAF4MAX5zIXkfaIdt7+y9Cd8gRBAx0/flb8Y08rOnYxpzxHkpElBgViMqn
9C1nkJ166/Zj3IZEmHlLVTSpOal5lLQQvcyekdTbUnKLl/X+UkGW6HeZ7mgY6NBh
nv63lT2PsjVySiJWfAs3Hl1OsDT/FR4+ODqRPQNqFB1hvfznjtteq8N/ntn7Mp5E
9RwqOWKCiQZVVWhBrhAfinsuFR9ng7MwOkD/eJfSQqDQGWIBiyYZGkpsFRd+1S8X
YRxjpK/CpH+DJjZZoC+FeJhVQVmiwBgXv3PwghRP49bp8A2Ksnpk3LRenNj6XxXH
xPz7saxsnVFoSlOKWDUGfM8EOLY4G4YFYv4/9FuqR0Ozid8NfwWf2dASRlrYjUN/
6X8JnxrIaihbU5wHsvuJW4W8g6ovR8pnW4T8g6eSERgfcMv/St/FiFtWLTL8KbXm
EgqcioiiQjZsKQ/34mJBy8kZQXB8MkECRoCgPdCMgP+ACP89y+qK1NHHWV55OOWJ
APmZH5leOVkQTwYSRZwrglRYaO3rk92eLZTjs9vuT/iiXSN4gvLgP+NFFIb4qbfE
eIvi5h/iRseDhJ7wWPStIiA3Jr3rVHwIHW89v/+RQuUYUVURFFlwunmwjRG2yS62
Y0FlOF48HuDZ8t4oa56l0oCBalTHM6zzAlWaQY6X2/J8Ue5IE+8KtOrs+6BCsKHb
EogxxVCUDef0TdFFy76GK0wNR0x3Fy8xrXdiuk2VJ3DmKKL9YyJpze/al1ksH7d6
PTz3z+yobWME/wbDyHbQxa/GX74dm+cyAtYfjNtEpOM4pJKkUGXv6vPQUg4BlIg4
uMCpxt1x6bc/sUnIEgmhZ/Jv6R0qnXQuPm316wy5/ilO50r/qUU7LoRlTPraznA+
p/p4sUyNDJR4KgSx4ivPZILpiQVPmwM8RV68Zr3tge6IjLtsrwlRwLA7XkLBJ4ne
XtHGKIQOFUff7uPULA+VZ7aGU2j7ClOOQsksrVeEmH1qBWS0hB88yGAdiQYYgneP
7L9SawcP8QZnmumJDWvcrtFYJ9vp3+5mJNIN7QRyJgFVGgcZv3V8KA/V9b0s4xYc
Z0YhThWItnP/jSknfQpIPw8dv7TA7/iy9j2PCfwlOXxqbjNJdGdiBjWjoFjGd+Ys
9ieHPkKvAPWbFlAsjRuBPNfIoFm9jJ+yiI9JpaFmhSQeQM9I2JWDimwHdx4rn4TY
kznU2maypQ0w8eF6v8eh4i+ozflIS/Q4uY9dpCTkbtphZY2oReldPUCDuqeZyC9j
M5OpO2LUl/EpOh4d4jkQH3E+fA6xEb9Yo7RLtcDklSoNMFRTCxJe5J0yBRITWkAo
/Exsi7PKyxt55ut3E9dJFEVYnFpFEq+Up5km2B3LOxnZbrCQ5jk9VZTMkb/RDXqa
GJC+HFlIdZjtqqGVpRZTzaFDnVp0N/3inhRWAA3KkFk/GeCvVvSYIYot+pBdSIaW
VOfxmVlhk6PtvqLqJNfY0Yoafid4EWIlP/qdktNDQhATSR74BV9Ux4/tQcIvwr77
3iIRM21jo0GI/s2KuVDiGa8gtoquGDI1cshNjCQiEthsMTAE350uk1GAIxYogLad
iOk2kmOKsWGPztnwbAbmGnFbdS5rLhU1dbI7ciU/ExPgX195XPhosls49HfZjLpR
XLo6vFJx7NkxW21YPBfhavmQpMNp+7HtR5GOzSb6aVQgk25sZTBj1UIQbQsEO5sQ
kRqzmyhJIR770xoIWtW/FPd0KB7cS4IVNboMKYe/onUnaC0omMd/3giJmgvjQdoj
Ej/UoTNbliM7RhSVAY5Jifrlu1pdp70t0+dOa8WkPRYtQt+TIQpj2NxjCkUSte3s
OMqM5OapsyCsQdH2QxJmUEI6IrpOQbOma7cNkWh4xMtVICGd7/oWyaE/sOmu6QFO
Nl4hyJxFnpVAM985V/isET31rzDRh+CHkhTjsXhHAuwxggtkeGG7FQ/Jg7ID54Ax
MydZbkLC6qE2AVGIp6SPBo9lyxyqdok48jvBzb1bIDJhucWchNk8mNu9t093a3PX
I+bUhnCckdyTN8ZzCaYFOjdYqMN6SdQ6ZlaFFvEeO4m7axwnwkW1vFYADmyYJ/vj
ElzuYrOraq1tjdB2jW2D5X0pjAqsmIMPDUjMxiZDS1UG8jxYcDuMbzD1UL6APvyZ
48SkJ/apDkLtMLGy6VbcqFvv9y1xdrOZhfExOFMICdfW2avnviXPJm+GmG7IolsE
JktSWFx1A03+C38FdytWvH9JxIZ/ZfzjO1py4GdZ5WbhdezUzffp7e5Mkc8enh1U
jzHz082VZENeSe1TUdeGMxumKyB0Y93OZ0jFiDnr9ADO9sGyE32HCo56/jQY8yrU
Py7IQKPysvjmcvXsOr6FpTDWTaVicV60k2zX9HwoDDbH5CocvkJj4+GUoTOFpdFf
a8ZMmbdqNRHVMvcvRl5xXJabK9I1MmxEoIqM10Td/uUPRgaO6jCM3XJbdTy/X5Da
SwBQlv/tMtZ/Js3k31yiDOTbfwClWhV4rryzLubj+/1+hEif+Gb9Y/8VtzeqDIn4
O455Cawq3FgQerYl2a1vZwqsEYNZ1QMKxbHmgEYAIUzt571wdP52/76h2d3BYdOm
PfrVCKJyLG2Odazt+LdcIrUN7bv/0ZF4g0WwLXNW+w/TzQFCiWTMab89Py5Pfu9G
aJX9gdhuhV391QfeQvOgcxHgchK5P88QxI1BopnSejbs82RlF2lm1vGpZslrwfNF
jhcUXB/uM3W6HBOGwSzgekL5WOYCc4VjlfVXFWuWMo3ja5s52k8bc8GaPA3MgCzl
KVSjoypz2SzFzendCPKfQ2/Y3lPIn4JpK9ux6+uV7CWwab/mi6cPUh+kkNMu5kqZ
VD8CQYQZ6yau5eNip7Oxm3hboKniIdym/8pqtfYx0NW3ua2zsU8OsGfl/gDsKwMS
mt8VQ/0huX+cF2q95uHlAA049QQU9hOmrqdPEK7BIct/Q2gtarvK2/xuHdjnyX/5
SqsvcE8VOF5HIu+rWL+vTQJZv0mrf8AU90cIdGmK39TTao3h8cWhBpx2QKz1zNJQ
qNHqwATmCgDxDiGW6JBCkbTnjE9Y7w5S5MNzWy1/biOul3JI/Zl/hz6Qtmgla7tQ
/z4hq1Tx8ZYuR3UXqpxF97Nz16L4Mg9/0OQoc85EC9e6Sf65O1iWVvu76tq+Yp1r
sgo3xPny/HC5zDQOzHk83Y9fa4QPOLpiJYFO4z5f6j0KTiYJ5jcpUH9XUOFkWgne
I09+/ENTTkgty/5IEAWoOoQVJheIC4FCzQ3bfraCWnKp1ekvd1PtrPNVS5ymdpEI
vchQVAEuwyIX2at38PdSV1KHBRxsVjypaDjq46lJXZY4ezk4+bz/xXDGqUlMrjbp
VWF9YRCfido0ACHaY0ZExpafD1dT/CGc9RajApaXqadeqEK5fj3bqzwnR7BbU4a/
iN19oFjF3aHIv/xYLzgH7PDaH14vw50qZCyVdtVXEVoxzK+tKauG+k+dFOmMwcr5
HPrFH0EyVXpZRjodF4shotL8+IQyuGCIoia9H8npxw5TCm3qEt9tUk7dFg9Houqm
gefGaEHISa/m68+j1QeEcFq9+KwyoGjFvtsmEGMV0ptLxhrs5mgptSTAqLKOkbFC
k/QL/6ILuKfnZIn+ktImC7cIFTFCwT7qCw6VL6QmIeKXxhSDVpSbPEBN+K3dHw5Y
MbAJoVFhV5CXUZVzFH++J2IBgxbJ5Fw0KsyiVAn64Xm6uGL/ti6Z6qYusMd+EP7h
NvbTIADEd6TNGYLzspAsyAlDTmlt5SWzGSBbrmg8Mhr5hhvorvlL7K3EOOa9aFQz
qoB1COmoNWxm7ZMHpq0ljInxnXksxOxxPnKWA5DSBM6nl8qtopneRuGCi0MKcPjL
HbHoJcP6SecGKsjAQuCQlqXIwpyyFCZXSDrfP8V+radJVsI0BmA+u8Ebwn06/Kg1
9CUnaYX2j9thSnEw1sNFLoMFHKdrtfYB5NB6FCPT/l6MzgWzZL48vQZq1ddEK7so
miICBtOmSC7+m2fB8/yXwsB2g35BjpFkZz7Ge3ew/dRo+CtuoXpkz+wAhdyRqkds
WxKZYZSPPTN0TT2aRbxUFG8bz5UVAxsP8wC8zbn6vo/rHX1L1GZ3H2/sK1f4jLGM
kP4OB4zz635Iz6KnIgYsQUEEdY5xg9d3b2z/jGLJtDIS/nUrMrquw4iYgld2+Z/Q
JChR/IlzBih60QeavB3pU7xaY0fzqAmsX58DeQZpRQ3heevZ5mSheCJn+ycXu4qS
rXr9fLyc3BctemhMYIugqnkWRsQt3TpHzqbQ0b8QFsyqs1bC5ojVb4d0ulqMuu3K
kqHye7RL/xolNchjYzQoMmgzzDfKSGKECO2GS4ly59ErEVPKljAwcVwv/w7ydrEs
Cng2WIOgvC0qOmxzFCZKjLNlw/+NFNn6NzwclHB5aRJ61FlhtYYKNWyy43vZr10P
7w6/VRsIpwqOYlpV7yeCks6IAA6DhZyjrfRmGQMd5BNk5p1pPuXLmzVtHat6ji/b
Xe0ePs+Txw8y+/V+63oHgPZe6z09zxEwAi7J82tmCz/C7ivaiP1h0uoIytZe0q4j
FUnnWz3dF3Qd34CaRY8AGfnL4tDJBNt7YDggEJN+8KO0xH/5KS4M1FjjZ9stHQic
sSiapWiEto/l2aSplOVrMT5yz8m/NF6ZxMo6+peESNU6nigdI92O/aVW4kA+DHKU
+s4ose+7vy9sj3HeOd05jX/zs7zB/X6V/bqh+PQuc9AsffhehFXxS5QHhC2MoGYe
QUNyNAmygkS6kXj5UmTtl97D3VAGLjkexK1EzaRWmCbMpKzDHeei/K4qEFxI+WcG
s1gOO2R7WC7pIVw52RMY44DL+XQcVr7r4rRENDNy03nNUGcFGl7kuad72AICJ3P5
jzQbVyRnpsd+zMqiLBSpMOBD5c09Mpu8TiQ4gDzZGVKR/u9k8aBm23ek0xT6Sj8A
wgb12zF6gNHY9HbvjDmrO390iwiy38KiPgalrffDQ2MJC4TAycrVOPldlohVIdJx
DjeFm7wcHknKgo2aM4sgMDCOhMV2MRp5r/BFaRzq474Qf4UfC4mw7wkzlFIz3qJV
TRUptbb/CDNEuVxBoth4Qe8oSiEfWEJjtlrjV7Gat2YNBeXa9YftEq+kddVDRbtc
7ZHTvHtIwbZ44NvoPSlnp9uOzWykrWHyeAaTRAQup+hSoKHJ/Sg8dF40DvRKAf+P
Ln4LJvNxIBv7BdKMWYJAiLgBC7zX56+X2DpzxWHTfgRLtzqpylwridZ5S66We5Ch
tfHCr8+Mny7KUmP7GKtZuOKU2N6/Tps4uqPgXA60P3CWQyS+V1Oc9yir44sXX5C0
Dk5zZhg68OSz76aViEriZ9ruguvl1YIkHSuR+5ipYPbKh8znIM9cnxdT8xA1Hym3
OZf6EcnbdXjhCr/P1JQcDXDtYSGwLSMZzQnCRnufrfCO5vCe0iRLJsvXsjrWweGu
3i32fbDhIJPjwOA2CN5wL/TBzgnn2EBHWWJOjw1oVJemuuzIcKl99Lmdb1fA8dcF
A7SKLTcobpRY51Sh1WafMRezmtgc2/To9XYCsQKnYEq112TppjNjSxmZvdfCNoa7
nHtQn048MwsWYYQ3hBLJKJx1itGxLVAhuaYPBYVfbkFv5r4B4zhY+TvjRe/yuJJA
YOvMZy5wvP4DsEZsa9YBJWNgfEQW3rPnUUNB6lcNBAflb9odzsHClpa4eDfgF7ht
7IiCippffXARaknVrL5wyElBO1VTBHRFQzxwhKCi7xd/q/zFVgCV2pflpEIHIU/f
HOaSD1TgTyp6OYleTWPQytVnYbUxM2tYHXvEr5mjy7Li9xuQ/qk96d7UqaJJZx/X
ik+/21+gw4duhxwlWK0iu4zcaJs5PIOw/HBfAEq9wZ7BZH9Gj/lXrbEnPQDnye7x
f4Cw/i2whrsad8e65UIfHcKFPUcylPkNqNPjutAnR32Bj3WdCrsPJClrbTBsD3HV
38HXwI7ucoZWIG7rmBo14Ow0F7Cm+13ur/9d3ry6gBX3U1LM+UFYhlbP3WpmNibG
iTkhIj70nnIuN6IpW9uYHdvPkm3oMj+iPXAJu9nnWqZe1cHIjJZoXVxM6xx5KgPp
a4PkgjfvUwohe5zbWSp022CO+I90GqZJITaFX0gckjcJG3LVrS3FHE5OhBCNbCr5
nlZuGwU4jC0bXm4I/9io9xjR+pBBTJp3zMH4G4UNAVwDLySDBjSQsQlukroy0CP7
jF3KKGAkSF0iB56dWNI71CiJVgzJKW12Tj1RIhVwGWvmYVx1wGpbXaVHkHsCV1LO
hNidPqpEWyNJ9OgZtbwiVahHq8ZXaa8Dd0YnC5nM/qPUvvtHKF/kwCRSoiEoyfPv
UEYyO+9iDAd1S4E+YxhsK5AiKr9J5HwdQlEFcE2kDOh+719LnWagA1az3wPaNyrY
LrOzS4D9nX1+7sCvqEd+R3ldepqoKMjsPda0FfpEACnzgM2M29lQ8V80ISEY9Jib
/OcvFK+Z5/I17PziNkW+C7np1lhxV+LbVuacrpNaq3+QIJpTs5PRWLbLBva9Pic8
4uZpnDwfipz1SxWmRmSJavcWoZE1pwcRFzkhKTqxTzqC2CU8RRQqXroA23FKAu3u
0RHnpSSlRfzyKB70sV/kxXcJIr4+Av/O7uTi/f/+mKdn6H/+lMOm8H8Alipq9xaA
9eLA0dS/m34o4hJYqfyaEe7SIQ5Rn4jb0fOW5dJxRZLpqSRG8ZwVSPFVJL8Nd5iq
+fhrvGVvpBiOuKg/5Loqse/WX4fDEyLpCv1W1rw19CeAvnxf7RbANdzY5S/7I3rA
19o2sKnyuY5JJ7/zLDq/VJQ00JYfOB8SaIvNRXpS3K+nSSPL/qBsS+QqRWBtoO6I
wEfO3L+cMC6UaxJ0i3RYHTuG0hDMEe5cgvLT4L65yc13hXfXrlqXlRt+YOLcet1T
vAq4kPw6HtWsy9PdP75WfWJZYwyLyJVz58kQfdffBQZ8glqZ+kNwyNvqdph9W4xv
CEktP6d6drKuxeOii+WOZmS3YkPkzVjBZPFkr8j+dVEa5daRmOusMz7pUbC1Muek
68o1XebsdEfDm8ztl1BNekqn5tpM1A5eLOHBRc4QwJOTxaWiYlOWlHNTT0q7NtCd
C5sXkgrKsfpDJWzmiN9iBhn3RWScR66Ph2kWSAxG4t/c1jKmMLjTz3HJfQt48wA2
H5j2pXybV6d5AIcnyF+6n4C3P3d7r4B2//Vt7p8mpADaEn9tNYtiTtO9Eg66q16M
fMgymw7P79P7hGifRbj9nOFMApDAAXqvk2Kp10yksGl5H7N/jWu8qIfnMBN/9a1w
UmvacW7P4PhWHaD8W9ay9u5MyYEQ5/zOoPr/LXDj7rrMpT8Ljrb7M/BqCsjaHS70
ZxGKQP7bcvGL7gYtfg8OHc3aUSh25rguyEEAcDMzusAdf56KfzHWyZ5ZUPvJyTvh
zrDhG5cQFr2BTibHeaSfzp5HEBHXxnr363PcnQPdeR2NdPuGg8+/6fvT51SVRRrv
dZK294gNEq7ZM6KRafpkXo3M1IBrr2eZqSgaF+0A+VZZwllJBDOZZ4jH2PqFoQWF
her3qqAJ3sisgduhWUQbDs7Tj3VcI9HLVFsQB9+WwMdSLbxz3O9yY6OOMjxnsbUY
5ewIw0LvMoVEagtpvl62zhza5HV9nC3hJQpL4j0/quzmIed0CnOvTlPW+Y5aeoBw
1IPgv+6PmWEWzBah2q1xcIhnLu47HaNfMZlvo881E2UTq/R8VA4bkipa+hoXBv2Z
NSr6GpMRFjWTFlpCwgXJcA+CTx/Z6Zuf2xgwI0fH6MiLXFNMoC9cAkjvXDmImW5G
Gj3LI+03Eur7zqYU1Xj/Vuig8jdO/j1vL4qXkKK/lmtAnR7PQCqzA8FjD9UmzNBO
c4VLJovtnbKS2TvPrTZGqbuo3WtxRmsSL3TigKbaO7Tl6iHKeBSCBUWKENyKe9fU
jm4r5QJw53LgEl8lJWq7IgNkdtXeNqDvbi1KxPUX/Sp7iYI1QKIMTCtRa99bCccK
nRt8r+8LrDOWvaT9a2ip61E3helzAXHf9dg7WkcqISIyt9zc+iUINnKkOTC2U9Lf
cnwUxVqRoWkBJM8EjM1vRcQIUyN9Egb5Y8w3uALqUBnkDxGGBdxfiWDstuPv8Grn
3vxDAZzYYtjrUMOkFRgu7oP+yEgf+NWPbs9uUVw2aDGMxOKeHNlx5soUU6Haqbks
2R5Yez5gT2gg4yCDRFzIsIy+sK+NxuxYvtm5qltu5JCZE0q5wmL1lLa4DMoqPQQM
cQWTtGsR6cJ3VCfaWbrxWOmMXJNFs2zLpnQgDhCWuw0+rZxXoVrxBDcMBPA0FkVo
xJC4VFhc97cfOwlGyzpQDvGJEAtVyc6Bc58FWwEBwXqSg/qizfz/LNWdthFSHruG
6YnefWNfRU8ZdWh8UegB6dNAkbDv0j1g1X82r6i9V8Xa1qBj6+x7dfsDpNkFPhuD
7v5YOBv+gnz5dMb2NdsuXlRndDwDsCzpsDzBtj5nyyQltvrUEIcG5tRGdYEcxsVx
ZOjj3LGQ/KKD9zHxiZLwxs0eDRFmUL8AwfeOlZgDkU4qEoTB/9QUJzw/sVbnFcpn
j/Jfw7kdJ3kNG9YzpazcpbQa/48pv//eVkGdQI22mIs44iETEnoe/mnX7PZ6t5Ne
ceE+LiaN4HsOgtt3LNBpzJgr7ckYtXfq9rDPDWsWBF0DgYgj6/wZrY+z6wyPP0uV
6SxyoF5Z/WvVSc+w3RRJYBJKsLp2AJaeKeNdPUvdlBRxHoG83oi9cZlkPYYvWTmq
ZAFfMoLV4ywm0JOzxf9RGOM5JVBP/LyJyQ11RzABkJ7zR9MaInxmuoLLA8ZqtRoe
97s+Q+hvVe1dAH1z+fdO+1n5HHnQFMB/8vOja+fIkAcCI1xiM9Fz5sOxLaVZkfQl
aNksJsDh6o8bdzBTsucnZ5maJjjgtMs8jqoIEQMMSLb4l3eyFDStInYl53wfqjeD
ITG+92Bqg+tyqFUlrfM7JpPWuTa9N0Ls4cVPpDcX5qBqlSWeyrvmHb9s7u4bhif3
MDbrEbXnmK7TjpP/lYJZ2j6H8J6fPu0aNPTWGmhLQHcZQL8Bffiyct+CJI/NTp5O
KbZLw+6I9mZGTgsNL1dj2iPmSvZGjaBPPMPenTjaayAEUN5R8Rbc6Mc15yFKNva2
5kcmn/rbDijpXLzdBLgT+pC2dTtp0WjCp1aVTgihSplxFhB+km7RwlVU7J/WMVip
MGjn7wcAdQ7PwguvzacsWoPbSyQWvfXUqRpxAOa/rZKLTKu8PPRVNVoslpP6y/dB
Tl3tPeBWw6r0cKrbu2NTSw7bkeS6E5R1CHvcozmUdovlo2wI7Nogm8PkRvigXKYu
1lEDSkQbq6Zt7boGJqohiC/Y966fLneUkP1bY9kBNl/XLS9ZDRAZx46Zh4RlZS0F
scNHctmrgKMwZG2gBtwT3FywG87vqflL0K5l296QVsaHD5YK2V/1vX/ukpL1MAXy
OS1gWy5j7Bfdz+O4LdyZ+Dxxd5kU/YUA9fxjIPD9wQ/jRgB7X2Nr3kGgrc0Kjvv3
3loy8HyFHHTeJgRVg218DLk6RX3onh1vKSXm/OdWZvdjw8+E4/jMi0Lv3KCABDnB
a76UH1tFqTHY6BcpKrVt2gORfrrPjXyYYIkwBQ59UofoO5YvizXvX3sX46C7tBSs
h+IacTdalUprr1GKv/k6q0KP3v4yjhcLWAEigWq7Nl4wskL0UYWG58dAxwEuza7m
PPYShxk0fiH+8vlMRZIs0SIsU0L655hZvdZN2PxBv21uW+p3BKgHpNrg08DPrb3X
zYT7/cD/QCQA6Kc2k69nzMPv6lSlJV6PpD0DZgNKnXeLn9+adZNkhX9H2Mdpgd9P
W3lmP7v8MJnJZYPfOlvQ2ZyM6rK6zJprZTL0LoTPKv+mLxhlIalYz6BlPr5+BHfu
JN+7y81rfdPPuc2tWr+X08dnyS4NG0ddIXPksbLpX+qAOXDLmg+sQdS6+RnuXVV8
AsEnwhu2UHmCckna8QttdWCseSjNY5dsWNv09ls/7otr/LR0BsKfmfjfgJkYhIST
rfjtbNsfxJ/Ky2Ys7F7MkQXAGS5NOnZ/AHsDnRLqEV/vK6yqh37Ng6y/7eWwLZw1
DhT/nHp+1bi+ntZU6uXl4CGvb80sEWp9zbzGcfEMhnoU7v5BRnydfW3wtoEQgNzg
STmz36QL0r96r/H0+gxzuYi6XJmMB4lQbu2HakWCnndQHeQEk5GT88cMIOaxoJIC
2SJnXoAWzdjduCAIAvOs+/nbjh2zf32cQm5wVh2XzYCkzZA9/iVLK7D9Hl/Ldo/m
XV7LhmnheMZ/KzgHgpOBkTIoZuDxfbJvQUaloKulSUZnMhPFkopSPDVhdKS3Jq8P
KLjEzfa0jb8vglhvnhqhIfe7QfQuXQ/mEDseCv8XXxMYpJ02tRhdTRASh4Qa8S8u
OiHBFsPdm9aTNtTbEAr0V0qKPyhlCZ64VpRfpXG3sVcPAbdcliUpKSjpuWDpaXQv
e7h5HIk/+o1lZZ6fvw7ry/nF3eDxIJuo7amihf5O49kg1NokcyvnXZAZae0R4Svi
X3GjMcWBQJ4ajNzGbfdPQ44G2rWRMcMVXfJREE9X0cYWGmyGsF5eZ5UYIjxmQ3Xp
MUOEaCTrz8wPXJ9tOQT4qKJ4Pi0a2nhk9gNW0rB5bN+V+rjaGjzEgsa1F7gEclQH
lPaxkhWxHtvSjSB448eCOGx0Hp93OYoYTYGt3hz0MbIXAV7GhYYxFU9XGbZA1UD4
NSymRtCUuK6/iGN9AWFaAXO/9lNghFHCf412ewX6Wd4PJC/lkPF8H9si0i0Rs0QK
OXN87WJFyfkkMtXoc1DVGIxJMYGh1QC9rAY7UMfRYy1/qcYdBGgLuuA69W50yMGs
uHNVZRx57VYqyKoJtEZlxb6ZOMTq/zYavRTt9cHDjgVxYqX/A6+xFgQ7IcPEWuth
KOSGYsrEfc4Qxa24JTUnJLFAOEJ4LPRx57n8NfS4t/lpxkoGrN3b8P8ePOnH/ri8
kvQrZI/xzkQHSDkpLdNMMlnW03Pp71ebdhuzhMpKuRIx5Yf3x5CmoxYokgy7jhMX
bbxXGBdpVkoWaf5wE2WFErgtF5RPzcHMurz9Kayhr4/GJaJZ1nBuUj5UXapEyd1s
avzeAo+xI/k9JLJkpOSRqhdgZCORT+ehPS+YpgGPtWD7L1ebfB+gfcz/1XDD8D18
fxg97W/1CGjvVKy2U2m/d7dt1trpKAbqH8njYxbr6DKsWT8FjY4HjeR/NoRrtBnG
7iJbPnraVSrW2dKtJBkyeu2Cx/3yklVkCEKysueB5HIXqLTCkyvDKL95kbf/Wu83
a0QRLYSpDyLYqhFEIl1g4gadwMxxuGX0AH9xqlWr4wPQcqzkphH4qkmz7ii1br/3
tFYrSXO0OvEi7sVbVwA02J8pOUm35p+d2Lz0YSiw2tlfJMzCpwHnzmMtpbhDbXz2
MtmIOVX5a8thtlVawJ6yVV6oy3zOGtctFVtjOeWKWL4s3wqX4YObWFYX4+wTryNn
3OqtMT5/E9addbFOwEasqq1x6/g0W1qPbipeEgSePI/orp20QLqMFrqRwVAEFa6Y
r5sHhTqsPsEz46KawyBpjVadXao1wvLF14TnqoFzsQ4BlXrtJxUCzyKCyvTLjLyl
wbRlAYAKwUYKDDq4c8QdVTYQoUo1rZC+FWHn0BZqWLy1Q45uCFBNgfKjrG0jEc14
tWcZ47pjdJRWTNE8OjfmjQ0G6K7N4F95m0bJuXHi3v+i6lcJTc72oTevT2vAYHzH
47bavXq5zhWSNQPr6cmKXCH03Rwxma/at9BHn3E40TwHsaO45XXBGWJEqwJhHBoS
PFfGNu8hG77pwXr+AoyI18/ubID7yUCxkymB5VYZfP5hHuLustP3ZsfoeM6Z8XlZ
25AA1VartWXH2XJwS7x8vQuEEZCcozcfoJFFb0Bs/XSzdfbuvW3LtyHA50GiH7bo
EoHSusLkqtqMMyCeV+xt3PF45pYdeVWGoH4zQnXgZ1X1bult7ERYvnS/g4oodJQC
vQ+aXG6vxp30axkPPuEkKIf7k25rL6VbIb4OEWDT+/CgPClgi24EonRXiD5+CkXy
OhaQzYzztVPgX0x5+vAnoqUZAhO1k+9Ac03mO7oyj/91QffdBo94LXbC+xc0AlrF
r4B9IEvgzJ4rHdvv9k1AxqoRGKjqzufP10YB2V62LuUf+nVZVQW4Lk7iAV6K/O7/
LwR1Y8wwGN6huYpbewws5XxVltG8fcsl+KCijxK5kf9QUwYmB4RkGRxeJoTuTLz5
OjX7Ry4cd0K0QE/GDk3O43ag9usQ0VdRMUsnMTGnszo20fT8Et+N/aWG4vbmparT
YuOHWWVXnZbgLsKqomcEDiGjmy2azMplvy7LR8187IQhL1XAj/ggEw9ZgX3WeE8C
aZbzjsjo0mzRXok7VnIFY0UQA0XA4hPHJ+hTNMI8ikPrhXDavlMBAEi01cHAPTcX
Xr7cxI5vrczMgZTmdEAuOOwNT178LhmYdrEnzzMUitoFuS9gp6qKcmji3msGEdmo
Kwxy5cir8uCptS7wIcDD2X7WN8wZKAbpqc7eWhHvl14aAOANMpRINwS5akxtvnIt
RMeKypajpPwGK8o0ZohKqVi3qv0dsOvtr+QEwi0gLmUEnDJRQZKtKWOhCsWELBzH
zcAyOQSLZxx5CW9jZIbMMv7BkUuiG7F0Ci2PPlasPXJZM/S3m3KR/zmI3Xwj581g
DzvydfMDWLNVn0Eb3C8sw82rsJAHOBKgG2Sl9cwzhZko2+4L1bEfl2x3nJTg/SPf
meZswJJLvscui+w5Ws7WeVfGoDAmC2QIKx97k5qNWfxzqGhGf3e3BfHkBLYv7YB/
ebXVKoZzw/dvnCuzk/qbCzfOkKRfoDEd6mdcAaqdClNjuJ+6esxqlSg2wFfiah84
X5KyVajyCi4aT85squ0PexTBaPX3hs5PGpU4SlajrLfkpUGspPmk5Y8oTTUzdrED
xFHDy8vtYFFb0+RqnrWCJ4ibov1+jlmUbf+c+SBIcO5AHopRGBVvOZwiwhMTdf2C
Iwmhgpz4bNJKArY6e0DhdwXZld6nbglIpbbi5WGKp6yQUqw6Lh4Rv3ai1Cg2bMyB
GktoKgcQAxIu1XPFxA1ip14Vjx6FQ1po5WEr3+1Bp1u56Ofvlj+Ml+/gGzD2Jfb5
y/9oFvjkH/KzNnhgyJm1C/9dXwEXcJjcGwy2GLODQcj3Lt4E+Dw9d+1+6Zedqt54
TqcwT8mRkb9ET3AhL1QIsLxpZp8jo8Jz+54UWTTWgpRcmMXDAOO6OyeQLYjQkQWb
aoZi7NJ1QTJBnLgkh48M9cqe22hpZH8Is6NjabzrhgExOcfwx4mF5KJ/isxrv0GR
33tn7gN2VfR5F/V5n6adOnKOchr6eeK0aeehnqadUXGecBraeeY1KuehnaaJB3CU
wvA9ND30Ov2WIwetMtHx2nkbAWU8As2Q0tkSbYdbk1ysEOeBGlHobeAWrnXeFJ7H
riwUx7u/Jc8ZxIQ1HzD5ptaoxw94FVIlEHA+p7CQ+jROTgyy34ZjqizvqAFPIxdp
LOwruOi+zfqNgQjba/Ppw9o3mNbhXDPObqSMXXw+aNEg7KtowITwD1yDavuw6EIu
4TxyHtW3PQWaEo2wfuh6MB7sAPR5v2nA8XuMIGwVDkMZ8bIp5ODJYmrZD6C9rdoQ
rnd7V72T2h+Ze5haxd+rrwws0hCtiunfPe2HEIO0xfJ9+bP5cQJc3a29vebZn2NF
lxKFhLZGArQlzdl0yPiZTek0xJBWxrg39dd2fHKHSUVUxQtLRmFXQ7G1UoWngEV5
ivVS+Hv/hBAgHx4hQtKP2MYtI1BN3+6NrfX231jQ4Vb89LjKvIaLqE6BnbwGzke9
CWJM55XAcoY69UtFlRUluBBJCgmgCDEVzz0W0JBNHC8B/CT38Vxi/VBv2rbOZqWk
K3JGNnnbMUYFv2fu9KIUN2tNgaKlCHY1vbXfSnT8fu2fr913qyAYz0nnpZsA9Pml
Kn/NeeWVJifIbAidYAdJhAZzsaerTJ/xWtl0dnNZPJf26pidLmamB5MyqQ0h0g5b
Azjk4UbTnxo1TOt6spQ1vvJ2H9QOr0FdkKJYKcVSSoU0VsumyB91cQoo0dbOvj6T
0KXeo5SX26FTUKPas/vqTpXelE+9vVsvd6/b8p3Cp0nZLKeaLpygf+gnQOs7f6cd
YNLnXmtt7PFPfaNidzfQN5a/6IGWGX83qdy7nB+L+ygKa8k/jfijB2DKWiirlhZW
O+uyYrMj5wE11h3r332tAFJD3uVIK78PvWX4u9D2XfNk2zt+lduHeIhoXJJ7INW6
1Oo3Ulf3Orfv02eA5MBf8fSu6/lmc2nCApFoY7Rs5wbLLjyabFkQYwXNMPpxmhQs
lFPOGwbSfw8rWjWZvOWnue83/AIAcxWLfuyfvc0a5e+9WMiqgLVEwDCogzgQuP7I
vzAP8DITAEaqCVChFUjdheG/+7QQJUBTeLGT2GO7PPyul0kULhv0ZIQuY8c/i8Rp
0hD8R1oGOcQ+CRjIdlPoEISsq5JhZg5p7zIz79Of3p94GUyhPgRRCb6b5bEkyEC7
oFqnKwMWMcFrAL/msUuAuLi4zudANd1r/9V2tnarY7iOtsY+1zPgydU80H5505NR
K5o+kON2aWiOXOZo8o4HCK6SEdJMxWUU0ZVswDOajp3qBqdDgUSP8OmdC9ilLB0K
dipJQ20N4Log++4W81+7uAvzYnrwXUH8WrJWwfRA+aVZFJiyL3GhxuEBU7Pl0PMV
IBtsdWJ1JKiXb7rJLQNKF0E+WIEbA+WX2LPcQPj7WSxoN5TkokiIVdF4Ml6iP61o
Hp5KLHZOS7drw8LNEdQ3ernP12k5phUcobAnB0mWnmSmQDqFSnJc0vEPdhwUe2Wg
wUmUr8U82gUJj0smvhfNgJ4OwxSldrjc2hBMHzL4D64PXsbuqRbnVi5zH1wME1lX
iPI+XvYg7JOaifgHaBVmZnlg163QprAmX4viPkVcJOy4Rq0EogujWkLlhYx292d4
fl22xUJdN/z4L00vOWz4BFmQ1yJ+3D9KB7iT8bXN6ufrIbk5CVvZ+e7nF6C8qB/q
fO0h1sj3muF+IXYG5/MCi3SIAi6J6ngaW21zUiF7u5BbfLWz4J1ZlVjwIbKfG3w/
Ol7q53jdV1DqjPTxxY4MOn8thknMxZ87DrnwNwXH4QLsyKIqzJanjKphWpO5a0rY
CKr/+keQO9RLxjbWbP61KVioIE7ID19AhyO8qbTqDWMjiqW2uWO/6YW9HeI1IZeE
wh679D//bDnvevtAozpwAJUtgIFqvjl9sjlmmzOAKQw6TxHs7wAz/h/D5aBci4IA
sNq2eWrbtm3btm3btm3bvbVt2+1rd/8hk0lcY6nSlxaXkapW92xxjKtQbslcpev9
/l3wkXoSFjHnY8PKBb8lebXkiLGrNsMzHmoh4kAlrNcqQbWG7fV0Z9RavoRCaqcD
lj7ESOlEKzY/kTxY5Wb/GMkiX75LscRUCL9RCwn/BHwc/jLZ43kR9hsOGxaU3FE7
BQN7Kyb2yqHtXHI6HCTfT5ddq0DDP0DYLXJ6dbfPHQLOxJLNTEClWnb7+t7sQ2jj
xO9LFi1Zl0XMdpBwywhvYAy/FV8vNsGEOCo50eineHg6Qa2PuuQhi39NXIrE+ZnH
QTe0Lw7v83vCXnqcbmWDjyiBnZp/+PXc1T+CF4h1dBB8WIIuLVHNxLPJJuvDgaLj
81XB1FPrhhvtUNwsIjvCBrdB2J+gXa4PXBctL1yLcYhpxtqMfDvvkA0Y71xtl3jl
EjWXREevidWBlk0U/n+s4welau81nXtAmLUqDffKCVLox33LHKqWjbSlKsJfR0q4
nIyQINka6pLWriKGH4ETEMNjcrTASrRytrJyKwsqe1D4zBzsTzuDSuWTvrgOFZN+
ENchyQOZG51gvdgXcxLVeskkeIvyBshEz1vY5nyG+DyjuJrFkGg2NyrJytutSzAq
8kem1weMmID10ht/nRc+LDozSjl48KtqLdLdKk/yl3HgAvhNLva6P/4FyV4xje3W
3BT8ejCu9JYH+h6BTNmUc4WAzhSfdqCSNf6/01Yt/i0+/2dnj/ufOa3nWl/nLd5t
PgFO/1X7/5a4HQiEpCyREdJyIzjXJ6fxip1udS4GCGztzUjklxd/F3h57AnKjQQK
0Ye7jxU9utdH9ZZK/ks7d2bYQ7mYKNo9oFnwLcrGJAzrP9StT1VPz3g0d4m9rk4a
mJTSEAur9vQRTp/aO4ylI+wbXRPmc1ZWWQLb4OPdsDt19lmGAiMgKqKmINURL4wX
bgS9mNaYKdbtb4YkLQurWqe5ghX8YZ5xdMoj9Y18OOEK/+CBV0iF2U/UFJqEi78J
Fv3FnW3wRC7hRT+Nj8ioXMMym85b/ALuL/oH60YAkvfvFCB+o6HbtFgkRYvOGgAz
0f3POBkegosjhkrdOBesBWujvSo3Gg20C6YUU/GcvifHQvpg+YmHf4oq/ILrupNk
IPSTYARbSOGQkeOpy+VPX7eXYfDoELsJq0kkfgYXW/6S1y7zQkkkJw1v8Gm+yYke
5RczP8pZAE3tEU8SJ5YbG51mBQh+7mAD7ItSQAYLRkxpzqnL/EXydMxlzxbo2iVK
XC47wTOiYJYKdflp0XciuKFypSaqt5XkOQVbLKnQsAa+L8k0zanlHgiezIP2h6HT
2fvQRch909VcSddT/N5+4yk1LOfWMpae5dMAr5tVqaKor6TdQs25SH2w/IQNoN4R
zklZLprwKY2D/JAUjzgigog9THPA9qUxe06aW758M8Cs7l2EQVNcLRNpbaW6j1Ar
X389lDv5OClQktSAMVeeuKrY+ke1iWQf9XG37U1vDVNcgw5tQ5XO8+KIGFxdcyOk
7l8NxyzBflUCnNQ9tsunum1NiO29FZO4dJeHl3eUBUbxKgW7nrCFoA3S0F44SmL/
2eBEBeIgIrwgxR4CSTUNcw02/9DLoe48OKe/ZceQ+C1cRO4RNmZ4uh5TJn1ZrNmv
6f1t86lXJRvAEB2WFsN9NejoUP3Tm1t4dRrQ48GZdJnlhm1J5E+U1gXXTfZ6u1X0
GZVQEX46n3YK/nEJ/trMB6D15+yl79mLI6NAUG2tnSnNlKFx5Lbj0iNYicZpB1Fa
4E0CnxWe+NSChTo0wtuLFqbF5N4Jor13fkIOplHu6VCmbkhFx2lWhjT0fK+8AlDM
tFgcLYxD9iwuSG+G0jIMnsaUvi+Nc908jkffm0XWgNmvktIS/2OTNBJwP6NfaeMB
tsFJ17BZpb48VlvA5JYlzeKjzvfEyXw4zl+FDpp6tlgNzAfsboVCiCFPF0e3Imcp
n8r4HOyqn+Adb7YpIozbQ5tD4ZyCFt8fy6PivIPkBYmd05hSSpUO34sVh4QWO8HC
LvTAmlmyKO0UsRRbaSDcBCQAk4XZvZxPfA9WtvRrWwT2jwwQNO+VAtTDQdHH7OrV
a9A01YLq+aDo6IdCoO/gP0C1H9v7u9/kibFAK07gqaa6Tgww5x1bMRfGD8B0q9mG
y5UtkZ6kh35e5Hfva6J78A2OOuEruXVfV+HV+rLhdLmI5wmhUNM72r6oV6OQ96q6
lWP3yXT3kD7k7HUI/4Y3PjHs0opKql3C/HOgu6/hxRm3O2t/V4HGbQIJ/bh5iLZm
iFdTCyMaEQ/Qw67UmytD7PpcQPCcNPE+vPnaeY0oEk2wOUOrj4EQqi/bQgQ63CP8
8d5ROjO4FlwPLjRUDTr6qbt8XSJoSDKT0dM7BBBOXkZpqUlYEhSzfu7IkAhZMEdL
zVCba2ksfCtmhhJ0euxZjfTIhDzblAe0CgbTCsVrTzrblMJVgH7w3RJpxT7WUD7W
+FEJDyp79UT8pKM0zd+DNf2hqQIcsCYs0n1Q075lb1KOWBhTPtbkmxzik/kVZZzW
y0h1Tllm6Mm+Gn+5PsZ3bYbfLcEaZVX9iDQbfNXtuEHP6cu4kfhAuvXJI2r89nH0
sMsC9F8h3+1Z/x5D1LHJ4oZ7II/TXfcpgaDE13vgA0vl84pw4ESYwEhTUGKDK/1F
eA2Wyo/Da1V4tbYPx9fYbmjS7yXBoGah/q8sh5RQmeioj1zzb8qV2KZ4J/0Ej2XO
hmDcaxan8nd3775IpCRP6ZjhSwjsDV3+IZF2DGaQF2GXi0TdJPmwDPeJI1jf73yz
FelOmjBebx+DSrt6DSdQrf1qktU/ytqvtza4obMgqReb4+5db0y/egfRw7iOHKWl
SpO6gd0NXwuiTU1U7lTBUGRk6p9o4m1NmcJnJ56mH+I/Px8uTwuXBX+eTt+JIdyd
3fVXyHC1o7h/nidLBwn2dd6gUbtqv9g7h/uGqtudPSaB+QPaZARf4QMN7YEjgxlw
Otc/PDhaTxXqXjp1fSmEr9JsMH1uDmq8L5CHTuocyIObW4UFdr9RyRJuXGgjq92I
Uox0NapE8wo/m0eEpqkAIkfl4AB6O+xGBjVDIlBQ0O525DCrXE6gRvGXOIZiQ96p
589JO1+y5/rVzqXxc7BJazxTNxTTPhzQIQXUUeja1W7GYdQof9pNBZCLcRVPEqbO
2qiPc0DkgFYPxhQUKm2vzi6GkiJFV5t1ng4k8Q1MPIL4AjKeu1EhUgdubbVUUHlN
0OII+OHngns0npsEm2jogObh4sBFAq3lyZA49zAes2jcmtHR+wlmhESeDJeG+Ht/
WDznJWmnMLVvGN71Fg9M/RYe6D7rfnCNTDz2BkTlj2bbKhxcfSXER0mJeO/kZYYK
U2ubU0UwKM+KUO9J8mHOLaUrlVMYZb6Ys1BBkdspsacnG4ExmUhFS1hemCKcEyiN
9kNC7XxdHc+PPSz0qt5CUyW+h6tlf4OSqWVP7eCv0o/FtbezRBSqH6dzoRSUxp1U
Y65V48F7dYlwW3d8FUuHKwCRydjk+lW/rl25RuOMAdKDCTOMsXmSjlI5OZkafn6c
57PrC1HriXqx5JBbYQ63WK0D91qYA/mUX7GhYEN57VvJQmmQKnl037LpqI/WDzlo
Jb9VlWaJy5NpoRjTlSBe3BqCcqBpKhvoTLMac5M35txDTP9oOiaRFiGMAD8f+Zis
m4H8lALtsDAIt2KUtK1tcU9wjYtKVdJ1qTKEaIPm3yh0X4MEAau918iOV5W4omwV
3N+IP9HayaBcj26Xp0GlHu2dpRWO7wTMgGapSQ//locYvJm6bb1+Zcsc749QMlcg
fp9u9Jsr/rhdm670zbX56Ff4p9i2E+3zuHZq/fuzZ2qU8P0lE8Bah+PwyMlfwuIh
Aunk9mcpvWokCGEzg9pVZcnL3he9F24ytfgnOn4zb5X61Gf7U+PDPmckr43nV68i
cIrG8cdvvUMV5AkeLSYXFBKCO4OvExbvdVGnjkRHkLFvjjojTDcMzvFuT4/VdNRY
kZYJmxunEzJ+tTf8F4xgBI50oGjAajazKrBNaHHSzdFQB1yW8YBPFasLEZ8cI3Qw
ylmV7FKRqQZX6YHQDT1WEXnz8IIuOv0mBiKwLskkKmxRiGt8dvzigCi9od3If8qq
eiPLcynOAUAig6pAzj4emGgrhwLpzMzEO7slG1hHPqS+PLhWA81o7iTLeKTLGmvq
Qg70AxYpAG3qGm/qQQ4UOBI1gjTDAh3OKw+SuEmAitaFDz9amyBPTi/hd4ghFngX
GePhcMLALMjcijMnx6aM/CzCOPrreGHwFGExFxmRlomXF8eVTwnsVfSRAWDP5jhi
OIlnRTlLWKlAHM0M/DEcKeQfQhej9pf0r92iTt+g+EQ+FKenTlcIIKEgC2menpW+
zCUtL8nOix4eVBQjHFTGJhxUHUPasZWIGtR5jDCu+5CJV3Z8R0xLyaSLBrjHiMST
dCMll2IIXys5ypB///+sWMSTRtOcJpdc0z9YXp0orHDvf/DAuonW0V3smSm9OPJS
sDhf3RRCKjq59k6W34zKrgvdPZTn2FclSuMlkKTzw1dUXsbpVkNWxuVgGBwLK2Tk
+8fB745LwXM+r9bGzRbyTGnwJSUZvYAobHqkJdLl+LUPEaOnnUrgRppj8d1MiRq9
FzCgYvXO7Vek0KNUsUPG80k4DxcjAxOf/592KYGjyZoj9bUvndeVeHr3S3uSJkVN
EI290EQop3FuSqAXzii3B/zcWXnuGtClLaEAheL91atx9XQA1LJaPvEKbwlf8kB8
AgjrUjeO7Jngb+yyqsldCG7exGXKBXjAjBZI9QdxsGEXF9aV99CsrWb1rDnJENWg
5d2ZcBC6gQrURTSgh4KKq2yIWecKUDBr9XL3Qc8yYlkoDloI+Clja9yJ58uK8ECn
ikzd7H5fQGU2seAxkxcy7TrWebfGOBZLvpLuH6XysKbatH6KtijmolbhI1PxUy9f
bdWtaWmpKzPTycmyo6HbVjdnvyDPVP2Tvh4PkLsW7//E6cl6xiZmZdTzPURM8uJ5
qVOd4gQ56EufXW+THIwQyKqBR0Xv7K8Zk42K0SGqFrmW/2UsYHQFFIIlau2kJif+
F2ZaQtSdULcYR+wrbMiM+cyXC8/D+OK4LHNUSYP36uW0QooXgnS5WI22LCUkyvU5
54g5HUlosZDRoMoNdBEZm68+ZX6oY4VmRoNQazldPc3ZXaPiceyw1Sm9d+PMq8j6
sQR7F7tDltUjyoi9ytacU7adIfJvbo+muC8BSI2cl03+7GAE8F+epqavQrxMaMUu
kn/zJO5IdayQXUz4femqqVcz5gb34CO2XLtfBSpY/hYQkO7Rze4qsAVMQXDE3MfZ
doceRUtxvXbWf0XLj31SjMZIXE7OHJc+VqWJnmVJ2ftQpEMN6jXXat0t6+vdj7m+
G/VVsN8rNgbcjQbwKpFohKeoXhFBWfcIkfu+2PeZss7zr7Mo6xVpkl/A2DNRqCrl
z6uR8k3YqEfWpsFm90dgmAUDqcfWqV0J17RQqKdde+UzPF8iwgjHPDZgNeZ8HQ3X
UnDrNW2xP8nfcWYGfjr/6Bk3abbXcaOW2Al09+WA9liVMpFVzO3gJtKT/GTOfcn1
CX58V3aQ++WcNckUintdCneFu/Cx33GwhSIb+usanKzEkQ45OvbsZDzxQz9u1eJ3
9P2yrZUI19U52M1yTJjGII0W/2t/HUzC1SpVKKUvYYL7frRcBXoI3oudZsy7FfNa
qjwSRQhshqRG1eeghqf4kSJNghvCzo8KGSvyDTyQkZvyhbUS5lPgmKqM2DmKgCo9
dbOCJcFO+xLQhApIEY9gUQU+0obI/qH8kr5Yky6Isp8bfcvqhFMN4vioDW/2IdpV
3ahEkhjHCCeUpgsKoVb5JCdihw84S0YnKpz+V8vyW+vGgrVcmNAjJUuWyNnHfHLk
l6KohBeQ7A8LqL9kXSpIFIOYH8dIzxp/QgJ2Yx0wceW8VamFymiKUioObv+6w1oF
D695XbUWH3lQkBZqF3DcocUww9tap/LC6wjgyflONFQirzjXEeFxOY5ShTNLXyrF
gfVNi889dnn9hjpNB7+JXFXm8skac9OYjZLT0tB0x788ZBz+J5HRy4Rfbs1r5Pq5
hR/hHSQIxpedusm7HnQsLF7wQfBLeSrUsL7c9bOotvWoAh1/HCMdXDMrVA0gZ8JH
kjTrhC5HMQ8eUFqwn4B8o4o71g8BIWIL+2i641A1pMcZWlBSV+1qVulGathfgzDb
729ddYpkXXCTXwofK5DjdjO0lIloX94SLAmu7u+m7kgiwfRfqcberHZMLEhPanVS
4r4Hw5eeK/bM4uTmyKESEwEAuZNfBqtSEqRrtnGW1GWmyxuhLyuiODHDUpRx04Hx
O+X8iPklEyiA1JUjm79bt2VzETShCp/T4xzUdNhc3y8928nNQD5f+vuQ2sEcjwGo
Gao/RQsXlfMZUEGrh3k5oPpeRiDiOaKO/vCrZBgbp3mlk04P+dAvVWgKc1gLc7ZK
A20qOUU5HmY8hQwRl99w0siD+ha90+4bexfF21TynXVf6/NY2RNTwzQtKOk4xiak
AoVgpdQHszUBdJO6gY1WZtLQvUQyg4QpRaiZsyC8rbz/+O884xv8vvJziLMYz2VG
TRPoVbCI+5VgRSRA9cxbRwOH3mFdt5vz985nlRSbp4Pj7yMdsIuG59j+2yQy9oK0
BWL2il/VkrP6172lCcfK+BsJ/ezQiJGCrg8v6TsV5L5lZEgKnhLiIcqsW8CCCCu0
fnmu/fvAh88R3vDSyGXlJwKfPUx/AEvqr9mK0oSv1NPlSG8vsovoXDKjFedvahU/
Eja158X9QrXsfjJeieBEMsb6BuCep4sVzzuSRRAHET5lESTU9SmTobyfz2NU7Q4z
YymapcrSXRvMrzU70s5HKnXzCT1CbtvXnLmIjmubwjmsc1EyDRKodm1JOZi5EBjE
UshdjSjFSVQ+9xSoFi5/AZh5OdoE17okMUksIypco9peUnLzM+3/CpbvEfaL9ZXV
ohodbIjoyBT9l5hq/kjxSgCcxlfMDlaz7VrW351HzVj2wfmSBzYwEzzAwqL5euut
PcZyvxIyo+3N0las4CufWP7vBe+NKCvCQZ4FgrNbg2wDbVHcMY2qMT5V2d7P+/cQ
DlShD15mMw/9YnSGSRzDdt4jSWWda9xfW8pEYBPciC/HLp7JSehC55Bz8kDc1Hp6
ig6r51XWHRYFnpFBMw9YavJR340t3c5uz1a8TL1Fuidfec1aXWtdRVpbhi4qq/mm
eE05RnrOLD2Nfi1nEiNjz2jGMXlY4cxNyrbSfEX2ENAeBzoZ8pm/+jpRn+OOdk6G
eSrPkwxmJYGSdujP2Sry539mLE8tFVpD5ZOgTDNPSy+7DA3V4gbS6sO1QmxStpsa
bw7fMhsCV5Mnpbb/cnOt8rxfZ1+RIrnkFqsCseY5C1FQWE4ca093nfx7553oLkV4
tBbb7TL6VrfWgqAJQB2GaxSadRHAvyV92fJkk/m89K+lWlOkqt+3XdUcXh5SjO4F
M4YPinoUPBzvlkFeKDky4JDrd05xR8SJ6F/EnZ6zVP3ydIH8U9Ap6lu1rtvB/ZuB
DmmaHtSRbB8ktulIMsj6UmR5MkNUUB/fjntlbeuNe32y4yjLcOhob6iIQjrpuWVl
GsbvYzV5nZYCU759gonulhgQY17m29qQGi5uN8OwI3qV0fZI+fxlqYo6gyMVUshO
xrTGxEUJr6SAoyHYwjI1JRhibROcZyzJyF/ij058K8RzRiuTk0fGcF6wLdYU71E1
paDWTHfIQ7a/KGLDcGAN/6902ITl36Rl1QKtFBKovSrPMxCJAk/Kshl4tuxYNtQD
uRwFmXb+6Cep3bGMgbP/DPm6IkM7qIVbjpzmDcd7Ko0CrJv646tCphA56jneCpRC
RSVbCUbpILdOA1tnMd+vtZy10XNKB9snz+MGXdquHGOCBq5V7ODqKDHLGz/925kd
O6HQPw3llcMLNdjfsKiaslD57M7Y19s2NmjUTnW9f/4h+bPAl5QIhLtHBjUq4Qtw
fPI4ovPs07NFptDm5clXgp/R893tn8I5cOtheTTMAZwPdjU+Bux0NO4m3rvT1lOY
Xo9l+lk02WgsH5WVCZ9vvOZw5N9FXlU7bl+Oszi8N9II8c/MBmWtIDFk3MukdgQI
UzXPIUpXuYGtLlysiRgq+1s5drQ0I95VDA8Us5uqzlzNqK4ZDJ5CBLegu6fPR3oI
caBjtjuRoU60+USiC/CoSVvcpmDz7SFTjng4LYkJqD0/rAnnUVYmyfr3NSUiUXOf
zzX8oNabjUgxCUhtVmsw2a0HvWzsESOH06o20IToGxL8l76sNyaO0kz/Saog2P+0
TfqHOxGNzWXTax5XpX19qAu97D7C6IHJN+RAfFfeqou9qpQYuTWCxlIkoupJmxfx
ZYJboqtsMgdHhaOCKSEhZV20QhTdlpiF4+rg9VnlxZw99nNyYvQUt9omhodSCXPZ
L0wmb0Uak2PmKqaLjydnhK2K5ExB3TeodXJM+iLi7BuX8OTRWIFCeycLl2JpKa/5
mSay0srObTlDf2ixI688bhgqFxqCsteYcm2FI7mxQz7EKU2Jhnq76ebOsMc9wIT6
Q5qsJ4+HAyLzG7H6CcdtAAUoqa6dNAIX3jrboslC5s9YG9dkjEbB2EIcAWA+LpCy
+XDIxzN2Evja7NUAHzPPFEEhcWXGQI9+JXzxEKdC70xQ/0kR14ljpGtqiTfQgYkk
ORg1JIOTmkbmznJp2WLjEipezN4DeZ28Ixn92vs82pmn8SWStcCIsRb6PE7m1q7h
8BJvOONrpE2xQ6GXcEHcrmuQ1hgz40ARAgvAjqYARavZxAZ7zqFwmlb9Iucilp03
1ddDTwZ05vdvHa0/YM67Cm/wwzkQEcsZ7cbIGKxsKbY232innrcfd9dRYwvmdFI9
ptIHX0LkzFG1uHpJUR7wNx1sPdU1Pu/6srC1y0kSuzxyCr4uX1nrIXVDqqbjl4In
kdjYTfH6xgU1tnspqb7LMBLFqhQS+LgvCUZqw6iq0jMimhEdgeiTeyOnrpKEBsIu
Cx0L8ecaSPc35bXiFgyGYNwRjmFxU22eos4+/x/JQCbulu3oar64uwWS3p7ML10d
glkThyqL29QEQ15L69LOAs0ClYvwd1GtLSVGXORlDiaQb2rXrFyaXHFTvl8s5+6j
CVb/oTpLKObY3Fo64b2p1bHkfDOPdmDGcX8pX+un81J7E5gxqZ3bS3VnWo/8flL5
e2lwqm5EJfXQNSyV2wpooLE3ItCgBPWE5R9ej/9Z/D+f1S84/3BDNB0VhbO9TNL3
8Ok+65P0GL0m1h+pdA/4Z9W8yPMihjyui099JLJpB9JN2SVfVUuD6w/J/eiyGito
9YmoGx0xxI9py4CRRt+xAmomb/HswTVodCG4ECyaigwgHaBTMDlsV2tFTKnXM+9U
rDa44ewyHrF7/N84XylcnQdTLlzsYrcjVy5WE1bkC1J1rnaQub0YpvpBrTDlENbP
laLYbSVrEGenqg0iIza+CT91AquFfNtx98lYzKbo00gNAH0Lltp0roo3v9RVcrJz
BcHGQg8yT/JSxnKaxIy0TyveOoFcZWR6mqVcwUp+lIbj0eMiElNPv6eBPtpStb1p
LviS4Sz1pQlUxdCG2yPeuc3U10gF5mxAuThLA0uoX0q7YtkMTOvPcEXXRs29YFdJ
0Fa83QjzADudrwkoeMQyFc8nzk6J2AUy3uV47s4rkVL+i+0Eh+2JyE8kL3Gj0qfO
tb+XsDJlr2CWy6017VYMfPvrBmwaJIbzetNFCVlAxO1ayYRH3+OZyfj9s2+rFkyh
pmCKRHU2g7TJzYVsiOwMMcJlZj6dz/GyeC8v4phnaAYyRv8BIIN9T7JLhTEmyAVN
O6iVPOEW3Yg7wdDHJ2MPvluQWII5aNmjTugkBYR6GsPCIiNQWZs6ZBZ+SFYTzLfe
L4S90Ig55Rr1ZQZkF8xinOoJbePZVwNV3PjFBl3smzZA0zhuwzhamrYM4m0harLT
f45fCJ/+lgAX0CwGfZo27TAZzOqtJNuDkmzOGJ0SHDBOTEdV6crvUH95hcjRLv10
2AZyKBL6eQZELsbkHqRdlQ11MubE5MVCgxs5HrfIzdFtmexPsOLckaaQbuaM4kpD
h1eyTjBLn2ETxk9e71B1ZRrLXuYytefIy9a9fjC6ZCpcypjVCUNbVE2Y7aIhj3Sq
2VSaPg6twayIm61tuRTdK25pjbXNTJKCX5baX6dm3b0io3N/skhgIFzVY99S/knW
Oqoj2zNBRRb7TK7SZ0NBemqtmuubrcH8yppGUJ7NMH2iKKVdTHloBwiQUYEje25z
nPJ8TxxOTV3wd2JajQeWve/Pb/YrcV4COG/pzyVM8dTeDNnOc/43BU130mRjVatd
sW0a6FpdhCPShyW+OtRx7f3aJf6qh7/L4W7vDYFkN80hVAuhhTgrXUuduRWiTS8w
hZZ+4nLYmlrYMIFJpqLEWyNX9shDZmfo3RyQ5kfrdV1dazqlsCvkOL0+SVLWELWq
Gbz8f/x3YdBKOlTEA5Z9MlndKcI8UUgXXZg3oLao7RtMQfR5H8gMB3niLj0ioXNI
rP8Zg9i3/8fvzL2eanbwiv82bRh4ktlkWQlbfKM33QkcJUCvqThMxY3FIBnaWqUE
hh9/6kWNMNIhjTMsfXQwI5Dnb0WBnIiOmSevPKnJzWe8ckm7kAVSuG8vcaldIAsq
xy6inbCABLiKFXL9NueeEjW5vGrLgjACtocbj0sTap6SrGSt205lO63cbnuKC5fC
jKIOkqPlqIEXDUm3renmiPF2w5q9WZGsXpB6uwPrj8DnI+F96tJeOYu6rEw7O0LJ
62IofRqK1iWjAR/vSg5w2BMpMxWDRukRFDJ2lPRXaVU4wY9sPpRtJE2vte/wPfVa
N076+UpbdMMQAzNmcvZXEb3TDDg0ENhB9hrxMedHGNL3BDrJyft+4lj9QvpzRRVc
QAssrJWD8n89+rV4/rN3mzRSMOt8c/0NaPlvoKHY76j0b3+1bUvjb8Bg9K+Bs5m7
P+JcpZDK9ZyPfEDqYhlOHvPCB2UM2QGCfytv+92O2eX3nR6y/37nfddJEZj+hsfd
LP1FP2beiP4Rjl3YIWmycYGOfc8c/q4N3/slFxqc0sAUkvhMxKKePSSF1ACR7pIa
1rNyVkSbhyOdpXBmc3KVbs1vWIQa/7P0kZf3er/YjsOy/Um3xBeH2iJfHDJyb6Os
W+vCsg+F68W1jQjMhQhTbJ6i50SiDqyKbFVRTw6lEKw9Yfx53aVrt+/N//k057hs
t4Tdu86OkLA93UW4Nyy0ZK3mbe/6bA8RcqIhfQ8EUpIZF8iQIbHRDlRlz29CP777
TvBGJggVsE2PsSZmKQ3h2mPRsDV3vIsZMUfmgUQroxbSceERWzSDRFcccG5CKIce
Y9Kvw9W684ulp9jeWbJHBeegLVfrVjKoaRiiveZUr6E6ZmIzn13HEXEuA55Vu6zt
oN86n+FqK1/Ex7nH49uyDzg/g5w4jwhkqNDxWRDxx7qfbJI5gd4vURKfg76ga6jB
407a7uyl5mDAIQlwgPw8B3gn3x4UcXLa0zsxiLGtvBbgwV+yt9dUSE8vXOxNAOsr
c00zTzSvfRYWDaIryQ9DXfoSs1MFGX6nBxCqASdA3ZO4MmbfzsvhnrlM2IMGs9eu
tM/uUBpycao+B9U45WJNWXWdCFqvSJV+VnWlrXdZvpQLl8DMn2Q+yXqF5G+Q/Nu2
Pygs0F8vdOUMMQ0A+fTCLpBh0hVkKrQsVeLjQ6GMbhP+gImkFQNYSXUhvPv6HsUj
tMjq8lYjKPeSe8OWuBDKCPpcXN8uDY9kcyiN7ICcqYsl0yMmYpGn8gGban3ddfZq
5P+c9CZrAQXdzNBsB0e3BbkRsCYnKWoLhG707T6nYP7Z/vrucfJz2Z85wzKCWxK3
GnB4vOdYyABFQlFrzHhKRKbaOGACYVle0qGo9nHr2oqe7zZfRLCmC2quIhkH5Zn1
m4sCzi0GBrsFIOD+pbqcDVwX94OiOfjxiOKA9+FhuCHLfPo+7jZ3181SVzglwBRq
RTHuGt2ixFt+mQEpzPaCt8l3pgS6GoEHUQqv9mTGieUroZ9fMIkGxmlPVjKjB045
qEyvhkI01LY8q2TMBg/lZykhbvpscKdazW5GNSPG+ZwlLD8bKkkJ9yeWnjR4BNi2
G7D9+2f0heH2pPTtitm+tdyCWj51+0xuKyC4pk+QxxBjtHAPX9Wxpww+/Yf8+Q5e
s3zH/Qvzm/wX+JRWGfBORz3zGoSOErOL2/TBj9iCoo1Yo5KG3pa7+GzrxKd3bMkG
jNm4rn3lzvpayqq3XKZRHeynJULshGLqneOfbmeA4dGk9ZCYTtdnT5CP0eXE06zu
bTdMDVbaroCQIbaN31rkbFfIchuP++Xamt6iS78GmOTRKoqcVv0SSWijefP45/GO
OB/vkZAddzBdvEsHnQsB2xICZ4WP12HsqIucmQp79Z63VzJbtHRh5U+8ykKuSU5T
eNF04pmE98zM6BEAXTqZK6l4Fvk93CckRv3GMsh9tSuGzGXikYZdvMtHh/z+FFYb
twNkCsLZ9B8OUtUMYke5yb9SA5/xtWj5QLUWXW4dWlllGc0QjKgVE6lOfpT/JlqX
da8ZXRlPdbzrYE1xjRh14n7EjKIg29Vmr08+YGwIQMFQZDGnpejNSmiwHJ3pYrBh
07v9h0RLK4VRlMjTvNmkyisJCaSqGXnoQ8EfBWGevACAvJ6IqlCr8atwo0EsF+KZ
ylFvi8rnkf/OrGqaNDVh+pS+nW/guhUbjmDu0GmiPRox0BlTYScw0uBNqMSnXxjx
WojCPOoCI9BhRGEg0WnOrFEiuajBy+TXNbyDX/HIsZaMagHKiGSKrUB2EZbJ2mH1
Q8Xc9q6miRylPhA2U1D61r+onROpKpDA5g+v7+EEPfbSK4mq0Sgmpy1cn6QzA+Mu
7Mgixp4iALZ6ufoMig/TJHEwR2EZ6sKl81Mogq55zgAmavt5Oz/xV+WMMws62ZJg
X8A6nPiZt5oWyrfHynMTnaaYws1NVxhk7V5rG8/9tByeRwXtvutkLVtu7imnzj8n
IjQfoAgeK9fW87hderk1HjojGXp4tvbeiZuLUzpwwp/xf6/Gmo2R9bslMt1I/3Hc
H8BykOUf9X5oQp86B6UGE7cI5xe5wCp20mNsoLgCaZ2Jx6TV+7UcxQP3/+q9ICfl
4guVlyup0U5pSopHbNfaUKMzrcRAtqD/C1v2UNoegs7CqeZmK8R1hqUCC8ML72JH
BR3caQJdQ8TxogExT9yF7ovEyc0fXLGP5b0t5clgIyNkVzorIG+GXlCYFO4wIMBj
18kGZnkGpcqk1YOdk9/LLejncrjPw8O/JbjvSO8kcLjkxmiPTDnOgGzA8iK49IX2
FonzH3OSWbTOuAYMOHs7yz8UNx2ZnFfd90aeo+9nIaMg7lkR8+QdE3NdSEnsBqUf
ZG9HEl9B3ShOwT4+8ymmiUWJ8gUXnSsrYzI+jPtPmEvBTvElKlI20aWuvdcKkRG/
8+zufhu9q6F6YPDNxPaJSdGQerOn7VRlScj8TId/fR4H1SodwNtqH9GK3nFTrvfj
pSCFW5OPKmhQYt57T2d0jbvR4JZyn21BoNjtD7lDJn3o2gg609yFS06CfXezPXwh
E1xY1z2BlYzlBbHhaCoCSjHcERGd7vq8W7a9EdiS4vzdXIVHdgX7U0OKA70Si89f
n5QYK5gSk0IvitVF6LcaGh7tcpyiqkzbXZmk1xGOF0au1MnDhqaQJSdjjGY2+Xi9
VrNjz/ApkB1oH0Sjre1IuLd6yFE816WixusoyLI/4jxfrKyzRPMYETKSvbiAYiSg
mVf+G9R6/uvj4rShN8rUDCnZJcy+VX/+wcfXwboFW9jbWzlp2TWxFMGYFIIdlNeG
FLAAbpRs3OXe/0cL8esBwpeT5wvExmlvXlbw57xlW9Dru8lfALPI/TFgzg6VT7bd
CCP/5l4RDGTFZxaY64V2qt6evqft/yeQRqOZ2agFgTUYo4ILclc45wDVAMZd/MKN
3uvxZDQnckDC4W5E5cF0x68ppBI8Mo2+jwEYFXII0nez7zHmdI9Yg0rzsHuHkCr/
OQRBdjufriAk+ss7hJoOTLjzBGzZ1Zr2gOI6VvJ3ksvf64sdKOlOC5NUfwJ3ipN5
wg4rWbj+cVA+orYAkKKZLqK8WXjbIjt6rCwFypp/olL8rn9c718ww5gmbB+J4ZRa
VkG29pKZrlDo9tJ5nidDVwdi0M0GsUuTrN0yOMMnWyECcH9GQg0rJyzoi+ckL+iV
PKgD74N2V3PunZ4r3PHMglUDFKvM5/ixVXF/p+gE1N2OL5uQyIoXy4xrO32HPoyp
8zHD2fC2Flcxk15FMTM/UfMKS6WZ1dg1Wmw72W4OUdkDdqBf28fn5xdwIN6zDcXT
eupLBm/tyfgtzTC36rfwCWs1FXBw8xV1JELml9BOCBjPplxKFnkjzP477Ue88f33
ZtchkvO6v7r0J49f/WqYs44h7CQbKVr1/sXeCM/haUT6ie9fmJDb5Mch/N4UmZC7
+PT2TzakNz6ZVoAOBWAZMfd2Hc31Ddt7gGYh9WprMHQSjm7xlrFjz5YsvtfpqVRX
osef/ZbiRe9MQ3ZF8JkvvN9TFeNuG8OrIWqpxBrZKwyZVelj+AjisxAyuSTNX0w8
no7D0FY5YUZIWSIw+nvQ48+XJtki1ZInQynpdn/5AwwJ2UUk9QCsAqFGm1Zd5ibV
QG1fVJBHEOdBmQTOQ41IC70yXFFT99S9Nm1KMXp0npaSdDstmxlmQdc8egjUwBW+
7ihZ1LCDRoUI079EVd8fHsJdO+mhkEaDwaNYBC/NTHqnqNJoWTvusu8MKlua3ZH9
TXLxMR+5SgdROiCkQGyM54XZpw9qi3SYtKxe3VAsBHHRKFiv6UZk8Pm6Ke2hhAYy
ELIEzU2G7no6jVRNdOGxQkFD2kBvUpwVKCbk68lFJLn0PdB2t2qp7CVulba0bcBA
v4feqIotdghbr1FLgqzNfwkgeZXlUazBS55rSco2TieKQWEE7mZ3dceEGuvLTRUB
WqfJ1PwFSlMNdbqf2Opu/jvBf8pU4KLnpjam3EVXP9+62hYiy3C7maI5zOYK0c/r
SFAwTCMs4J25zjTI7kUVs8kdMgb6tHh419paAhwYM19lmNNol0D6Bm+SiSMhVvU4
+NuDWsQ7xPom6GlPiwTx8+8dWfFD5c4M9QmDqiasbz5oJ2tjjQjO6wCGr9JUGPtH
wcNhBGXA0egeHTFpsjOfU8gA4sTVd4rDi4iTfyP5MGzHBFF2nIIqdY/40uvGejj/
zILrRquzCk5iFY01Ik8Lwj+Dy0ybqbImSaXys/hwYpSrSqUIqsJ4MorO4VvZ0aBj
4rDrAeyckpTzxfU4rMZi8CQvDamW6rePZ+n0Ymy1lUjQTZZRBy60YaFYFZKGdtMk
ss7cTyTG00f4IXXH/sm9BmQhnylHIuGriNADBlWp/X/+j37UPFApS/exgaiOd4at
ZPhTCswRTJ3SZmTA0yHoZpLBuKQwgO4dljIWLpXQkFQ2hhBMcHSEdJqy07DgoFcd
J+C/dK7PYqRaXVo1aUyxaL2uyroFsZ99NjPW6OUnwhJfXm5eVB8N93PtGR74tdyL
lnQNQX+T/b9qnY/tC4y1oyNQE1ZJ3wfBPUY5kTHBT3stTZFRFxP4ZDE5tXOl5cGF
s6gitRkKdJ7rh1KKJoToSKchq8AUXcenHSsgTNJHOr1VIYcOW1j5vUbgCI0lzBYU
u2dfLK2g5q11jwVglrVT4hT/4+vSgIXSCXjS4/6bid0WUNUbXYxMRX4BqmVb+gFe
Lp15JsIEx9PlM2xRfLb3GYqJxI8zzwLGvFuCqI6Zo4ndEY65p6GZp8cprgpj2vR3
hPLQrjPlq8Zcn29Z1nvh/eQI7mZisgt7BPcJ36J8ipZQ+cpxrmxFT96z9430fUgC
8NOzwSDEe7GiX91J3P7x7eEeb3thCfAJQT0QZzovLhGT9EyQAzh7TGtFoXRyoHxh
uWhk9YtmIoh1RaB/o0X4eQphkOeIBnlPlrtOcVZhB+5yIBDDHg8o2KWIH6QY/KdV
0MCO83YVmIIgoyK6YC9WkBxC2iauVVK1Uogds2UdYW5ERDPFgXwIqWD8MdrCKI/q
uQwM/f+pF1uO3kMb6sjpZ45DgeL40tT2q6zrR/1Kms+dY9AHiXTPj9EPX0pMo3fa
idc8c00R9ORrHjuNeymEmmgNwnQpMYDwLGn06lYwontCjKwwMWTo/NTm0aNA5HvE
HU3k3rWyXbWarQgv5YGV4NhkXNVpyqw/cZGxpSVkfai4hSTxWTDP8Zq5FoybiaVq
zkoRUOaHR1MvuGSPgAnSIpo/rWPyKvz9Urinexa/C1xfX2PfB1S3edfle/61NGnv
/nz9nsf0/n3WaHa57qQdwBTATiAsnTpnAdAX0bs7nQ9YIX/m+YDu44OWHzxGmyz0
ojL4GUlFNpp+91KK7g9zmao15c0uQtF7eH4REKEEEUV6ekJ856y7uvXr7Q5oJGDn
jL31Ks4nW9uc3dp0DSTaA7MQrAAkkD6wOKDYkHHW9BE6wIRSSrL63zr9D36/KUSP
9IRRgXOOTianJnr+FYELXmVYR8nmkw08mDQ0/9TzTSzBAw5Ual8ev7HDCxI0LQCd
zt7E+DZJzYclLtzPxvjdKeiJEZzgWQyVhkU0iL7Kpg1Hcl5+XYBoJX1O6upGjPnn
58WNw9cGTxD2BzLXik7ID1tbNGlxOzS4imy34GPXleOwAEDoB9XcsQu1nYMvoqyD
FiyOlL1x8qY9R2EEjQHVJ2H4L+7SLMPDbwvMkJzc3/ojnaWdn5/JfzT//aH8ldbW
EPefL7x3SVZHNi2uv3cRJjXIBlOz8UU2nIS/26GnLomDZQzdu3TdJ2gexQgZ3iL8
Nnit7fFwZxilAnM8nFz9TMz7Dez7Pp6tzmCU1TACu97OOA1gnvQL8HL6P7OUcQTw
JkcxxmjYus4m8vB6Bu2QSMlQpbtqaAQHGl2R/vbBGoErOvK6d6N14uny7OLh76CB
6JLn2ShpMlsro4lQXAjqqn6TIB8bhqmjlVZ6o7vALGLFTycaqtZDFZhroUggtLTi
iJNdStigX0Q/7Wvytof+Vm7o3vm+1wKj8mWADve0hJA8EnUoagrHJZGcMfVXPi1a
rF8LmjGOyNsDv/NEvPWQ1eondejMHY/owx4rQK4KD3kxeGIa04OQHPScQ3k1ZJc4
d1JXkqiaM4PVjm8gHoymjGhjT4kWFK/grdlA3t5NJR/i/qPGx2fWnsCHeqk9P3V2
/qYCxSLOg5ViVkFQ4yQIsWTWoV8PKsmL2XcxIrK0HEANRZypdLngn7zR390bLSxU
1SQD10ilIC2x320B/44/EZTomZAUxOmM1D7vpIaRGaQ8eh1zqSzpnlKEcixLlHpH
thWzA8I7hMesqhLHS9DNMIsRILNa2G8VXIWUBzH8OcmVRaBdSzurYGrmGbck4yGR
lrqPaHVin9mKSrOVv6GkGBkbkJt81uM8fMaLhIk/C0OW4EgUF4UUe300IsNYgB0e
8mPm2HsGHKumucYCEJ7q5ZSgSCxFSelnJ0QZccKCwdKOiW2AWKsdIqSTvr8TAsu6
DAD49npoV04CGthQSFBw+vKYMLl50RkfbAfKE5QrmujUKkkbesz3lM9IdcFIKTWt
Uow+zgBlZW8q8e+CyhqUsl9//HQhPOZ1aYifWrL07Pyl9bP2b1E9fIbn90srk807
01ojlnR7vZP6FhYhATisondMU8j5+GgAyWne/kagu6gtg3SFIHc807lzdvVNKUom
pbx6hhXWA72UcfqM2YMkz2hDXvPsw8HPHJd71Z4FM7PaQjR2xyOxlyNj/4zxWmc4
1c7WDU65abbWyAuvErzKUlc4qu/xzZecaZZWTyue0q6y5npUVY/J7HiMBZnS159o
1dGnvEGhm1CQzfnDSZqiL/q5lA5wlFSXyfx/U9gMAf+kbMoi1fQN2b5hYDlKl/zA
V+dME8FfnxZK9vcU1ypVLDET+OOWPcZwXePCiq2zKtuVVOreEO0m8P0tLIKwekfd
C2bk+P5yEiD9v5//uAEyn/dnX2fmfvinA6tf689/mJ8R3P9NQJ7LaNsl0kMq/Mu2
mPvrUG1YuRrLze2Pm46Gu/TB8tZrBZjEdGFCTvRYDCR++R2jTALpLzbW0w6ACreQ
J5mloZHeSjs124S5g/8ih5v/ZxZz17wlwP5PG5JiIu79xd2JRB+N/wHnC41KCEbX
hjDMzYcOQyDWt1VJUfO/1kh5Oj+nJMyPAVHn2+Wj753fOy+XYrxYWTpAGRC1esYj
v4XxpxgTSmgiS4ZBOqoaJzdX+MgS3CS38O9S6Mh/cINqYKMznJyxn8WBWqK/Pb2V
dho1w57LFCu35qpGwgpczm+GKCPsJwVZfe11SAe4Q6LGfdNRnm/GJsUr7mhRf8vO
MRCc71IExhPpAQpbVwy3M2hQka9sk0mnFYF4h2IQZffxS0vEa9iTP+9Vn9jfAhNV
ang97bIEpeSInO93nQXqb52IrlFA2m+U4EDGIs7BwowUeYzgEMZ84E43u6WCgrah
pvt3pYGCtmDK1M34//3gtttA+1Tj6k8dfk0IPAnntJfSWAmlJE0kSxQwy+QJnkQf
h39YOYim6zlIZwuikav76BvztGi5lM5U5zTyo9p9tOLFjET7TktoTD2mGmuDFEnJ
BbXl4jBcU6LTxSvEI765I243KGifZ1Ma/6Glv71FF5/7iNhBlC4TlfyBmW/Be21f
9urMY78Jc8f1pZSoFA5YXCGfAxHCSHpFMdyqCuV/yH3t5bMjKM9iE850ZeJc7enr
4wcBVS4TD01uA6jNmPMkeU6omnECU99vbsX0njEM8k6LKSyj7Dl3EjxGBp0a7ARq
aDjZ1vCZQa8ynCIm7w4+auc5dzi4Rz4kXccP++/gwLa2Za7jRv7zdBBMMe5z6nR4
GT/kfxF3Js/Nze9IbhnCDRN6ix1cGa0thIulsVMvFOa6awZ1hhBqHwpO5RLedGIS
Uzk9JW6sEkdEN3utgqaod7crQlu4mAryPhfSHpipHI0TJ1/sA6kWpKrbuwjOSkz6
Wkdv7PfkuYj71rBFvM3Wb2PQ8yLtgeSZ82sigZNAm2QfZS3+VE7KH4E42jdBvC2q
Wn9A6FKFc6QImTf8zyRViSEFBM9XFK/x6i01A6MPiFCrtwyxShC7UPqoJ0pyPeQw
fuXJJKo02baa6Kku3PdwSZOWUDZbpFBfJ9ZqdNRZzKUmjNt4iRogR+puUyULWXxJ
rnEJ9RtaLZxBSdsKIW0Hyzd58hEWRCirbOsQ6pXx2hLu0z8xMNEOxmumdCK8Rlir
e+37/gNE2HeNVQgxKZytJDUs+EwvhN+9nA5eMV4FasG5o0ALK4V/po3WTP6oRkwa
Z1ZkHN2s7+xqyuJ67Q4Jeo9RHaQgYAQz8M7HYNti/la8Ep/xK3l7Z4qK3D270OSO
8whveGhA8IN3eezkWspa3krRyvw7eCUKYYSEWshebda6GCu2zcKkTGTwa5lTLOnt
yzOot2MbySr6tSapLpc120lUyqey+PPZ6uXuuMLLv8+HBhGqzO7XYVvLYpegmqVh
fF+bHLHpASJ5xsUXRMHAtQqdU9h5ORx7sKtnbN29jCRVWOD+Lx4x3uA2sk+KiHnD
m6PZD9LgW9DPyYrh/KySAoWmq/+5y/iMSDes367CTYAMwJ1/lFk1eeEZHrkSTLD0
2fDvX7Zcb6sdbw5eFNyoNWtxLxWpSFSKSXJUcvfGYGaYI79vVNACjQFmIh8n5fSj
BRwyaBk8WsWBpFPgtQUv4Nb7opry5bGOyiCDzzQX4V95Ajo6TEEUcfJmczg0UOSm
PGEtVAWXeDf5Mg2zCRGWzJvhxkhOoW5N8wmww72HAd5gcURep3oDeQQEOjwQJxMt
s3uQ3QcxilKNKjiRsEzZIJlW6TUd6tVY7eGHjS0vSlqVOgW3QtqomdL5nLUFnd2w
0382VXXVYzpqM9Zqt0511Wbt1Rg2aqFc4YHljLEquQsD0HC8blwoZ7RMn5VY/Td3
11cyFa0EscqoeVhktJbkpn8Pik8mCE/xLrRyk0UYZNPdUSHBneHpw7L06rShsThu
Jc0ryWoXKBsrywyp0zZZrhn3F86w5bWIJEo7HYVdnYPZWOMvMAtf85YiK9NeOClt
N2TpxsrmVqlcZklw3iriXNJy9Oh5SHHOzw+nonnnOLaTnEwbSBx2jcvTyiF1C2SN
ZQjs7SEQOpup3U/BjXF3d06taSmq7iVcuDmhFrEXimF78KMWKKmZmVJ7ACFJOz1f
8jEeyqthL29qG3Ip2iwW6KUWiyWzhTzmlOKVUdlolOKsl+K2v84sMOwmg5SUqJKK
uYpWlFVf5kT5I9k8yA3ybNAmIfk84yU9d1t/OZG5h1g+4f0+Bfmu0VhpBwNfcbkX
5VqO88umWi904ulcbbhkvh7xfglzMeXydFnpWRps2JToUZjggaYzxBzlq5/8XBVm
/61SaSrlOSpUG5illSINvULme5ssYR/Vxe1FWFs780vWo0dyOatFPPhpHOeS2Fmm
DEaVeHjPipmlrCgRNgoyxBW8Gkg9fwHHSSmkNd4cLGdsAbtJChhVUPsjWaEs7oPq
z6kkOarQcTb9e6rVfK3rWiU26Uk8NWgTqIvxDKGLUBPmJEOo04fEhncYsqMSaLtU
LMxKOfnG/yipbDD+u27WIa+bavUqRUVlkZrIQQkO8DLZJ7OhSFyIyPdJpTUHmSkF
iOPAf57H/MduZaJAQKqSWAqjSn5whlaReCXr3oE9NfUfrzRTT3yxQMsxCidzz+3Y
ISJkFj5HEKBtG0XRxV3b0SbOu+oGsaKy/kqZC0Zfusi0NL19UMrF8L1ung+NgPkG
inCoRDCFgeTsanRNoafiZ5RIbpjYJhFJGNtLeRQ3l3uzRUp3pYm8uuqhiX6edrkU
Duc5laXWVyLJPfC09CSR8vWqlljp8mnsq+SsaRh5SiEugijuh8XPms2YwtsHJIop
oSXQ2A9vxJ6AouTjJt4tXF3Az+Qs1bTD2da8YcsN5KNWX42zWJ+Pc8uPrGOkUiVu
Moo/TzBprQK6ULMgezKOPq64xSd1H6zMvUpW+q0qNn+pCu4xq486SXTXutea+Ws1
Vu5yA5D+kh8nMtbNHr5/oUPqD4Pf6VFXtEzV4siZhjdKlMxcp1l8QncaIStSc/4M
zXPFoOMj0EgLlEadNw8WQMHkQk0yjystxs2Q19f8hNOW7JenfFdrzDIGhkz9jLO2
5p4krFDVtiy37TPaQ2nvF3MzSGlCKOOqFEcG3nxjvDVZGgu5yvI1cSyUFMXMuH9D
XLRWuCZu4qS0MLF4xxSqdk5wHNd1RdaCxUaPDCK9SvlQ08zGJO6ExneuJ58DiIKG
DL3oMbEa5W2JX1w+n7UeH0c+JAUlIz9a6Za4MJgVnSuGNCm23JnipBT8l3tRCJL7
s3m3yXAZQezlOsntNtmLvDZK+wSx+1SG6l1S+kMlDUT9BTEORDKKgkMUCn3jTjcw
gzAxJWKqBHSxAFMfxtGsJUTkCaRlxtRnsx9NFsYLbzI9d/Pv/PVt6tD/e2zoc8pq
1IdJuN7JHPyZK2XLOb3SDvUAu/fOPqPWa6vfRqpG/M8IHFqqNqOsRuj2DphF+joW
vu42XQWm/pPVjWP34C3n+O/97KS3awDARItbThBj5YgCOUzlemaU1ILDpO1HZ5GJ
Zn+Cj3X5jWDdVjwfr0cQwVepPsvadZdULrMuJOWW5PikaTMZQArPZDbFi+mS5gwl
h1VIhscRzMtr33GkKCFAH3MI/6sRS3GTRx8zD/UnA8jFp4MNiPwjc+nl596MgNMQ
aZBBUDb+H43dGFgJsDQbbrCxbds2TuwTbGzbtm3btm07G25sb2y8vfd+7+/MNKqr
u3oqugQ/66MzWx8oE1YsRXr7rxfzxDYs7i/tsbfYEF7sSF7t8+Is52cZnvNoMlPi
ZxXkEdJc5/KBhN8ypfWgbubRR2C/JCc2eAR5/XOF3vVJt6gupV/ls6oz119oztU6
l+tJ5NB1pTQLqgvT3AoOvITnjyGyL+D3PDUrzkaywDXyvbzglemnsUdJVCMtXsNo
Ze71yhijfMtIefBNoKlsw/mhu+bXJlPC4arC6oMX1jqv3mvNMg0IO8sfgAZFNi/G
OIz31GCplLJK09Zh3zixTLsPBuyi/tWwXh/9mcl9nTxczV9Hr4vJvPaZq+AXiwTj
dmMXwTR83dcbnDTRK2smXDc8q7Fm3ms8RwJESeUBHwDKSxoYLGR0Wj1fo5cVRyAb
TgpAAds8ehtBPZsACu9NMfLL+PBrbKkp6OA+rdl2PZTU4yifut8HnM+IKLQYmq7T
ZucazrotUNMv5/2LvgLOozyQViV5BZ9mycWmM10iqVuqyDiSWHkdOtX42D9hSk6D
Zik5URajcIEupW3mZor7KFuRZozhCM4qyDJ7YiO/mZ/hz2pL3pAfuk5KaLkA5qn+
36tpll9HdgySv8HpKB4mYVmbMla3WAPupYJCYaxCzWZ6ho6ZN8jMCfKWNKVxH0EU
cK4UNwfrL5Cn8YQga0btjssn4JYkptI3+PQb0azOdyXLqYMKiY7x4GAEfJDI5qtn
zcbQLjNEHn0sv8FX7f6syohrix9XKv6uIZE8wrCxL5q5HRG6yRSVazTxBAR10SPI
9ydcG4YjWtLs48n7rZrr6zwwU+r3NUCN70C8DcAbvk3c6RDt+6Vo6zEawgTAptnd
3gRu5O6l/N0SaXx4HGqlh6dgdem0P1D+w+50bL/NIRZKIB97piJZUPJq1E6dshVl
G5RnNp1oLMylcxw8XME5Ny1tmi0wkjjfdLyxZ1C1Xiz38BHsUWVxD+9gVy2XY193
KMuq2gmD3cUvovZ3FDdaaS5zthbKfACFfc66Gb5ysyTMOkFR06oPiDDVad2LZFa7
tKSiRi6N+9CYqi0hH39eeffRND0FMsIvHM6wWk916FS7YPCclrHZGBuXtZXtMfqQ
+kWwEWYffHCvc3E4s67LypkB1g7cuBQnPun/rZpQvZtswgzK89wpeZzdwJS4y6r+
gwFuPL6XzVckykFyFlwcsWgQla6WDho+mqopLX3hogWKoOyYlNd6zt4QNbARUD+t
+VQ7hsHfpSzu9+vjZwp7DREW4voSmKzQyje+Z7+bhVZ1Y/MubGx6jCcLzo/GhtTo
4cySMcdFNWMvVPbUtO1r8qpomZwcPuf0SKE0pzD+E5ol5MyqZrpyFPvEAsPXNMHW
7RFuj010BV0GpdF9seaDUjGS3AeNASm8JdseAW5eOzSKd1lQkOcsydA74P7exG3V
6OFN5sQvJjgsnUmsZWp5MUK8MjGS/Yc1Kou6z/1d1Xv3b/1nLgp7MYHYDG0+OqSf
iFAd9Vu4Gj7N5DaInVwCG0qRT7xBJ0QFaNIQQQd03eKNsftw+SmnUx5u/k4BFAGN
t9YdpzYjuFDuwWCLgWZmIvXAatmSrCZLnhhXx+3WSSYpNlRt8rycXlKzfbuZwNs5
pzethRLSpon4pUngxzFc+TqfGYkExZlMP7mFritnVg5Nj9XD6CHQ8RrBlndoj8t7
w/ZrDclOHx4Pv4dbIuMQT2e2Jb3ugJzO7Ts4qXKdm3nJG3zg5nZPQ/LWpNVrO1Uh
cLywVApmPSBTm7Md49PB380y0U4N74fnTQChJGEnsSbHEDuap5GpRzJuez9U7iRu
pO5JJMElmJNofU8tuuZAzx9hfcy4bibjQ4cQG4/OHkOKNg2C+mSwsji7b69Lorwm
skfeKGjJHzsPo+g957hF9N6z3WL+yrEP2u+wJt/8mbndHk71de28lQoXxn/Djrml
m5V6CZ1w59zTQt58rPorafpYIyrkZ21p0Lbw889yiOCcS8Cs8XXdDgYi9NivCHOz
Bxt4ajS3BhqDIZ4eakA1CJyhOoaHdw/3u9J/NE0qySa62aG9cQgkH8CWomhUNwfK
sH/IyyYHapSa1cyom82oPK4pUVoIuP5qQmzoXsQXlQbjNmKiKcPQhbUWu1lUpqzI
XvegLDvx78AW1PwevgY4bN4UCsWLMejXyVzu+nu7IXtPsqNGvCiCsyth6PDgZV/m
EO6HBHk+1+4MtU7evepCwSrpZuurhvRyxs+RlFxJd5Jvvx8tK0CNvd3P3IKWydUo
BQfS9BdyhXPGH2Gw0QxXXWS4c+AsaWhF3uEmwCqwQa0fYeeu6cYFmJQ+B4Hy4yX/
hT1atx5pZ83YnjpNyb5+wCDRnJqDS8jdlxE1bYl5DuMRTtiAvHcgqd9BGlLnpaxV
FK9sm5waBInt2dbVNlZYSgK/cOxSr82fmZJE5uFrI0PxlelgQfiYs620TbCEM8xZ
zk9uVeQYR0cfBmA25I8MQs3eWkCSYBaxmGDbQwyCHsOhaqifZuI7kXxBhloOqxCB
viN/qehgLxttcM1ep64JJd1D1uYOluMlUoK40KhFJTLgV7oF+JkY5xsGabBdQ2FN
9cGmusn/WDXwULDAAN2yAR6j4ujqySanQcDAYf1yR4EoxKS0SgxuHJL/GGlP0JQd
dtRJbBD2ZFu1BNNYNTZcpWlCgezIQVxUgLRr4QrRM9fKiY3phTZZcUakQNb6AdE3
E1+f13I6XUdgOdXvVGB4RyNNXJa1wmYmXv+8xw7P1Gzn1TPA1T6oRWk3vYiSoAPl
pCcrJ/EXozPQ1AWeFNnMdeeuC/zBGjF7LOVhBSAD0UOR4NZvsmBIEO1tW/ghW/Em
mYOxhIXag0g+BXUJzMHiKQmc1sbnpWoLwYUjgcHNwYBJMv5c61DqyAreo0/9kTFz
KKHJyVetk7oiZYN2VnK6CEs2Pd+a/4uqwpSbhFuV7cGODCElx95hwLLP7QopKu1P
9yUuObQs8UwDppzKmBWx2WVxEp6cJgP7sI3ahi3Za3Yz362KGF8fzlI6MjQqSSbv
YXAOgDv/cwPh8d0EaFYmcO4uMNrfkbtuzVH2SQCvYhmkbi3w3oG15bpz4u8kH1Yv
CoPMvLH4w7WY1GUWeaEW9gC7ERXgdwlQ4cXiLeiO0E2+rpAMpmjms5RHzjHFflYY
R0QFHu52ryu6zd5qoFgM83Ck5p5q2F0e7OPGiJocHy5SIGPh8BSpIEqrjt+HaFuK
ZsGh/gkKONqgok1QtuInA/qzSMH64LyyD6fJJrxrUMiGQv2KlASrrqdOJcOSUADR
GrBHQSNx2nh4DuYW5XehHX8oPGNt3sLriC5mbBbFUjsNltrx+UMfluoXseg6PsBK
OTnkRP9FT281enBehL5UW9hKjB2UWU9TIbSOZgrHMVPeWbk7M09FMMb0ZnixSNsg
f6Y9dk6BHlvExYGR91KcG31kNDJHVXmBfTTa45TZy2xQPo45IVLp4dpjSsp71U87
IAZQyKmnnYyn4pqmTSj5pYFEaTersANSknSmx8/0+frhJ6aWklcaffaVZ9nCs/Ej
5tVPU6+uxrfl+7XkU/Ao12LmsBHB4jtoarHprlHIdBaWvpM4PpfaYEh8Sdm8+OxE
80rW03KL1MIoL8Rrg7EpU3s8ZP916EnJNzw0EmhI3q5pqpD4FHMV6n/GL42GGcKK
B58diwqWxqR4tLASWaIxKXisL/Rcq+0X6IA0Ro9jP6QS4mxIR8I4uDFUWknmhOWP
mQc/T45vu/VSrb6nmiOsy0S/W+hNCWfj3CBFLtKI7lqLxP5eBhcwwcUlkcNhjY1f
t5eG/VJuHLxFGUQ/PnydLA6iVU+/QlOlwcFslypor5joZ1Jky6Xlhs1ljA+fTjwn
vP8pnKL6lVx2l8ArHLeWBqqz0HSOy6I2rscaS3umYx/u/zy+TDTvhGdTHXW1DZz3
RMtecxzCzUbVmF2IA07e/Jg8iwZeblOPuAKwojqTeEAfqbnhi6jXu1yKDpPyYk1Y
xFQcd+Lme31dKJiN2MiSEIqkKXoA0qXmkk9hNFeX4SgfxMMoVkW4N+D2hZs/okev
YX2mxBUe7NEaHOqsD+/RMPWN/9y9YwUs5bNegsFew60rxi7aYCzPPLqsS0on0ica
VJbBvYvOTrlgHBEAHyh0wS7XoNdHPrF98fRUKcbekO1GdAj4Ob5aiK+Hea/CouUq
V07FfTqGCBiN+SWi06Pnm8JYYQvzUdJFcRG440uickXbq+cJ/7Dmh4knbKCGvBlz
Z0jyiRW+VeefjA/FPyBHnF8G5kohiqKgibNJQ/LvmD7+WqNCD8llW3NZFLCT60LX
AyVyxmQCXzKBS8pNoj5lOBGCah+PoZ5FS5d35wusIMnBY/oZ3lStmEQApxH4FC0F
HMN1r2U7lA0DTD3vWsMHu7lYgZ8lbUpB9EbpaKwFfNvX0hhT2U/VZj1ZjTHAK9NY
CGAoImhiaHvLFc3qJszwJX8l9EFQhxRFRD2FoOtyFxWNDK5V9Cqa2goztEIa5u0k
2kFLRhNh/mbZWAgEoIsmB6ebSoPcvScdzWOMcErGNnastohy3Ykrp3sLFxL1XQD1
w31figNEnHNPHupEUreGZ2+i4xQydMj9Ox5HgxhG//xm/LCcOI/EOytURJaxdsSd
zW+sJ4mJgHxEiioRz39sfEXpvVRS0EcyjbmEKYVtRN0/IMXCOFJy9iyLoknGmFog
pq6mA5cgh35MTh6nHOv66VV6MPmMPupvld1IoU2P92B2qrI6Hfp1SoprOwWWdyH5
52DBetDlSfs6oRetAZxmC2PDuWs7XRcDgW4t/mxW1AQ+1cJJXI5FuTCMWOSgrLr5
7DFHnoG7xTkrYlDFrLpbnTaX5+7T+KDcxzGAhFxxlO5qzx0kKaDE6fx3GYUypklG
LwmJRrtzZIQAc9rOV+ddLVBD15eAru5mri7kaJIFB8lvlCVOslV4LSY3Bu7gNofs
7el4MoaOwxkLDCwtozj9Yn6EaA+HZT9ccxXhjRFB6kmKBuKDSX6bKQb8DgUBX3Xv
kT7HwJH23nNm8ieYc1d3e7zWtHhvyVQIotI+pTEY39CtM0GV/xCGNv0PTRypRNVg
zQITuQPYC8abTVgD3Q/TBG3ntJJvJarA8/uJy4u/6r3fx+9fhR8vj7gvobapJl7a
7vK8G9ra0a1vg6yOBprofw+pd+zHXoVDBNEFfoMMBT7oduo/yUMkS+BtwJdnB0HO
UIwYqKSqey7QelAcqZTXkp1BHmqKi73bC/i+2zCQ/IzEDFexIr6vAE6+ZD/RsbmZ
N7VxCxnvGrgS/UQsmx0t4gp05qNxyX1jKkpWJZSXGylqSwUnx7vycv59p4+yqGn2
9858e7C3idcIuNGYZjF1G1ZOLo3iCOHc8ydyYZ1ilSSigYkadbEtVDiViIZE5uys
kGmgv5+kn1dUG7oBZUchkAZndgwtiu4kkWg531U5xRikJkhuloBLlEyyEjWd6MTw
He4dzFf/fpo+BLoAkrJ9LzwDMTCNDGYFXgBk+TcSbzrnWiiZDO2cfa86bIhZMFxs
n/viuXuRl47FaHiZWGKYKHcj9gSkEdPPbvt8RAmSv4gWO1/91PXTVclv0bMJkpl0
z7o9E6R2GmwHwyCfzPdnvPU+3c4Nos4xHmfBAdkOyQ1jarnic44/rP+8o+yUGJnY
1fElmxXeIepezMs0ak2JN497P+g8LIGf+M6lhbmjFgD98M9jfnBqebPLrRP1ZSQk
IzA2PN+peIo3KaaMKaELGdD1n8RR0i4h8/vXTlcubAaToyM73zFXN2KRY59WhCNE
TMv1ochJ8YwsVic1adOzV+ZCFDrV5Najxr+QpNEMbBdV6ZFP62l8VdXsfB/9HPdb
XeHg4FxF+cpbWV3pm/Tra/7AxPisYqbBwooFe/mtYprmVT5Uejl2L9fYvQIMBO4/
lXhhenPwIfQU9NadYN5gSaT5TzbJ9ChrjaCeEVx6C+TYpj1FFrb26Ohh/Km62cH5
aEP4tumXGmgNQP4b0vZyeEo+SRD+RRcF3mYE7fD4wT7cwT+NO94thsC6AJrZ6wRO
j9c1LqEvAxhnbdhz2WcD2JuKMVr3OkUsAhcTDMegqILFsWuBKRsTv3KeUvix2B1R
caSrqUcYNnMjdNZA97xP6zNAU61xfddIxIovggs2RXMGDsv20qeCpH096Qn2vI09
cwiu2wxoesse4+JVf5+8MKYH3C+Uvp4MvEPL3LHOC/xGedM+PeYUFgDfkjXabKpk
Lcs4wTY/brnlBZ/Bo9Axk1v79SRsdpg3R3NYvZ0+JWKIkUjZiM/18xP8andG5Jnp
3a6pnv/33Xq1KkueRx22xjGHNDv4nBkuWWbADj4EgH3O4Hpf5s2Iw9PRvOOTOVbM
ikeppAdQKe8ytXgctyLt7fIBWAddfEuFTc9Wk9sxronXVj/zC1cTfxq1DXuF4oLW
5LRnGAMcnc1fg5kFuEYUg2kOjxUQ7SpPgdIMi2WcnetqQJDRiUy01mtU093fsKol
z9cjdTtB4o+g2Cn3DH9iIy3lJw3l4/G72SSVlzQavk3OFFRPPtAni0LKIXToZr3O
/IDQodKSkBlrzf0znvHrKNmybATyYFtM23lCRt164A7/gxEz/4XKup8xdVpTJSb7
AVr+NSCk/QFMsttqKgCOa6+2xoJSQkx6G8BbQuAenzCOs+sPbbQEYrxoiJDCQuY/
G50FvRt7FjIGHPTIEi7ozJH88QQxKf7ERo9OAb1MUwSI4mYvO1hvvmdBvCoRRxr+
eSHmXciR0HBCf3yIGzTcFdIMI7/CWGihPdHg9ZifwGsoZ3WHOjOgfeGCyq/rHc/h
eNZENyeeJ7nidgI3JnpUhuGGlL1ERp6UiV4dL/wTC/1h9GW/LJDWw7ygjnPHViUV
UJM7pAG0sYiXJ/e+4Zl06cHjRxM8raAk50SoDHNk2SLZa5Dp/036MPWyvXHW5XzK
tLnW9YGHfy/xd86ANsRJJ3mxneo0cf0mpzbFg3VqDtVJOYrI7tCA1PsIZVvBydp5
Bj9oifO33ZRN1Ufe1t236tSfv9LOWjXVV9hYXJFb4YZ2l4nXgjsz8GePzHiiz9fv
12t8ZxbKaO7n6E6rDW8MG+SwfyUIKmuM2cC0BqwQKzVzoc/jYcd3DKuXjBkqu8QW
qLBfphFJ8SBdyoltECe9K1vJYsZ4vYcV/lAGjInQEPmhspMp/hImGSmBDkGODeQp
rhLLt2An2dehuMU3nXiL9on4OW4hhrVHVS767/Er5faguXrCTHQlcVYifsJL6JzY
lSHIcdh/LcEqf8bkMNYQksOU8SX9n8EBfiGTvV35VYGxYZxPBiGACxZna7EFmIRW
+vtJshRoqKjXmcm/NmfwWpll3sMkeI67mOIoZUL6iDH9Ipu9/j3ohOJE6oxsMxEF
RuRor6xvWI14D6Fe0E2REi2d8sgkmVIKvHKjpf0ceaYgR98Pan6vgJlH2JG+TF9z
9e+0dzGGWCZltNzx0fJj0NDa63hJTppkztBJrNb2KIlhZwnncaq7GgyDflMZenxg
krxOlRD24bNGMmbAAsdeLk/uPfXH8hoj9BBieZL6kNA6cnJZIvjzcBoTWQDBbmSO
WVTSigXPUq+v3DlygNdg/NaV/VaD2RIb+T+Uo3dV/h8xKmRN8rIp0ZpSPEYEoNIT
mQrDWGRSEhT++3kNjPekAdTSi8Tit9M4pUo9AtlxTBIPU4LiHRryivCrCFcnzp5J
lLwgx5ABejYvyklgzPvE8fbpoK9VDQgGXyh/aeUWEG4A60km1AhSWWb6Xb/qb06V
iBvVQHvKDI3JJMPYpVMpJQ1mjA746eBbJGlRBEr4nN2OZuYMW5SDXHQTpojQ/L67
zHO7p3uE8Xh/1D2pva6h2906PzO4De7w7tf4GsK57x0Gx6GAP4lEY8aSzZRld/Av
1V8i5MTFzODb6E3cMzshixl48yq2I/uzKPnJf+C+miPTsr35++vU0dnxTfvpKAjI
FqHdU2OZvD2vCR/AHLEQkh1ktOdHPZNZDV3XATFUE7J1tpKK1edXnqnsKRbcaK15
s1NAi3znrqwqmKRnWkKF+7cw06Kq/N6w/Xc6HBW1kJFSAliXMUXeagTNpiOm/ewo
CS36jNajGrqzOj9+J6pM2swypJNhqhFNi5B79fjZmwYOej7A+2DTgAhvTyrfyI6/
BgEh6ITQ1NxO21VuIXASHBo57al5b5bsx7OjAQ4Gt2/9eKepZ8S2xyAomBPlZY8F
lZyRP40RxUQgi+bLxcgo+5nhDED3IWOUYkdNwxqfYKiDhyXcLKeZ+JQeebcVnzxl
awvO7dC4JK4CshZE01nSuqf8bh/VVzmyJUrgSEiZi4l/FPak94wYwxsTAJDSyqnw
YCCoHIQcqHFU1MZl16Mqf07p7dOTDAlLtxKjWyQ9nnlEC8NaouiwDBu9skGAEFEG
70hN7DgVpzJkccS+kW5o33SD21QDt6UqARdUwlu7UWi+R2aHicSeirPFzKGik3Ba
drqGFBWsdH3HYgXi0SYozPtDSU1bRdSomHmipGnUxJAuvzy521cpWrdXCSodt+Ks
KW69fSmjNgDISjt7h/PyKPlkod4ygjGrlDVO1yooE/tm1aUObMkfrXFvEK5pTVIJ
Z9w4ZXxz4xSoO3d1dPfkTT3VjkxgpSCcYzlrJWNTx9evWU2m3k6qiMWq+4kbUA/Y
kqXxkD+YkT9bQVvcKSluukPMG3kxIo5K4H1SgkbuWFggCdIhUsh1TVizlHSa4HTW
uxpTOXCnDs10dHRv3OGWDpFZxUnOqFbn3igMSZIyVaXOSFjkb0mxCPuBlIv6DjPs
FzCXYatuOd9rW/gxg3zWDb1pxx49/iM4pkJfowroEP1jMJlZ5Dn0sOfxhvvU3DFe
ceFUR+P/JC6D8A1tYEdJMQxItA1bRGQbJTwjE1FJRoqyc6twoD/EbNr4T98q46LB
lrwiW2EyaLH/q3YToU5qy5bbXtIUG2tprwbBRfpAn9lsNbftJmoJlnLRW0tpptqS
zTuZH2D3Q9BVk5L50Z2SGIpH0p//Cejp/soLez4vJgME7WSPhKInr4yPlvQeE4zJ
GP1POI43MfSkDUaKpNGMslEy0sLJ0/YXs8upD8nD6P+EvuNcGGiwnBSIdcgumTgu
HpYDZPBXGyXpR/x9OYH4wboOLSGMvziEUeW6MS4VZUDITokF6SIJecj4PfyudHyE
kExnMtFv6fs/Uc/PJLovW966aggmf8uhaBuo6eZkIePsQb6cx0lLxfKOnkCcZvwH
4EKpUAF/v1PMbS80HjrxUa49cO5fwlklDsB/aTEN/iue82ehjEdRZAMr7FEGQVL0
/HL0/n91bgh6LOH030rS+4qYG3M38dAcjdMpmQCU/Msau4olUi6QvPcgr6GOjIeU
+R8zsOUjyHW+GzjMw+MT+QgV/h9Hee5+o2QDzKB/D///moFRKW66JS2YFuS3JAE8
1yJnvMT6UfyxsSw9fRqLrSxJziwRxxG1GVUIlB/+V7veqLMZ2QtRAZSxeWNxuWFZ
IC4J6s7t3INA8tHIuyLBsgw1u0yU7JlodB5ETrgUgOxdMZW7BvGAJQCrU0y5Mbbh
cDrZYp1lv6mpeNQ0oGy4JEh+eHiAiQYU5Vs2D9vBp3YYTkrSUFrljd/EdRik1Dg3
l531oNkaO6Oxqdh0HEwBVD7Q8BBCg4WkAwGl08XiYm8nPMBWBlqV7x+NaX7AnsOZ
ybHTRHGofwS1aypXzO3Kgon+NWPB+y9jdt6wP5h98olKwZOfTHyxDIougqagJV1s
mcQlqBiUTqJZCwsbo9eMxfZ5v7gDBv7Hw3T1v/Youd2Yyo3ZwU1W3sjAsHiqQhaE
4UFOipYcQIOK+O+GihWjPDWIbaN0acZnZwEQLfilk3jNRGhi/DxHYeZowdOLIk8U
xlcGfc0qD7ELxy+O7zPeZRWMtkf7TayjLqjii7Sl6JAbPfev8ZFjYH0k/vfU3AqY
a23nbKQm/ZsKO+EfKZn3IYbTxv/5fEg+awIdNecaqnPvyIJ4/gt9n5/o3vGi5KPP
WJ/9f57RFR/TXpfOfYPilSmzWORCi/IRmDVLJm2s4c4DP4scsAlD/p2gw/fNL1wB
9ASjursV/CAzFBICknbzsmYHyv1eCYw7FzGOXpVptBoBCsWN5A3iNFoshgwpNROz
UmrXbcB1EmYkausJZVa01uQXKhy9N88XJKNWRp76vCK8V0goDicuuOXxuy1gTTWv
aKObWWLI6VMMgPGC9V/tzWF9MXVg/qsR8spFnBSJ1Tir/iViqonI/4aurKFiM2NV
2M2buHhISXHB8GBdBoefoxbPZLb636USfizz/wGUdNUB1p93nXI0J1dvismykKwY
4WH+HyOwgC1sVeIawQBYOT0DWfJCyNEdS82kUVxPLhFKsMNfND4LDhbnFPQpTJKO
aEU/hdBoLMQMCgfbLkNYeybVpR0CLkyVQW0uPmv75/rXxmF66zKTYPcOkBYVIy8I
3Gtnjhq/tbXusMDOyoRW/6hEJHknpir0Vu7ZRmtxZN/JUnatGPuD0FONrwpyhR41
CkODKjyslMIHI43pF06+ZIZNg9MnehDl8YDSAgsVV68hse5s3lSoI5RDesflBvpb
tT27kaiSowopzgtbYxXqdRMdHCtKpUyNEmZFRVRPVzOMdRELLRc1GLH/kmf9dDFZ
herSk48F2Vf/VaYqMEPu5Xkq+zNnuJAws9anCSX0GaSdYrwoZAynQjCakV9feg6f
ChuFM1i5YbgBoDAuPZU4mVRZANJOsE47jxTgMqTwfaQyErDKqY1QT0d8FhB3bcLZ
W/TWcTAg1IETf7uzYk92avTJ+/kDBfnEHUz7UBIyzUsqw1iMVapTjXTnIpZ3WrGS
B+qShvMkTidNJ3TSQuwpmf4env2VdPkniGrgAhXJNAvbvPrEwnSBgU3BFvFvq5gt
/QZPictQaqJ7oWfNthTr77gbcWqPyI/ntSLv8qg1RGDRmhYVC5kobzOP/e8WHuLO
olF1x05fc3aG+b9Hu6QSozakszHQZH2S7/DXm4eut2Pt+kl2x3ckem8ak4y7O22Y
dozbOh9+mHMMsJh9ut5eSp0anVS63u0vzg4Ot7f7ryM7jL1dL2O8hUdJPZO9VkYO
hkpP1KxVkfc5pEUEUafohEk9Zvsv9eSbDagatmH0I/F/EL19p12H9QOvF4aOQM/j
laXFd42MJXELZ2CygWnGsdHZlR3WdJB6eeAsJmVgAeMCbcWYD2AZ43H1tJ+RXJv8
vstrQ5wHh6PA5if5SHQSXTcudMTnDYkZNatn1aaS6TiojRp5e/KY2AImp361sYAY
tR9O/kLdYZP0XynTZh1H/MOtYQSh6MPkzZeZ4yphm8cocpVYzYfgan/t/A9VCJ5i
f7SqblzvewqWoZLwH42Fn3R/p78+b3SFhaGI0gmSE/1IySPJVThWv1KQKFQ+SAda
w/Kcg2wVk/FIH7lin1I9dWzqFHAuzwI7UFZiTpzBHRYjs/xAUTYR6yCwLxPCcj+P
pzCuHp90xlq7UvBs3X0ZTYaqdg8et4LyxM2CXQELUuTVZtPceCHVqBKIMqRJzvLm
SCbeIgEc93R7G20aWbBLN3+nweohbCKRdKi/vOjgKxNsgDzpdEMCbPpa4Iu/NY3H
IbPIvAKpOTodHFsq9HzveG74zqJWjXR+FW+cQqWX2BrjRnx8ILkcSd8YiVGH70b2
Rlet0/RxnCIuXdRvM2R2j5WUwt8Amto/CIVdsxaeKrcRCrhilRlBLhlyS09D/nb4
5ZlXN3Bijd6meazsgsTtil0sVpnte3f7FinGhGcZ/FGj8DNuPc1Cb7aZerLpew2V
j4hMi25MPLjmTWFl7P1cGY4ykU4oShhz9/1UTzcWafUrQfprGiScwkWD7mtA3xHU
bOvYk91QfixCWNOPFoz6tWBWP8ng4SyWlJCw2LLgvNIqfxBjkkUQojebh1Ztfa/h
mudpW9u9LlY309ehMejQS1Xbr6j3u9fgYqTs0A6MGv41If/TrJ+jPSVkqH2ZJecy
AT5qDU99BQxhNut1orZvKfenSiwlQO0qSZFHLrmaKOJCNRLfdfqle73DAYiqYL1Y
Lw9Wgtb/ScfNEG0t4yc6aN3+wJL/PpLmJD8wBoc0rwHPF/UwVUGzKKTF9xNUPTG8
XTqCFQ0Dk78iFjYKc8SuX7YfD0NfzPw6+6TCkTox87ZLA7CZn5/7pLN2mo/N+0R+
CqEMniP5b+Yj+amf08RfjX8JhamjGHJDLKlpcGkZNdS7edLcIO7pGJemu/uwBTa0
qV87C0Q4Qgm168NXtnVIB1RJfPARC91bmNoqDCUmwyGQg3xRQ5a4pnAFdNm73xSS
y0i261tJQrlJyv7BhzZsvGSlC6c72NPChvbkapThgybGxrrSc9YHUpe2auvp0hee
AHcIImLDZ9U8127rwcpk+fC/w49f6Rbebq1jWOH04+DFsN0cLwSQPmkvBGef8aew
VT8c1sZQw7bwZXhxtCG5Cqakyaz8ySg0qLto3a4jK+dzstRISc5sg0qFjZjbwgPq
G9rrzRkMwKjvtS2YxBzV56kYeFCgZrq15T2NrIBqxlRpXg723V5PMllcVTJcqOwX
jFovvsXLXw0eKzxc3LbdZTgKw7i6A2yCRPPg6xIGW7pRI4gfl/X1bxbImvhv+2AI
xGAWtnQdTzDhV18M80XG3FgZmpLSoMBqhgOf2eG7qI1tGGIzhj46ykp7Z0fvL08M
Y3xiP4vr3BkwbXGh7Lx6j36E6F9iX7xrBa1VqvkwnqctrC3lg8G5jv3h8oZrtTis
lLReNlrEQjK/I4Y9U1AdpOu7MC15CcK/LTrEwbPfyRAbjKb6yow2ZN5ZIMEMfeAd
jV+piSReqOIW3SQszpAu4Iy/3n9/RH/mHfymidXRokBUToLK9nLbVKD12iQsYoUB
MV8vQgMJD7nfK7lCnZailA0I0FAQxvPipEZCwiVeb+OlJkLCDUiOXCwYwX3eeLTV
YYaQf5ZGWBX8EmayfjO9TJyjyo7mS+V7S/6VqcEOyTedsoQQo9XKcVFlh/UTtYqf
sSFn3d27gDLWuZLKW7J5b8mRDoFWxLYkPFzroIvj13BiNlhXDBAu+xhIi04K/a1w
B89/LI23cyOASVlYSQRTVkjuzttueC0RiG2u72WcGii/I+bWFFXDJ9eQkmyI/oxy
QFxUfT/ub3TZuCAy55zDofBcNhnSwlYm9/cJx7SLzEkS5oc+U68seNBp+gsD5I+4
+smzjRRHYBLbBXBiRCd23IhBIDJamqSWb8g1jWr4HFZjkz1pbaXvvZUiBJlXTPPk
1JuOP5ZDZ7IWMZ9BX2XQrFM/vm74zBfcp5qVZ7AxQQajr6G1hbTx/mfiYiKu0S4J
PRY73NgmrgqflMQtmjLQUcXDZ1BZJUVEZrH/yTc2tkTqVtetyBGPXUJdefa08YTb
a1r4F+EU+vXtWorLVSF5kumBSVbzAzNJ+cP238/s++HT9ufNjpwFDQfoO/7CbotX
dMTMI7eSKMN1ONXdsnpHpSErDxF7oy6dOT+42M7RPci4ib7IV9Iua4Pck5BsO3fz
gXXy5DkXm1nsCeniNJAdqgfhpTVbWWMpt4Oc2eJ2prHnY/tOUBzqgru3ePKqxrZV
KkmqX8SkAOb+W6NnXV0WKTAhXnzXMJQx6mZiZK4FFQQROXUGMuPNP0OhnH9Fum3j
CRC8qfZW7ifC7XsRXcgLCCPf9DsTF1DvB9i7QsQK3EI+PpzHhvZ6To188jHCy5TK
y1BBN2l+opgjgNWr7iCfeVjckopKRSL8Fse883VtqG9/MVjg8ry6ol9Eou/tiy9K
5mKY0mRY2GvVil6lZkZgiAui3o6atLjB4kcNo/tjVoWzsdh6d62jpEGqLgPfcEOt
8BmmbmtTFpYGh4ToANGcdNJYXkd85vz8wQ7zY787LHCeAcnonX4iRaO8DMKzIjr8
/GitxrGw4DN287DIRncbekmtbsOUjSrPaADWRQVOSyBtved2pKrMSdacWEWpRXzm
UdtxCwvqiFrl24H1+4zyy/TqYlhB1ptmnPKTIRXue3aKmMKco0AyXD5UfDRnKkWe
shYucRGjG06DqToWpxIdtecjXLyMRlMSIxspVBBVcA8mcktT19OHQ0nkWKPmhsbh
J8RluVXRjmHyZQPyijn/MKab/GtP9Bscf/ujqBK7Z6h0GDX22mFe/WrTbSbpouQ8
Q1y+qTkWRl0m147VXwyrxuioJ+lMM4p35Mmk5cbu3LSYThf/957kkIrBDASuw1oY
XLB3Kuu8w5gIR2ngXAv9BcHd/EY8kByz49nYDr6SUblUovfGRwA0T1tmB9fwlFGC
lbID3sg/vcZXkIJFA2HbSnVhseagdkUprephaYA5ONIxVL6sOUhCaWMgSWUjZrku
+Qlx0rAf7/XAEQsG3rxSPVslTHdcAKqToBljhjeJhCWbKf1OBErPfmzOr16tDBPv
rSfckEGYvDALzsNPiex5ZADvwtBrSwMzjjow7kSPMZzAVzjYtLo3S4yMXusoN2Fj
TM1lCKvO+zpDuWtWohLzVdvWnPta+TbILsxoR6cSI8+PpAtQjyMQTl5ozXa30G+3
bMkrdALbyMpwJ1757gRTsx9FJRS4psA147ENVeGTAhjhaX6qA6+BGvBFWe+jg82g
Q36bjQE/muAP6KF7O+w8SGxOK1ahF/YpLSvuHDHsEan+yUhcbTuKrtr4ndHGZldO
QdS+sUC/PEwiMRYfmtKoRbu299jPMUkRmpq06BmuSpQIW6WXtkyaqpo9X+bcShZC
MZQNEdCz9XiMpC6TwbYj5+673whGedtPcJ3ejEbRZyCzzOSbwdDgG5jjrx2gspOM
fnrpY2Dlcr/wLqIZwPZYFgM3MDXJp5/d1AlIRC4lOI03tYvlqFtW2cgOPCPGM+pb
evVOZW5QcdaPEzr/mh6AF2r+o1jT44oLcpuf5mXaZd8YeSr41OZnVztVGmB163GM
0VDbBj2e1yoq1LxNZB/3QmXdiTimLlbhhuRwDuUjysahDMakkk5m6Upls51vLz3p
vqTGmgkSQ+irBzplnhyeJ90H6dTmwUBKOkOM8XqM9rciiTt+biL8zEnpmdcpEDT+
nJviwJTdhKW0wHPcOnh56fvjbLxdSU71wf/spRkrK5s5Y/PdfPHRgZP5mGk28vkV
rrcgj5mZamKNLqbH8Q04EA0zOKe/UE8p/u7ZfDCUNye+WjWBgrJET3OGnouWqBlR
CXKZmeSpfSJHeWREN96NtbRgYSG6khL+wIvdhZHgoFILwDLMvUAOzW4n4d5U0E3A
Yq5QJwt7f4uEEH5+ovgrifB84EaWTu4g4dgueOQIze9EwRhOZXtOjiwy7aYUHE+d
Jn4Ig5aChuIG4AvsVGl0B/e+/1Ejfp3pZtUMcemFzwvdzf30ebXhesngisNCwvcy
Ltw8eplubn5A2+iPxXskOeOMTCiYnZd7XKQirj4qVvX3odmgEvLegzcwXd3QyfPt
FYLxDtM/cVBmEfnK04hvcSmL0JyvIjJJ3Aa/hMvpEs7793KbKA8k5MEUkfOgg6RC
bTFB9x2T7FzsXaTl8a/oiIOg9NAH+4h3CjvrE49Br8EiZ+tv797owh9rxwaHGsrS
HJ1DtDu4z3XGEE6mUcWWBGtfLHv9ppIOVEODvwpYJgLEzFT3RU+LO3s6OcakVMe+
tmDzf9c7PurUuvwNXckxJ1GQs4461Ej3H9ozuSMyYcHkQV8xF0gbmLauUyXsn54f
mHou8dR7BdB90Uj7aaGZKknToyjf9wHYD4PkX84K4/0EC2DAuYrW21ipvQedPaS9
C4dM76QkJy+Rzf9K8rPTiPqdnODdPG4QevSvcvYhuJ/7d233X3glWk+zzuJq+R06
bGu/88wucBV1haCfbrAhePSWt3vnliLYdpHBpalQI8Qr7C0dvKI0um2+vP4GZLso
/OoaH3LG3amZ91auFHzeAap9qX2VbhG09ClJC1ioCwNWMmTlazRrKGyDphNPeBUa
liJchTn2JhBfLWiRaXq/8kuw2C+6diw/lytbBDdnMxs53NlUwhDiMl93LCbkq1Iv
jlhTrVcuo/d+AcPd5Q1JlxiHmELMCnddiJghjrH5PgPpEGZPHA8U0WRKzQyPHR5v
dl9m5q6CDnqGON9nRg1f8+vRPIs4Xk/8RUWZ71KjNBARdZuzBPM4adRqXXq9fOtX
OQzl5+Tn91KwU1wGr+RzL4w3m1Ft3bad8EVLs+1bXnz3i7O41icQ1G+XYi96T0Im
i+2qxU0Hk02J072JOBX+wNlb599yK3mxxuCJitJS4BL3JOz+Gg5jLUErlJBXmA5+
MJU8CfihbymKFZ3FkkFOiFptrrF4MyA+PqfqzvdcYfnBRFypnf9Rcn+ATnJ0fGCe
v48pNrqHCuNx7/4MKbvak1S01GQapUuxHC5UZZh53axMNq/QZTYGNVbnOrxNhjTL
9m5r/I7QQYJz+IvPlOG4Qk44C1fZO3HOZFqY21u9wO7PbcBBeYUogOgeAQN0jlO2
bm4uc75J4iTGLMlo9DEy14BylH6S9xtLObd6YYpuDguuaF4ihVsvIemA20hoyvzn
mAK2WgaTl/1EZux3PvExHSLO6VDTWZAc1h4r8yjLH/Ax7Lu9rNaKInx0Lu7xzsal
i0wWjRnCOM2rLUwoIVb9purlqvUhsx24IMcaHEIedG6XNaRynapZXmMUPqf2Lxzc
OrGflcsRX6LQSlVAWlVQ+00/FWpEzsrUlcUNPvoa/uqSlrGW5tT1Rc3GEuQ7LITM
V6bj25pTOf38StbKtemMDTcdTw3IshGibR/Ax2+Cy8U/TMFZbahFePf0N59Doi3N
ca5+5ihBUA4x4/u/hxPDjC1kuRwlyzF6RdL6S3Vj9jp+wRjQrsEgJWgx6eGIkglw
6M7LmurLwVl7QsKJxC8kltfcs1GHCMj+IgvSPRfCvV1Km8x/7g+IdZzmnJ8ZSkMF
h3dY+oGTyAqlWSCjL4NvfgmBY37PnTFmN4EB1hoJrEuO7AjhjpdyB7x8cP/GSflh
5AQ9KTNNbJfIVdxKb4Mwwkt9PurheSHsdMpyWjpLTOp7jgfWDjVbQDXm7XQqbkX4
zsYdw+W5IQsWPp1hTJQznMEDWS9q/mIEns3R0Znqd9F+m8EOzzrEegft9SzAvI7i
RN3jYuFkUVhmyM+jUMdvDojxjqvtMlySEpfPkUEx344gGzjJEpeOjc8GsPhu8O07
MrExx8hWU0uqhGmpaZltrzbGPJUXPudgTqZZWJ6NMo3hcpToOLFdCB/IKqvxOsQq
JizNPcCxPXvkDpzgnvSszvQQZpqhHtAdlMU0Vb4PU2VxqSiWxjaKcTBnU4dgBWHX
fSZPzlV7bSjK48746bhOGeuxCuQqPfxGhqznCJjhLeUZOiBj+74b7bWCJ4nKd5oy
O0Q99+tds/vLqdftkeKyL0NtEJluAvYGKpI6NdCStPFsOvjAjwVKuPINSB2LASF2
9/7u4/rY0x+Flk1mKvlGrUc8/dxdwXlE6Y6Lzto4gWO1c2N98ObferN4fjChlXkg
vkhFssP2OE7zsi+tvlbAMH7o/bXxW7vBwV27xRS62Xw86aCMpCzPEdv8mpQhSNC2
oRxW3FA387UR8X7uQXglPAcrHoYM9YL4JxsHXAOL6UMta/PbBL7uqNyVVmhGmxX2
mwO/1Sp120ITlERX3SECjks1MvdCHSpV4zs7KM6FelM49tb5n4D7POO+yvEKfNqA
46tfMF9rtUeXgJ1cdi2ob86FDlNr6b8UDbIX21zW1X5GJdOFsM+17M48JmzkkGcO
+0gKWfKkWK0z9U5JkRq13JDkj2k1PYQaif7bjdmzECdUtNMV5rusdljAJY+zw9QU
9ZVoVtyDeOW36kFCxwsmbuimri9ifAE/ThXWBTQNIwel+bGFa+Zg1TD8ogzbZdPa
YrsYQHtwex0pRHKl0q66iVXhzgFVNIFCAi70gtvY3ZWLKT+pVnGGakxMtPNBfo7B
dLlf8NeI7G/rTElNRyAlOtdk7lXuZ6Ivxf7QxGdyxj5855EM5QMgAn8rPI/HCqR2
xv5+NodqTLSc7OepzrsaHfUzkjioeaiafQwDwUuGBtN3ze3cyePTxJ7v+8jA64RF
IuXB4nzPfaIMRevSVGZxdbYSb336NFtHpILbs69/THVBzc1R8t6MdyZ2b3NqBnzS
KYQAoEwxV4uDNq/xPIPxtDAdf/rIFRHRIBO/z7Ppj+VhjmL7M35zy7r4N/6Rw9rU
nGdTUFJLNOxqnr0jxH5gkcBMgW5ra0/mmyslKvkZFHYoO5yk53gcsQ1MZ24JLmcZ
gI/EyE4JKIQL/ybYcIeDjZSQhNkakLM5+KyN+cvcHFGiPGGyRq9Y2AsQd7H2EO4r
KZQqBZ4wdtrW4sZbeBbKsR0/iHXYYuHOUlvmfDgmTC6xdSOwshcKi55i0I2qdm4K
rHpGvbYChsTICz8sebGV8rBDuW8kUcjm1FyhF2hHH3iHb6hXeWyPzlrKqj+zgNw/
rF4auuxwjeCE23UIbREaIQc7CbSoxm94fkrBMeVcEQylPg2XCmNZnINzy1uapwv2
ZCAt63MHEFgykClVcaldfRMprcSysBZ6ebFY2Z6HjyznqlrcY59NZG+VUdYE5e29
LKFD1fR4lL54Kq9yxwrPOD3CyWhN6nWkYkh2zQuPu5HEWKuY2shnXepJsc+k7Apo
YHfJI7kaFMnzfc/MFAopojsKSAJIfqiF180UAMYnGiiZLMGWCYUek4otLhOrrS4O
Z9ZzV1IzP4MT5f6G343/1Jhj9hSvSPQlOFKBE5VVlrH+/bCwyW+LH84/QNN4GWqc
y7xVTT7KBj83hLZusMajB4jw8XE6EJa+VGTVeCgfJIgKoifBlsgWpqvlvKm+afvt
q7ej+c4475uHdea8fM1YeCfwKy36eTNCYgUQC5PkWtPgtYhilcJbQAF6+YMjS/ps
IwdU0x5rY2iRhXt74IA8EU2bLWWTT8W1SNNrN1lVRUnTYPcsnvv+jk90WOLSA+eT
D9jmFDKUYCAhLMjyls3A4TJ7fGqab1aoW6F2LlIzMWF7/dr6eWpbayOYyMLXmdXQ
6VctTxE1k4PgqA7V66SuG4SgNzY2tDZnm0HFz6uOq2kOKx69BYqTYfqT3GQKHk/l
NIGpNHHzxpVApINzpRIRh7CSAtm4g5ywGUHB1zKX3iXS0GJBE83PDhoOHDxU8Kbl
JW+kMFRA0MPJk6YgJvsbKaorat/OEEZw0r5cmy4SXwzp6OP10BrG1ACRhYF+Hdiv
l+Y5UvjyokT3qTqqL8YcVss475mqIVLX9HLEV0bvMhFQWymAGfvSVV5nJ7Rr50e7
SAZ+GY8D163FFniAlqbadRM0Cd3DLDW4i+siaiLKhX31TrccNedkfApl4zLQyzSk
qW5j9Gkx46L0XqY5N1kiaOqdiE9semA5Kn13oJBXuh7MzFT8x31S15U1Y2Ll9Uv3
3cXJjZBLb0RG/uhyPjb5Qe9fQ98442ZdwOQyxBrI28ZGd0Ptpe0dcrQeF0B5RuzB
Th2pSe/PgDyN8TI7A0BxaPRlWkA9BquglTQniLeElgDpqPylIj+3V3b4T2oVmfev
uUlUvPxqlGUkQndZzKQ+nQFz3L1AHOTUg2OCDuXCLfouw/qGON4CLA+NJsSXE9tf
m4LfD3xjaQQkP/pLPsee+LFCEJePzilpfuIzf3lDX3rWKNckdXpVE/FZ4QUvzPL4
lxb+8df3nkhEd976p40MDlKTjrWQN1RWzuMdRUeIyGmrQ4hl6oA6vnN29IzdkPaE
EbuQ8SoqoxHwNNBI/vIuneT5Ubnc1yy+BwMziJ2dpwS85wCW5ymf/BGhpfqcOoWd
DzqOAo+G2mbwrkDJ7ydOHMjpvuBymZLCXYez0/bhenRIMj8krlMvSsMW5b5fMoQU
xLS4AurCEaD0XaoFudH4SGoWF0xERJGfgWF+77g2IB0KjZJ25klLl7REzdaq4KUE
OyI/XN3sGdtMTfBj6Nzslw3Zi6Tun/Bnw9/eGsttfAullc/S1c49uHR6e7y0fMKo
/3kRE2vxJ9HyerAnUstchyrUxkgzcqWMWm5m6MG9diL+Pcky6QQoiIPcq8NyyGpY
S2BwfgsWdzNiwtWgSuqrzXdwKUR8lPZxgpr1Wo5xbOllSNUUdwhMg7VVx1VuGJ6/
4OEPmy5CGI+ori7XlgzYTP5+3KxuZPfsekOIic3wL5k62W/82OrLh7zoPLdDmJtD
8GWoWxmJqxIiSp29xG3QQeOMsCCljGEIGMsHFOV5MazVUjiCN11arnBc/LEsSw1K
av01RTbkuVE9lEV2mQTVtnMdXRope2LV5GqQQesDlRrh8B7Jyqk3yzpWetHOdXu8
ZsNJWWzIcrH5h27I70sAd0zCZwZl5UKL7ACPfoOlZ2tFmNohxyxvW3vH+0ZghsAo
H6UejWrfoErf6IpTE7Ixr91xrgTuhRpTbBJolpe9jqo7g9+qW6HTOrZ4eq0beyxx
yF+S5bRKO6sLwkL42PkES2aqEzepHVFpTubNnteR2q1bx4940NmRoy2d7TSbEoyr
nOXojZ3r4vRuQMGmWBnjAqdRvxaVA2EqQw1KPDJi7SigLdvwcDHW1qd59H2Z+l2n
Q2/XR6scN1LYWIKVUUV97uWklQHFp/U7oVWkMPqsSyT5qz8m4B6Ob1fA1A6hnI1j
NXq7kjIHcrwaMWMx+2hq+qzmbSXPQN4pjX+i2BR4P2cJ8x1uUVMKOO429YeSt86w
uPwhv9PStXAJEA1u5RGqq2iiqXQPcT/Fzf/2JI+6KtxHkBCGyeVtN8v69C8+eV0w
mLt7N2pGCZBI5jxF5IP+4tGqL0Caa8pfaWMxxsWZGGKo4tJ6P/9JXxezHIYtlBTz
xjCrdJuAiqgBVw/EJMcxr2uD8BfnYhMMHyNBHegLgfn+NWi7/K53R5dI92Zglih2
XbEoDPmgCLN3sUWYdbU1NJTUs/V00SEWrL3Id2HG67FD2zTbYelp1Fa0IY62+7Mm
66rDW51sJl0QtVGCnN2qjdwjSc4/BuriRnbcW6KGHyjpD12QthsvZJGGIuUMGxVv
rkhKxOGORamsds9a0FTe6IboOxthRrpzjkhfgIxrD3JKUkznXRLM4dwhIparl1cI
cWFHWT9XOOqcD5lKnmEEMw5GvL/1lIGtDPo6JfhLTCKqm+yxgj9523p1tZepJyO9
TS9xXxbjiymTNUEw51zW3+fHFnPFLN4IFhxME3oN4ZzarcPpmYJxKNbR3gv3tXak
DGN3oZZOVDCKu2ObCFSJa3jG72AYOfcQHTnXONE8WTJwlYBClaMyXiSdOLKkp5gr
y2jHRi8B4oUGsLzzrapq/7P8scIbpJAqaXZJHisntF/GKqNYP1EJFm0qEqjUG8t6
puEnAqDifZITLmiVIVeFpfjcrEUBCw+PDN8hS265DesycNPOJUbrMLU2buANJ1rP
+5P3x7f7wD+6O5ILXLODnCe1e5BXCMZvLF4jT6PeOBj8UjNdMl5mXX03M7Z0lbrT
WxtpHCvatmhtHLKc+ENsdwthGCHvyFCo63lO+NJol+A6+OPWZ8kAitHTqGT2fRyA
hVGXXVgabta+6v0H5MdNGhqb/HKbOMT99FJNDJqP1uQHkhrA5E1ExckrtyLCjfWy
RZtmD3RPKTL8ighPj8YFvrhafXscsJr4XGi2sx+L7ulMoFcqg6ZmJXFlTqe/C3JG
UmK+0a/6J4ARKe2pv+vIq4TtfkqxBLUExrrjsLOD4bR13iRNS5tm5TeJHYEiCTeH
YXL8J6Uy1XFgCreXIWP2FzoLtkFYzYQMQ2D9ngspurjNAqWKOXuHlf2gECFXDE89
iuCSixUbziauWxsgSYUhyeGApI9vsXqg59LVoyEoSdZOqdEqR5FraKG/VJTRil4U
E8625t2/Hfr6+vhW6iItdaOXBK/8COLPRDpBe8GkZ9qW935VCO1r8ihiBBJppqsW
O0ErPyGWipqTBKNU+19utXyA4hJHw7AKQMFZmUaKorXI+JTyL47qJtkEq5dsQvf/
o8kbYHPhmm5r27bdntq2bbentm3j1LZt27Zt2+7zv99NbrKSvTLJXjszyUxmZoff
e71Y3Uw9eJXCb68/yjNPf+ls7cem5dkGuo8WwQk3ld/zHpOP0mXw2znerH7c7iLW
nFa5PXkY1CGU7GU7kSaWGsq742SMqaQPvqMkV0sWogDVFvZ0IFa/XGZ6GuZE2dzC
cgwurmrm3raMyOJ3xOCwViKui+XLnC7YhjDfUkwFkhreguq5JIVF8uK7dfV2VraN
FhMiLnyjiXBLmCIFHEjkEC43wcx+1ISN+CeymqLNKebJ6nlkGEUuCF4h01+ergzH
Ua3d7+parSjtaK3Rw/PNP/QlDY7bZDY3vPBc9JvJBWymLcZm0XXqZpUSpzkqZAgW
MtKVJeEVst/8BDed7nLxf44LY+bwkWt4rpDLkb1QgEnKL+77BxYQ2NwYnGQFo9iW
cfmVsgDa3X4LVhG75hNsP2dyuZatV1bqxH8BdOK/4F0hw9hLRBcL3nzujhOXLRZ6
boaVL3XZ/nqIYbUcn22IPmczNzs//jS0J/ZuBtc3HAa9Xr73c4QI8XEK8oA9ravv
mXiBn+8pAPDfqCp39j8q8y//QFCYk+wTKrEeTGizVSTU86qDiBI8g5Kselq1AXU8
FcIlHH25qv8BUCZf2RJ7uZZ0eeeorNYFlZK3Lh7B5C8ajBu9kTVeqDm9K0LQ6K9o
ibglaG7FARe+apFra0x7tQJB7DGuHoi9yXc2e9sabiFR9jWi0H6xIoj9LPKaf+OZ
TJ6Op10seRdJCik5aA3LDuotSHaeN6t4PRhmqJSG4mr6B4LpSn+Lf4ms+LIcHNQU
j5ZefF70DGUTk9utPklnX3KvQ0jhyuNItEZ6WCU7wI1YqbtHeDun4Q60AzyRy60D
1vysAYL/uuSNBIIRnowyOnUBkZqLR6bQkHUXjK/UKqqBaXuApZMZsdbiLMjO1evt
sRAhDOid4iTlF+VNoqpLFCRYBm2zPIvFSzlOX9738mqEiBybNuxW35sPVychqRGC
p9/W5CK70ttsZ10R7roWuIGofc6ou5Jp03Yw04WXUCEl2Hu40F2wkd13xpwer+0v
fI8jUfZKDTzy9rt1yiWLXC6neYAYngABtCkyeA1GUTptJe2dfyVxDBAWiA30mSCa
arPtR/DXOQPq6a7MXusCHjvGjAoS0D3EEkEc7+ZJ/A0SEI0YG7cT6xIE5COxXdZU
OhalG3E0z8T4lc46ISvcMCpc+W9R4Apx2GCvwbPtDze4EMMNzCTkCC2v28GO5b/s
hYYO0Wh4LYzEI6Q+pPuEWEY04KOWq53DKxTOmQXWUPMbw1oUAX2ne3zk7J8Ka7zP
0SKY0+6XnPm47r3F7Etjv+gnmbmh4ZFQY+ivt9FH/GoX5gEximTslykAAl1xyCWJ
oLAUwygLsHBa77sbxpnIGC5X++hysrj8DKemai3rkwgMfvNRj1Vu3m0vSVawNmEo
yi4eYfPsm1aKaFodGPGeZQq8FzwGWL/xI+cRVeUFrf2inlNfNTRNHZHNxDiIufCa
dPoKiHm9b6d3q/cwOhM6eAzZOosrXzOLnHWdbbOkGdsncLsWFf5VkykIZgk/vFV7
uz4c4trcdY7oj6hNiGlX759lm0wBjqOVyfJ1smylEs3C6iSa/feRC9pfeYmYCyba
N4QimHKE+JGKbTwp/Go1d1M200SavXIizMbChamoG3IHhWVZ4GGlG7FysloPSHNi
WeGLTgUXvWqtBhRU6E41c59NByz69PRqFDGrnDarrRdw1RqcJGFJyTP8yEUqFvwy
6ITs1kdJ41OOVF4RqpuWWQsmhPs+vHtRBwf0jx7ebO3zdm1j32bykjkZ+94PoOFD
nww7vKAA9tP35/SvfzqG5bXo2lPfKml9VXPOsM8WvlrlCAnMPQzZQpiqZEw+DfxD
zSnKdsDmLzKsiy3TpWt0uxOWPKIUwZLdtJ+p/pFdlJe/QJitAfQG/YfANdWdwnrD
h97GF3XpMbv05z08NFn0ZAYrVzDRfT8zQvOLKAffWQ5RQKGI4A2FsCbNEhGIJ8Bi
mCjc9XIhMp62lPBcN2ZKO+XqagdAYWkwDYvMua34knoY2ymdi+/SBv7Dja4Q9f7C
GE1jcUYhaQcuIqf0FmfRT4JOPGan4QqPyQq29Rr1O6LhDpkvPrgYLN6QvrKV8m3j
de1TLPb7Uk8eJgZ2mOMc69MI4B7KaUPFEBHcU7gbt6IGOc1zr/7cWas6rGOFC2Jq
J8vItWVmXzoi5x9Ek8aRy1ngZb64MpXo0SORVJF5B0aG9YsyTou0/WYulo67/Na3
t0NCSYMCOfjZHA1NYJ1sXLZ5ufjf7d67IabfXp73zs7+WvvrGojRiNnpmvjOTsIl
0o1+77FEyNwmRh2SkalJQ6XtXCPfSF0j03MgD/LDWXE2fUcF5HQzR2JJdP2O7kr+
yR+uOI7HDQlTMJr28vl/JJS7k2JQWaogmuC+y7MpnuinOrXTGub6IjPxXlewmw1d
nbiUT1asdHOsufj9ytVVwiZ1d2BNfAjcczRp0wX3fcS4ZHBaOjs/u3aVzPEO/HFb
NparJm2IB0XuaJeY5RYKcwJ8k2lukBVhVRLUZX/CJx6u5KfuAJCKiNkFqMbYkmuQ
Dj5It/n0c9TCFWUSp5UMTpsuuQNgAAaN0ircFsAg7dJKbKzAasrFpfnNVcrFGu2S
wGSKpWhZjM7SLH3moYNUOxeC7RvEWtm3UWcoWqXzyVI8+nrOAZQkuo/LGCnnE1GN
tTsvr9sEIoUFVXsiMkPMk4reZK2aNcA3rdF6JbYurdGA0QxQxmC2RkLK+R/t05+c
7RA7CfE0+xg4jybCcxV/W9SB5N6KU7qaqIk9yLPZyvDo/d2rv5l+sfi5an1y3fpA
teV5777+f9zzfmI8o+XtX1q5TzXHcDdKyerHxe4FYwIkCPGI9MUr5fs2m5G/8STo
9FDPq1LTyqBOBZdb04vXon5ahv9rGPtwp7DV1virWWvzy+eQrDv1hM4gQjQZlfgL
objZqhLbu8yGkOTVDaMpOHHLeYctUfEJ+7kY69sSEOXpb7fMzDByDYf+Xvd4WW+/
AL/NAcbZFoBA5OT6lnfKkm9mYw2MZGPum3GpKYdHsr15KKKi9xrIUJ/SDSjKTma3
OdO2XJ/USb/sNFH6gJl9+7tCKAVolIkFbZQQ7w6/d+OvwAvk2Fl4hBgHZ2WbeIKw
3Ej3rH+De+xCDnN5IoGL0j76YbL/OZR9aey9S/WogwICO4umWUpf9aM3zQRueFLF
RRLQwBZMK72Ryhmo8KON5EwwKugppK1X7l7DVv+ftq9bzRIOGJTATFqVwFjo5Gzh
pccJ4H8fZKYob3BoHcchWfr7BkulB8d9oeCR4rcL9XlwOB2iZEyPP0jGb25zCvrf
TR9Pnkfvx+0ZU/Rkdg5As8Q7zZB7B6JcZ+ktWxOQdOId/vve2S83M+G2j5VqfTty
s+Itvy8UZ3NOSUkd7az47o4l06SYm+W2lKmaKGPToauIL1wip2Isj6GiorgvLWMM
LaxhmS0+qph0J08j4Q8ruFUtjKMaf5+/0g6qm2Dy0tpmx+ta50LXf9Ogs9c/MYaX
/1DE+GD+ce8h1gFCPQGWD/NMndg0N84wJSniL3LsDSENZHSXldW2YaRw4luFZjhk
EDXjjQR3d2KDjmH0yh3O84kTaNcSHh/vwDj5/PRx2hII/cfKX5pUuGj6CUo9OXpH
iigr27AnRJJeLTQqT1tWzRW8MfT2/IPZwIBz7h/8466/2aiW1wkuoXpy0MWUkDNX
ivDU7O6n3NmSsbPtaVEOAmhCmbsBkB9SQzonWl2GhCdMzVxqOH1IkKZtFFPvhFZ5
DjGT1yXPT0/psBhlzDm/BHXvpyfBp+iWt//Do+pQyE4Nv0oc7Z6lJvVb4RWw//Wp
JYuAlZblGHH8YTp/CzswwVtzni1z0zXY09UB6I69qHus8Fv1eHm6/KKVyT16Dp0X
12WlKDM/ahOir0b0m3vWpPHRMHH0iqfE2RMcj+YG8N8Ue9RKhL/2Ba55qdg88UNT
T2qY0qlP+GN0cRg/9OSOWOak9P+boxe1u1vJgQDM25Ze4haJ1N80vI5MKcrJpcaw
KloICCkGaZWARUlqnogvEeW0XyzkRWfSkY100HDk6gMrvmwLCwOXbyWgHVW4BLBz
tAG+/jvaVnsvgXxXgD/zFoE3K+38/mOVoM+C+PmhoRXfBoAHOEMAxyFQm/pabhCo
z8sw3X7VBe8+7Yxo9ycdwz0hT4CXkZEQL/Yng41D3pAFSnTkNE4cNxmxd8agKw3U
Me8IalNuBT7zgACLzbAof5y7T8osb680y4cjxqMaDuIHTUqkD1tOtM8LEbvT6mev
CgxwvOY+zd1S3f3MpUr1fd6J59tEartwesuomtcQ2I/Xqo6u1w4vL30p4VsM/xc8
os+Cw7CGreqnvPHA6BVbIGWvqavLaGZsVJ77wqzz+EbtKuH1tqa2xUB7K4/FEMZO
WOEmPiZfwVErSlNULpgnlkin3pcTBA3pSpG0//lJOfFX11nXF+TfsS6JGQgtgq+b
D+UiHMuWgCV5HOfOegeH7SizZRU/oZ/ZXFZq7vBObjJ20RI6ETtONVekTPhlPsUt
4H+1nlBvr1aZg4Y4DJeDobL4QinkpTjlJGUWYNL/PNGAycsLAOHcTizsMldzYAmJ
x6FwYgKgy/MK6Ypz0YEl426YpTSUWNpgT3Bz2ovQCRkCR582DT3ve8Wu9/k6TTcv
LZAq82O6Y/b2y727jD8Dt2nLFfiNjwX4MCkq+rMvjfQYwegnKR3au3Z9OpZ1z5gj
4GZjx18p1yo/0q8ZfifE4V7lhsVP+DPOXDNnXamTpURRr9NCfK2JQYZybQREkKme
vTFYHt5f8WQQqXIAwkQQCfpfQlSQqbC/4wFqVspgNi5rJmT9VSubd1TA6jYLd2RA
ce2Nc4kAada8q3abx1t8TUdOsFYU9zsQQjjgaATWn8L64WuvqvS1iSWzplZYMwFp
VhmuPG27Jm29HT+UCZsnLK/DC7CmEAYVBpmKWKhrqZLGeLFfyqSJSrv3GtHGRndU
FC2ty2HXXq0csKgQslTSJrCGxuVw3TPcM4EUPs88xt+pWxP1qqwrgzuT3t2xb6U7
E4o0wJ07ugmDfwpHxzdgCu1R3brlE3D/CCBUmvR+IW9+/K1SZ7m9+PN6KXC4c2ll
eyi3uda1UudeBVBxr7pQ57lXAi7G5vBwEB3FerKTFye/e4a6/Hbo89y0osNIFbZf
Fn/Qwuzsbg+y+qK9BG9oKQ+QStRR3GBKNS6+xAozMbbwQ20OSjQBkmOeRKI9tUKJ
iGWlopLSR1I852KKp9KSR0fGdvYazyEFCAz1g8cFBPJoSV6uaE2XjrgkYTArwcrj
UFsjH/bd4w9b9Xy+4A+vuSP1XfBAcZ35A9qQnugXBPItin9FQRbqChP+g0Bf5aVu
1TeiZ3mlQCzU81XB5X/oe1IsyQGhN82tQZMUVvlzOGuC84/GSznc+QCYsqbZebW7
jE4teEOixmW8+mn1eIParz2yk8A+zI1kgon7fbGiUPc1TF4zFYe21LLtnJTb/Qbq
+TS0KF1V49rTpK2KuoiiEKELWvwnJsKK23dNBHN5Up94P2pmLDRZZeuPqphQX0d5
JfA6zznWv+8XL1oQ8ZnbkFx/g4T5MsoaDkYcUgJ/rqvFsoEhiL+/BQly/9j5nbdD
ggmuivsBSt7o0CkuiVMUNCXO2hbEduyLi5R+veEZfVQJVGx4TnJnL+ueBRyvC9bM
laUet/u5LXYke3u+czjD0Pgs9N4C171WpxsN5PExQhfJ9EsWM3J6iZZxvePmheA8
2CjHO0Mi4y7flzN2MktmxPr4Od28nDatEdFH+VSGBLrLnnyZMKesECyJSJswLRGd
34H+h7Wot7IXoAx5XelM/QF/tMWcgrtClgVL2ZxImFHLrBa1QOsI68csz7uAdhpm
izh6Ojsb2Cq00+KmWcu8/2si8OssjK/5y1WbevJijNAy1SJcI0ykFaRZLUqMq9t9
Bt4PjWb+UOZ3QreRn9ilufdpjmV+mOhVvRHp4dbUZ6RXN+DLCY2FM6/ijtKN6lm8
3R+js4uCd6CPwnnZqWZPCGOs5C7Fdfyrqvf1aGzzXrfpsztWsXFb2oww3zbNhS3h
o9xpSZpydMq+8OaIUknCFQlpJRnm8jq6JqrpgOxEXQ8msKw/IRW5fzh1vHObCEGx
aoSvy5CBheygJhFASxwNMxqEqebp1UmIOyY0g2XP9Y87aelhNkJmVwoXqNVbX2mx
ugkcpTGx/ZqpHhIeYe/VDv9p0gwXg8ay6giDzxRY0vqFekfooRvLI5zwj6rQ/3jZ
kHZXQgPpCw4nP+yEwRHCFkYH+4k7n5wcr5pKz/aENSSqSt799XJ8qA2QNEML1aIW
0EcwhGWEjKgBwRVUDYmZNh6AR6CtG4anEPJ23eXnB9709XmkqzPxs3ykwFOyg4gG
Ps4b2PtLMZBD1CkhsK8E1Wqy745tYpMXnFA/6u6CxV6FNmcWVANXR/4GRCjkt3gB
SV+s+WuZzvg+P9KjOy1au8lqQaZd/pqcgHlDNX2Hu41tkkanSx4cnvSXM0wtS/L+
R7rk+efNwUXh6FKcQDDep+tsW4hwIiMx7/jB2CFlUhpE9VNlHjtxX1zgHiesafZi
gquhv8OC/czS8tjsvjB/cMCppLlbkanej5Zhf4+F0gAtKCW6RPqiULKBFrMFnYXk
1Z3vLfbQY3dsau6klP+H1odz86dAS3xtJ89BA3YYXMI306RKb6u6rBsoOyiRypSs
8A+xlF8I8Q1we67/8x/W4vWQarktaPT5MKc8L0TK+DNlYLzUEXm7A+/aaDo0rFbk
yb72l+hmLoGiJbIv6bExqFkkrM6Eu/yrR17xvpqeLWQ5H0AgfxJtynejD9JAPGO9
Da9WXLB0XOeBb/VQrFzIJJOPRRV8mtULf1oxa+WgeBnR5wUfzp85DkiPzIe/sjk9
e2JUmEechI0PLZlnttfVo8/0c0DTSwZN0ZZds3IpOojbY5LVkLdJU5VrKnoT/Jrq
vh7fpsqXQ0d0H88HjsFJeY+/FwOSAN02+eXvvfNBaG82hrrRRcPLMbGVShjxVs6L
wAi4AdZUpjxJr0sCDoeHGVTWH+70vxPVtWU2VhRxnhoIKNVDR6+o7fDRS1P/zeCa
/GsXZ5rdUnfOo1zUCToRoviO+0A6ux7u+DIESHsKQxt2YqCVi0+jR9+mKI/mMT4Y
vrlc00stbnYEJQ3OT8+iHCsJl0Mtrn4+3HI5hH9aXPxsHB5VUHYgSX+ckfWsfu1F
XRo0UGF4FXFkf0IOZ+NjTVtDBmfjMya5BfgnrK5jCJpweIrKDGK3FIyF7O6eJ9SP
di1XrbZ5bP9TqR39n0qN+H8qzTgNGkdVyDLBFYQGsf/z890qJCJmJYKcd8DqOTxe
K/b3fkLjaPQySdObh8erccXDLbkFZy4OJ/s7uerhf+GqSsgE4NaIX6+8Ww3/L1oa
RZVBCfS9OMQkJmzG0AoNHPrwPbdFrRLT78/WTiZHUm7jaxKUXwptUiSt074oqLg4
51LuU2MFv0k3GY2oflW2SV/sDc5OGVJyHEU0D9eR+MmHjexKDHfQ6rWu3j/prrAb
uT4rdup5x9S3twoCvBuZ4LpatBiJOCj71BpXpPO/Heo07v32zfIVBkdVyZNDakgG
JZ045qvvMCPpMS9SJ7wDl6I6SfGaOf9uLjTOLpPGA7RnyraUgDVWL0OKw8A8Jlc+
oJr9a1cm8O9xa+Qv194vix8d0Ic1ymrDMth6uZkpTFyVuRTquSVaBTymH4d9FPr4
OfJEaVw2eXl8GsGjxhvVqUrZ0MZVahckiH+da5Q3wPsWWE5yY+tUGBIwRH1KxNUi
zeLr1KImNat1N1GrV4XSNKaKGBrNdikNWnRaKBMI8G/vcvD6eD1eXNI2UYxOV1pl
7dPzFbxmfrjAvydqu4tq32sYel0RKWv7XCcmRGy65VE9UN4OaLiv1HUxAdjuR89x
0hfJRZZrnup7mR1/5Y3zydOL3tkzZG3RzkkpNSIThGHBZ8TQVkho2nOvYoX1BZNJ
jNNru4mO6zOLHlwychbrt1zfnENx7mAJ27c2a9ZmhoYeJ0uOasE08tonlsfdmHrR
zOn3pkZdxE1eImJ0ap4RNfx6NL2+rD/0Lgo12UXK6zQE9XrEQg9H3bpyAVR0L1DR
mLwwQ5dRyg1rSRGPtCovn2agbiyXRk6Nuf7pY08QthUvmu9I8KNljQXMhiAzu0aS
0VPjjxOPhE0bxfmen75nT77L+dzDtxtnd5wPf160dvGKy7MhSma2gWlgruylr/1x
tetwM1liCaTPtVpC60fqKcWw/magxDR5VjwMJ0EUsUbyVqRbsjLQ+HemPyrRXnBo
cm7lMRZ/dzr4FYU+RbiSsJTVDsBkvPftDyYCPSQStoN+pPI4MOSZYhqrKvTlq3Pk
GQvl3BAQEnR7HIqNSKpgYlCysU7n+QVeQPyVbRi7UcS5EpWaoL0eViSrbTgh8jmN
Q2c8fnKvGavr3bNqsLXx17MBiEXfJFjLyObsRubIpbQ8ddVKQTMpZUDeugud8xRR
btxCLakw9rdYud5QYxhefV/vP0euER7I6vklLyoi+X+OlGVm8bcRtM1RZ08YJ6ap
PzBL6uo4vvmfEmDSHj61tUswtu9Z+NbY+egZAPCvrhynpGSzVv57CaP5qYteGPpf
NeS1JSN+W/TtJG9dVfVROZsKsoUzDCYxXC/567O29qWWkMXXiNk44hR8pyQY/vnQ
v2wv8JhpYYA+Qe89CC/jaMFzfZjz2eJbra2GB/+x+3YcB55WgTNXfShrK/K1oPAV
/7tS9brRXzF1a63qGFB/csGLxhjh+gbvxUM0UAwUhFkEPwypc72YrBhtEzDxQbN5
NfvgBbqYLsnkU21Jwsp5fDPNFdCqeCz9SRjNnn12pgYqNBHK9sbt24DrqfbXHNCd
szDRyHpogdwJmBietIlqJg7bRv0QxKSNcO2Q/DvvI+RE/qq1KdBSaZY2suDzpdmW
Hkemdkz89P2CHfS0t2/lzjPvISoT8vZK0yUBmW6LG1iTftNaz/MDdeXZrEjZhTEL
X6kp6FFz5jm94uG3j2VnmMCjELLALPNo5FOZsqNYvVZ59sYeZNYfDBqWIEvwrqw/
RJheoLTtQYHh1+k664tahEvcnlekE9mtf1oeG4IABh+SMgXPzNqMLHRFM+UWs5NQ
2cElhY1CYm8pujdJq1M4no/WNzkRST/ODdoV0t62GuzNy12ulmlmacFW/BfXXwQM
JK955alYCvyCdCD5oOwf5MfDQK0njnXhqsNv3YomHWR3YaseSDTTjXUJ7Eb2L+jI
sNwEEOiD6Q21MT0gjqKtv7JFqiE9BdDHbXujsrHzSwA7JhyIH2gfx2DBvVXZvGFZ
H1WFATrYAoEJeuMYGjci9DOw6lLcdFCL2Iinu3/owpaxTG4qtI6jjFYV3Cdxz1ES
uDnlMjrPCRNCQ+Pp2aCLYFqX6hF/8vCmM90M+GVXyVaSWHWqQkLx+7rVXIj+rkME
1gbFIdfTCB9sBZ6FT2WSQIDeqfdbFQiN2UZw1DLIcWqvDiZKIgnMYGkxLTi7zFLT
Q4mnoqW15AzcTw5+fQ8IbhAWxxXlwN+71tb0xp7COYbUs+sSuUGcLr0bWid/+HpD
ZaPZMLZLr/sQq8G+yu8R9KfvradMzCbkLCLURvTPv+L/hUJLSOaInxvO6l9lVWUL
a51iO6d3VugEy820lDsYij1JC2z1q9zHiJrOO9KHhOjbwfYInOEKuXHjgmbhwpBf
MfTBDpHnPJXiFurfKvtLWTfr9sEsRVLbAPWcUsRPf6r82Poa4MkVb3ZCRVomnBoH
XGMw+mgSolVLhTgyurlJ8qo/VarUnaLOYRS2TjoVXoMagReHfKM7C7SedZ6I2bMF
YSvf/zEfsKM994ppj4DwtuXt/Q5ijAipZMsoBbN6ESFPCXls1TksZO6ZHCOE2kXJ
/7K8mnusLO26gkrog7a53BTPzItzq+APwoJTU7p0NAzjKCr1HOk8c8w5TK21DHjK
sVNmMjlzQF3npFlN5HmvlMHHC9kJdNbqQDHBTL9gAJv3C94LB4ppuBq4QzqvWRsI
iN5mB/snX2SiXXyJttAmYh8CnJ4NwIlj2n/WswYC5iSCx0cs2PhnWFcVLHJlkBtf
/zYgvQZdC7lawvdvL24NWs3DA746GIZ0imooEPJq6g+/TY4TYX287UcsxT9VZQtq
Kqdm+qG21KJCR4MROSR+PR5dRy88h/OhGl1iKen1fDqHcP711+JJDkixDdmkIsUM
f12dJOuWmvCNzGTbzxkbWeHQ3s3076X1dNNYJsK/ssHZxn1rzpgVWfrRq2aQpdqA
yY+1F8NzryJ/UFDm3o6eLoCCWcn3zG10z8/plEYd4u/H0MHCw8QFgMc6p+/joSzP
/6PPLUvdvlPGbonUXWhN5PMI408kW9KR7KCDyOmmlzNSmJctmxCW6i4XNCgXTZpn
L5xa+VrraT4MLXmyb8FlWTMfnpfwK4d3L6bs4QWd30nsNQFSkPdCk71jZTiB0ptZ
JkUCEhQsFid+Rfp2R6OLOz16HugWlARVo5HNPBktUCql6FCbYhHqyIfmLZ9TuWsz
sNVX/YpYqLGY1jgkeOH4xN/kfz+Uxvntuq5owGAOUBcGAwa0olKY96q9+HG+aS76
CRMt5VRWMNguY0mZMiyinCThFrc9AuINEUqQrceQ4UhEcasWrO1n3GTa2VNKF6lH
DOgj4dksYLGnoG+GSWFHsf6MPHyGsI+cAw6j+xMU//CjD6MOJKXN06WCCbC2td+A
kQlvr08fpK7SMFSLQiGuSPEsBHA8vhpCi8K7uTOszKZCNchAYegFyGS0Ikp31G3D
RUIRu6Gf3hAmYCWNVOENFVa7aVM9Bsu19EVVCiaaW+VD5R9rbZmbnecslHF3XuDi
vOQZ07xrxcujusDkbanorecq6laWc0GfANy2SwMePVdEc6NbYvmYidsKNtvKpztc
06E5jbbfqzyi1e/XN0ajv4KaGOSZ4TYIlqxfg2SbzSbfHl5uDj6/yok3G3RuixAZ
G5KNjLhaFnPFNze1HI87DgSbvQnPoMWP/CGtU7wGEa326gDBZj32H/+I1v/tlIpu
Gg+wm/VKKCy7FvTii262qvoIbdNSAD0WXTS/fyy7RJ+em30Bx8/X7z52i/xL43/b
brZygOmmGL77pyn6+OhAMoJT61ZblWP85Ie4kka3XvQDjiZ7IxRRSuZbsEfSiD+q
XlYg8R9Tls+7OANhhP23oc2OCgRyh/zRdwTgdeMQdbKqLKBi1kqTlcroFTKKNc6X
0TmrhkxaK/27UjibcCzZ62UW4NZQRjPSj20i1nO5nMi2l6fbNOcyvcNnjl5/B7T+
aDdd2lFai0EEPhF24V+O/Jlj0a0rpRuCFo3X9EYZw9R2vrpC1HYOa//TcW26VCNB
3xD7ad87bAruX1dSEuX/nZiIdaopjfOoJHP+nbZk3rXC/S4ANdsVBDFf8Opq86aE
CfxEV1rDege35MBvrMfc2Wru3zcPsrXpMw+iQi9bzdAPSwnFDenAk0oENX06pI69
mfYTq6HVmObYC0Cosi3Eab8k7LhNbD/VDEjSImhBQUTUmTlF9ID29wuqcrpdiSix
r+Zz46pdWV1MPWItjteKj7mTYRxv2XzlhVWWQkZwn9NnWxCR63J9PLWpy0gEsVW0
RNQa3f4eqz5q+Vy174tLKnrypj+O9PKZlZYnyfpLrXDqua09WgLnsYjhrOonfCSW
Sj6Zmop2uHr7sgkar/JUyi2wTwxmFmuYAU5SO+alqgfcZGIDOXVoYEI1BxP0MM8+
TPXP/rwjZdw0mo6+/fG7XklBfGjbtpqctMH8oiG7OYU92I5+LxTmOqLH9Ae0ujPa
jiySpKEbNmEQSvFH6nvoRee/vDEbcN03+F0vLKj9myg/HGHMOsiKGKvLcbdw1HGG
Vpnp++WSyaXlPK6o9cG0ASAL2iZ+oHRrEXDDztJf1ECwkicxNzIcZfBluOahRGMj
00UsGKpP4T0/RnZTkjjqqh6CWlrfhqQiiGykesHhcwFpT9Z4CVgYZ4z+tu19z/6y
vqjrIVHzqxBX4vMUWgItt+/EPMaOHLWIHC2XFAQzCN23YenpeChm4ZM1qKwuJ7t9
M87ETUlu+dolG1b8/toLSH/7xmJWqBBTU7ETEOqkXGakdJ764L9CwUdkoGTcqlmj
/HtGAg6vsnOh2p8hg9bWmiMOivdWgNbvCIBcA3i99Fn8kCa99q/06X+JVPttI/nf
tcS7elxPum9D1n4FHx1XQqI9VXselpszfr6sNIvNXa8Hq/OZfxDqvloDxKYIws8H
rvx+EBtuIy9+ejD51Q4baPPSlkVSfw8mHmiZI013RwQ4wNenC4HiyUEBVc2GV30x
GBESyCE3AnBC70eKoXOU8PHFiFqig8Vop9CFCW5BEZqxo2RVRmirksTiE52sjZeJ
UzPzpO3diIGP73qPvTGT9GnyhK4KdO4IJK1KCkkP8kJclGpXza6pc5QWqFS4Jm+b
L3Y753zYKEA+EuzDf8m0oScwGP247FsVZl+z/laDqE/MiCSwq1vH9yHESkxJk4P1
Fzs9axQ5EQoMng1UuT15AAzf0vkREWfnELNYKCgZen45kbb9KmZLXWIIyNh2Nb0v
edS9FiLmPvKG4hxhRWyuIo9DtD1pnkMWBOfGdsxmFzS33kGKjOBGDXDF1Zyb4QeX
k3wB7fIGez6H8nm6qAbHwt6N68/R12XVkjBeT8ie3fyCJmSOkun9H/YHYezsZx3U
ox20Fo+FD24NV1vvxW77IQdA1G3MBgBgXaRMUA/bjzT5/Y69VuEtgvXqD6r7y9mh
Vf98AsPbsL2ypN+/Z/T2kkGIQndMF0lYR3PtLAEE1dQMknSxtNAWShgt7oXAgk9M
krhbK3spQtKyl4zDcOQa92jyFo9W1iBihyS0rp7pzn6nOSsKgsg6tvlhiXYSaWp/
VCs0vxAMJBofwKFaF+pliLzi+NIlWqz+vHx6UhyG6wn96WwdfDC7zeU46/KOu9H9
nmXVG0vgBgXwlvWh75CWB73Ux1o19T7o7FJTdn65Kw5Kr+4reWlCky3VxVMGHMk4
jLKwnLE7HR4BETJON/ncZ8x/Q5m98bkdNOccOHyHJqNzEA4g8lt9+NhEcDh083B7
Ofd+HdZ/zJc0936Cp6Eg9t/15ZvyNaapLdIM2JhqK/j3gpeyZEzZGOm/xKx+3Hp+
nRzcVqVuXiarYVmeARFi50+qnEWdSe6FLYJW2dPyiZUQhqJQvgc+F+By280N1dA+
37tygc0vq/7lRAm079Dbn/Wap2xj2BAnWtdfg6nZJ5gEMcRkWzXCMNmZ0ASBmLfp
VxUB0lzyPBetJAea/P6nYUSzhEkC7IwN8q48N6i6BQjfDcWW+yX0xirVzn1gkaWk
zAvL4HstbzPSWWnZu7NNr/y5e+GUTQNk1A2h5Y6th+Y/ooYRW/C8Uwkb0JlnhWqi
RW+oExMYIwdJe6dLRaxO7CLOPLHj7OjrTu8yrW/D29mcAIefrXO3qieNUqrMzxMt
bXfb7GlOFqBRMrRimsW5iHA0vREMa0fUC0RWZ8QwCYUXyFF8T5y9i7BJQWHzzcm3
tHCXOUYJjLT247N2UJe/Qyp3t9zshR6SU6zcCT4lso3nezklZjqz52XZkkH+77+U
UBgO3qtwdQhvdPINUUE+a+xPhaJ7gO6fpPhb3vDtmplio26wKJfLJXygk4R/APzk
Mh4PrJWNyl9EJXyCCanKokNCSddWa4OKWcKYS6xn0DVhu1nMr2TrW8yvDZcJ3NBe
/OkRVNu1xNtal1NP+iujskpZg1POHr06gUfXQl2ZblYWuasTz4aIeE17Fvs0Di/y
lcSn5K0xTcgMlDou5+Kp0kYXOWPPpTsNYyLEHqOCDC8nL79VG7YZ99ZFLC4uhpf1
H7qMDjp0Z9gnYttfH317wuzrHEIro9WgR2ZvD4fv07PX3QVPUgBd3tbXyYoC5Njn
08wDcJlcjWhI0Lzb7VdbHOwDRON2kHioh+vFPSPqHxxBlzFNQbLbJAKZfOuFOQaB
YOGvkxvRoMRXeqzIWJ9fruH7+dx2YXRqfGDIqUEgdfX5Cbb+Q+NcOI8rK3/5HNcV
1Zp5mu/qzBLVqEah2vJ8Ypsci7ZWYNXjYBezJpCEaKWMRjgi/fYZpzDoalrg6xL2
U9FvWLiViDLBoGar2k+yyrFm4Iwd+gZkUp4uXb5Q5rZ+jA3UAG70KjGpNISVrv4+
FhbFBiE6HDeSqBMD8KkgdYg1o1LmBpL8rthJH2FrQHTkYyJRIDAprEKQ4POhqVyi
otu61rGcdaoX1iPNuUXxUoME07pZ96HDKRJcnUbVluWc/9LCTEebmJP3PtpW9ttT
WzsGX/U2ZYNvERHoXGjURBWV3panx/mLle2Po1UFM0HzGm5McBW55PMoou9Bl37N
Wh8WbSafoIFyE1XL9zO8DmI713czhfK5yz483R70JTrZokq09nwxfSyu5BQZJela
gN0/hFccKQJiepPvKJpcA3k1K4Wq0DAbnDsePaV3pHd8IihRSnWQcd7Om965gUhe
fJAdYSRRu9crYz6eV4XNs5lVz66X0/3uDUURwnjyQcN06LvCckKxwyHrbd19Ecpy
9EJUM1EUw1D2JWimuFyg1qADMirRRbGcYJCAop6kozTIuuEEV3hRZ0OJt9QUQ1P3
YTE7I7izCfQceYNj6wJhDdvnnbYdJ4uPtPN8MCeHMnFPD6zDPaa5gmJRXV80MUne
o4alWBEluF9LWpNDlGcnh5yQE6rPrJBW+zDxBxHKc1EDTa4twdCcxY64lRprg7gv
c9D6O0r+CkqTjwCA66+JhJLeHBVmeeHCCqlCOC2TqmmcgTM00+SdkeqFPEXmLPiZ
7zADEDN+PzaYRRdcZNCQLlBkj8geDjCAwqqQweoKouMvB0mUDsaZC77YCqkaydAW
NA8O8bvgJBOIcVq3vmghMLgrBDWEF4OBPfNXGOMq8VaPE5EQryqm8EGNbRczmi6R
gcilhyh2/RsOJdGJyOpyv/G6TJQp6kSJZLyumocd1Jd8fpXXXWxJX6oOLDu54XOt
rXez7IPIlf6nrJCvUFc0pgPxPogNYzNHvlkRv6IPkWbe7IVGMWh6v8Ns0E9E79Q4
OgZ1XLiH2V29ExNboK4NtDUQkl7y/jcI+sDvRdMZYpEGsEGHrMdURJsQI9d+zIkh
Y9MWg4xLjv4cxZedEnzuUz/XOcj1q7Sd0DZI5Sg9bMb4j4IhWaWQg2IVXkSAE/NR
fgYYWyprhFJSw5UBF8f6qqZZ0X/1BXo+WEbw3nQ8ICS5vf9z8QMpLb7cdI3khHCI
1xnyzTjkLU8dqzGYxMazu68h2JG1AhT/sQI4YtKsnCdDKsJrus0xLvPkZBkHSHXX
cH8HJQ9yCcT8veYuxHGNp7SJ7ctNsK2j3qmEGLrfmQtBCRLd1R45+CrBmmPqbZRs
s4gZGVjvcXBi9EnkOt0s89mt7swFr/kwHOdntzG7+bxzii6atrD7ECy60WH62Rzp
00EZZtwMbCV3pwt4z+yLv44O1lH/UPi0IXRlPHCAb5XQiOjP3DltmT85w4SjeuPY
GEMyvqFKDdCOcrlQoJeQWioQ+IMJW6IbEu2jH7SZGWmVCQfGyKFzZSHrUx0K55S3
G5f64j7mpMr6nweCEqEF6c+3dVjHifdGYE6xGru0I9AGsGuKZ6WMAVmAEAr+Y35g
e4C/ZAYfFP0Uwfkla4ayqQBVurJb4GwTZRJLvebA5OEkyaGmri4wO0nu89XIyKJO
1XfeziNAbWrrxp3cNNgYGRNzBAJIjaneyVHJWheNfx8xv5rRTzthlnRCT70Q15TW
9WmiIOPnruGoCbZ3KWl1YG6ZUi++k/YyU9MkvzRac0kLPdTLmK0gtQViGdlKO/yT
XvxFJEwp0tSilqgrFIa/PxKTqlAuSaLM2tz672DZbE3GkKLCXz8X3ksW1xNqy4DT
EtSu+fWL3j/AsnMGMTGt6KEO14edDesc2jB2q8FR6w52ZdvWSdJT2pyhxHnmlXrU
kcqhvRHUBOupMuOgJTR1HDanr4/uYe37ccfgDv0JfwFS2EJxOzAJX2JfdqIhJ7O3
48tRo5aio0i4D7GSycL6VW473h2bF9og6iPxxwL/7HhBXAAjI2EESbaibAgr4qMM
pQ4roHrJsE1H8AEMX0eB2/rH6tM6FAiwnWONXU7OYz/6j1TZSonkqhA6q7PNx7/y
X+2nr3cw04JKKrSl0aVZyPOho4eTdfYjg10obBHCsW19t9206OqddEZMoxpo6SWl
IpNZ6qybSaBQX1H2HcDXbiIq8lJoZn0fjaHwPC9GQm6Gjq/0j9Tj15jw+J+0KfG0
7YyOQVa3CZ308CLDT4XGGiFWhwXI6hINgQMc0jYwLkCrvNXfrzzYilcGyelAPiq7
ZSsAOcJGIfseACAX3e+ntVn1+/7i8PDoaeR7r+9rrMuegaGXPCC6TWk+gt5Hhcpn
qA6ugRbnLhLnBaXlj1csuixDZQv3NaHxg+8hnew91/VTXjGhWjbuxyQMF7PIlPx6
QyCWx26Lm2+kj2TMQfmxW8BWHLyDSJM33KPUZCZrOGYeYkezFIk3P7NzcfFJ3TU7
e7uw+KSbbZ5PufbRPO7hRdpyR0D2WHtxU8Nx0wddkEx4Tt2jON9rBnGyFt1rBqXW
z7j9fo0Zk/+xeponkbGZ4W3BPRC73XeBMxQe2xgaVVcDB9njb/vr3RvPMA9mpXKN
RqFdE4e25EZS3A0YHJITu4PfZRxPt4HlvdnIydi66AwuSojI9D+CTODPNlL2rHZr
LInu+9v8/IHLrdhv3O8NKYR+nRnS3qF6F2RZo3S6InfPkvtJPNO47ZIGw5PC/KKS
eNUZOz9WzTkqPHBXSfBjRgBabA50ulozGAVDIfVHp6eHZurTiYqXBCjGGu3UhaAR
lYms3NEOcuTE0sFxj4ErAZsxy/+/mV6jAKduwAifTtvOLclbEFWpYVVV6coEW9mo
zhkTsgE3bvDLLFMspJZEAeANq1TNhlCN5iSqcIYQ9CBw3Op+Yj1GQBuRYOBMcZ8B
wy34zp8Y6nEKgdA9md0yGOlahKnPuiuzEZDUPSbXojmQ2uBmsM22I7ir4r9gBCvH
ErqE0eRkXnCBi1SRUyaEVu/98Dv5utMI6DD4+MVF/yz1V9L86EU0eocdMDyhd5ra
83uyC/XT+Jx3Bhb2J23yi++gDrnfe9bAmNGDrQroWh0hYC/Mf73Hq2ed98WC6f3I
PX1+20M7T2PPvnuTZIdxxPuXUFbGrQ1hNjgncAWGfRySRvNZghzJgyV6gCghKUU3
PPEvht9DyPF+CBmiC/xhFJPyKtmDLDJjq+CQflMyCZqKPvDPgx4ckGMAKSg+bvoC
6BmK9SD1AiRloTx/2fg/0ZI6S6Ss33+RZK8DHcYyAZohdCvBNbMBkb5XURfSF5LU
r8ch58GoPUIcqQRf6h/euZOyxHGnVQIRJ0CitT6MoRV7de+FRENQlYV9B9kzn1MY
n1G2Lf6Wt7nAYR6iKOfnx+/frnBRxomGX119wwH7PNCPJk/Vrg5OeKBJjnBRuFzF
hwpoCxR69tgzhOLGf1nVpZBYUQJCXPkMSh7SEq4tY3JF29rCrS0VahC1cbyQHz9V
osHulhHj3hD2rjksW7D24B4/v6s3hmldJVcPNBcPtHgz+szifzyWre56OS3uchSB
G+w78hERzfywDx/2fgJv9oTJFEBIg8yDoPNLhw5kIqXDDsuJWOJgSIzLkQQLvRY2
IReJG8QIHUPwCMcmHJmbUWSNwyaEG2I236OOUqEdj1lYwvSApZ+967K8BVhX/mEZ
OD6zEMfpi4/O0/bbs2qJiSGWVmMdWvSKWUlUPERoTr3B15smD78u3V5MpdoIPxew
B2Da61+oHkUnIca5GVycShBme6yK8lDRrLxHrb7tIppG6tfafJC/kX4Pt8TpJMLg
Skl0jdGABz38hr3m3OT+oNzZY2Nf2YOXm0/d7iLOQ1zTIDi6iPobq5at8NqTUlyz
YyfD7/GVUmvuA0mAkLo0tsEm4O2Pc9SYf70jtcljH54XrValLVv+Z9Pgfk3B/nmq
Ov3giq+DkX4/fdhlCFQholFUxsuEgBw7C298Nm3OPujqH8xh6iMK5j44HhHoMMRP
TYIAekOcjXOPr7ePYVxBygyjt4KGPLEB8VM6iuFXPfw48HtqFpPCi0EhAxQEKYEY
KkJjJQ9VTwmwRQvwWfZ4CiXcVykq5jU7Dht2dlOoPlBtlD69PkCzQ/m7LjNuS8KM
J/wIsYzMk6ZjfKVOAz0CJzIQ4A1dq8oMvyceA5cdHzR8WqDCQgg0lhMiA+KtaAtz
JGfnSLOzJKJC8HOuUR+CDLjU/D+Bzy4UBMo9exVUdEtz2eccJvfjN5/Q8hQVhSay
YnOEMLX+fLMVPs/a+GRMdHNc1WcUu/99WgK7J+m2CqbQF3ugrHlqClYhybjHleN5
tokHO7V5k5zlI6VAWN0Mzj6DQJMYDnRYxCV6pw5X9doafUgW0mIeIkJfnXuPAe5X
jUs8IE2NGC0tVP3OlJQPZAZ+gQUCWyCM8lSM6hwWKEdM6jLSrhtyirIsEcr++ymi
TFYhGqEqCcE1oBgZxHo0Jbnq0/tgRgb58GwIIvhndzQtY8/0F5X51FPy0vVcJeE7
VU8ahmA9B+1f1l5HzHHAtYEKNGjX+jfEP7wcuIuILNffnn+Q+6sW/ZhhDVcFAWLN
afIWaQ/sfbTicTsNHwsUeK6gXkKRGsXv6hl0I0X5O/iIjFI8NuchAyzf+lseqbvu
n/IW8MNSVyfSsbdp+nmpe9+6Qkr9853WoINuf9fhcbbUHmTxtNxnHXhVx+czSQRw
Xs5pkAyg76Wya62gofXaVonuGmaLyAKKdQKY0tzyBPUTsXKTuyTfM0JAhYXaYMxH
iLaIzev3gRBmmkpJsLx6d0ppONzGS7qs9PjzTLTciCHEtBEXRhQCr2gmfRtxiu98
JR+VdCjEGCQBy74MmhVTN36f7vzE+Ewl4OAbQqc9iMTeDq+5JstPdaVeWmDmy5y7
mHwy6LlIOmXqTBfbuq7Gu/1z8WYudxQjZzh1yVHUy5E2FG7UhplBoZ0BTPPZ3vZ7
scd/LPDW+yI3vVPinmr68asLHazEuPZhWcjKNr1v/6IUzNyCNZHXLz6Uml9Wloli
S8HJkSYGLbpzJbb6ZtIIkH4WVBPXm8cL6imjYs/aGOkKVeSKLlm5p0QdVBWyERQw
BIyLHEA9uo05zuxJlzze6vlpURf/04YmZ1WNizo6pdXmxEcf0bjgKSmstNhyxL0j
LeEP+hxf7LI/n7Q+w32dYzgEzck1KVMWdqAnZoM5eAk1yKt3CvNJzuzeMqvDHWyD
VI+IwqUj1IMQ5rCqYkKRmcBluomtKFbFWsHew0HRg9m/QzcTGZSFwXyUBmUEC+Uc
tXZQtTduIQ6swwhRbaq8jxE2qnloxcbJ1+56fF1LcX83qCDioT7tTL/FNLKJvdWo
LG94jmqIKDmNVO01PiRoeci9u0AfuMDxAPpj/XNB1TJNtI0wyrdaF48DslCJ36ev
ql4P7KkVqrccZTChgrilfjbZThyEg27MSduJxQiHw/yMQrKqU2IP9MThe0knF3SY
sjzucTFG0UAtlJbUoYzmVMlK45RJAQ1unCQ6mC6Hg3dlNIobGxDT+ck6Olcgzeuq
Yeg1BYeqFu0OhIFvpGAZrk3P6XpyPMZjU5FsZDr0OU0lox0ZgZmWytgAkuRbfUvU
nrRXi7YrBF5EGyXFuRKBJdu9z1lNw+XnmcnBgbWLY6K0wJZ8BAJYGv+78+91vtfA
Z0cYgy0zBWXm/Z3Pij/JsJLWhcKyf68gUbD3VFd3/8a8UN4z6Vtq3SOp6BPIY16y
jpwazvfpimMiUOeDgnHJrRc5KfKHt5Y+ND+/KiDGqbCwn4bSuNhjN63RD8HBlLWM
iPgzAn+vMAlX9GwGw4gnMIcpd/hipysC8yDq7IKrXWbQPO84SrpjQ4fL+GWUn+mU
6Wsb+KuChJTDQ/Qi/AOvYgzswJSb5vD0jJOkfKpLtE1GPrUijhZ3XG1CJgyDTQ+m
8vtMOAwH3NAqmLYM87I8X4kK+x4FntyZM0GCDdvpog3qHShIFfm4OgLpoENIjTQv
+k+9H8y3bqogZdNN/4CxYdKsPKIrPmWNv/SpkpXEOM4DRFzVzD7obfg63qKS9+cM
Pozc9T0W2x0Co7PEFq+rtXEWRyDFm5es33lYHTOFmy96nbsadkInYKp5zhDkcP0P
VyDnus+1YOFhBq9QDPq/LrT+wWOlaHIBLi4TMG6IytbqajrkPmnnZeUk1LKRcViQ
M5R4n+JIvysiDeAes4Hup65n8epBVIv9RAjTaocdNUe+zHibwFU5nQma8GMbt2n+
bNuWtMoaWLHKf4vny2Iyz56lLAPXR4l4wk8RIaDU0g/uSMpTarTlwrkpS0nOQZix
6IR5cuV3Po/wI+7mIYdvFkhaacHWnmzP+/eeaZUdJ7jSWdDwchW8Wg497NaD5RIi
hAJRsraZHhpAZG92DG+Y72WER8lGQzCTLZOXlzA0xkDotEdDWYYnjHk/ddp6VXZ2
tUN3l6Ojp2EPVYCfks6OBv2qWg2Oqir/ilV29aqXvoiXPp9Af5NmKYphg8EvpvvS
/hlpAOMPh/e3FnkqWadFMb0NIr276cuN4e9DnVrV1dXGUZ+WQfCDQZX96qr1y8xM
n+pVlTWutT/ySt0RIAvg/apR8pnBw2fdy8vFs8lnn5eTnf2U5Ix1hc732NGTVKTS
mRoHfOz0Xw+hE9vtU6e+gZKm/ua071rLPI24RcTUPUoE1nl0IAkRvgbKCAUQh8P1
0T/GIHPgdCOP0CPUTHvNb0wZM7aK/SaqH5yvW57fhgefv4z0stHsr8xPPQ4yfTqM
1Q68MbIu2SdSYs0sLCoAgcXWovkBmB4HoVU4YtZJ2HrxWV28lMtVSNA3EbA1ESh0
/b7V0rXZE3r9jC35awKsra21rvx9nW1J5QFXK5fiN1efABRAfpXG1EqLUw/FvcO+
64PeuGf9OfSDu9XjmwjnxvrOg3vHtjD0iBg7i5K+AuvKNDKnpRNXvyrjmtXJ5etf
o0rc9FZ+WBU5o8pUDYE6V7XBEDnatTXjdIKw8t4aJFvyKjRimLrR/jZvP3/uSvoN
brzemrmKpVLhkHb+OnlccQE1AcQVr5BKbQCvqnXqwlWeVk0LlJotH+hKrJjCCS2+
PSf+RqVwq1JtnR9Do1fI9ZO1usr46tTLnPhoVZl2rV2qdZUHnhdR0GarcH1qNmy0
SmXT1o34dLAXfubE9OXWdWhoicpeVzMD5Nsg9HsNDd/UUBFR5tkQ7YqZj7lOhWpU
h66ttzdupFrNZ3qpLTXYipPvETMUOzzYyxjR+j8oBxeWixrCkH7cZZonJDQft1Gs
shtwxMF2cSyjiZUk568GLA1ycYsX1BXk1b2PdQwAXldhK3VlS87KCj5RkOLkadJ+
OLmnHxtGF6lBP4Fq1d0yu9vqJcUvmZeygQT4OReMYrxmfr6VKhIrGExl3W21HZ+S
SKFTZX2lwSdCmgpqS03OSyy+JqiCPgJdQ57hBQFwmkbwb9Dosnvl1YSTXwVvMiNT
1Ppxg8BFiLBNJM1+OKDOGBlXYTMZniAzla+wtPpoXpUjrzfbleFsvBOTDSthE2E6
aOVyKa0JA14Of1UWfW06k+bsSbGO5dJfuxZIHjZTcWe9wo4P2krzgp72GFoMta0X
GF1i+UqFIlk/VjfChbPwLQ/fkejmKd9Vw+/FrEEf67KCqqr2PQ5tZpYa9weDNlpI
LZyGMGO1LYTFYCGY5oz/7Dut+uJo1n/pWKCqaiXku6y19/Pl+63kRICZWp5sKAEF
j7pvYTEr/Vpcyi55m4KhKiEx04ULfnbLCXbcfAB5L3KcWrdVVOy0vOTsn/Jrn8/P
m+jj/zFcTguVKAAAzLZt27ax2bZtnWzbtm0bm227zXbd+zo/MDP5cWe7T0SHD83H
giqrv9a1bYmavyvevR9u3/4bz79/7tBJcVp1C4HH+UeuD9VIboBBx42nhA4rHpL5
ByifZNs8eJ8Y+ttvJU6I/yHG6pXbQgZeq3e5I3vSG+ocvLX1SmycX/S3/AMvXHhz
3ncVWxMljUVfIMk+lI+n9wADBXzwdowDROsvn/D4fAsXEbQngoa359NWZxjtDnjw
u5OmCulafLu2rNmtYWHnRirRG7rYqoIffTkNps7iFOK2kB35Ia6KuBPEwoCuRVtK
0WXN6tkRO1+4/zQAydRVQLn/zixYFXcZBhBtXL2/9B8EUKtxzr+lcfFx2Z+2tEl0
xqyeEIcx2O1FDbH2DNZHeSAVMt5foDQrHsFafnncw9Hv/bSSRXFbGaUlHLso9qyr
3Xiuu0NvzjjzL2JKIgpW1OzvbFrOzmF5hJ5STo2P//LC8CGQd7lLnWbTWFo11bHk
sjyiYSt39mBaNsoI8/szVMs9q82ImV3CK71Qwe20wtjpKwoMY90LYBeTxMJkQIHu
t9fKsjU5Dc70TlSjPF36bsDasqi74WWtjjMSqzeA6GJmQYHzU6qyLaeKMFFfgTmy
Q6vIGEfPNHGx7UAOM8olB2UxKeFruOHn9l0m6kFQ3rVxclQh4UDoIbJn10nwL6b3
IdrvQzrAhXQ0650h9PHsouOaflLpBoGgxEsQBOl8mMQWTT6o+hI4bD8+fThf511s
1kpYxjAYUJ2fgAgL9SsK1bybxteanczONuUlkqN7ksJz5K+yWOlpG6woYFku0h6A
UQTx44W+fv0EWHRmbWlrCH/taFLs1YYML0TZ7C1alCpOwDvcyUwARQalyl5ql1I2
ZcKmpM8IorlFbFwL7u9ky0NM/MTPf4PSORXztWHIboazKFDx884/dLXYeVAyyo3L
L+tbKcqRCR31P6j4Q/woaK+exxvR+kexlD34sxu+rF78ONi5mDSr6+2IfSNyofqd
/PbB/Vqs+23Ci5LZTxgs7B9J2AyehsPMTubRVLOAWBC/9Czw61hqbdIWvRX3xfhr
XNzifOuV9+M+eST/2C/sXZsNBSh/m33pFPe7fXTT6H+00WvrM/aIu5+QEzBFZtEX
x4Bh9c5jbzJZDyuZJNYzKn3IQxwah5n6RFAkWOYl+8qriotisED5njnjofiD9PyF
YfIbMdsVBSsIBFmQO0H/t/YhilIUsphOQuuPOELtUh8+4N0FrGVI7sfRQXIptHio
qy6aB7tFvNW46Z5AI3Kog5GHyJUW8CPS6msl2CL1iii0UZxjS52WVWvrn+xLvzJQ
x6IU7sde+q6Ahgxc7WslS6rhmhmoPoUwa5Dfw43ZPd4fke8+N+seP+fvJX9IZtp8
hZvNXHgF3elkmYxICdKiApMZn2XhU088fhMdPBz8aDCfcT0V/HhkXk2un5cTqWdI
NzuL+LKLd5MXucRpUU5ZS/ER32K30rz5tC6292LpOu9Ygz80hu6YvWBu54hup923
05iLK0A+MJLDb25p47pPbZBSuBA6V3rfb9ZmWHUTZ1wM3ZmM6qJV4xDtgivucuhq
6GarhFHLTKKpF2r1MwQrAsa/ib7iDe8Qo17dQLHb4t4p3G364Wnqgccm7B8e9g2v
07xxrZk2ZgEcytxIumTLxU4vaAorY50UskjGiEvTBjdlPs05YaI9fbhS1+KJjs2g
TjFqJLOQlLgkIARq18WwDKUtoUp1ij+llPqSI0pAR6u6Ur2vLQC8edjh6j5oBGX0
USitlPHJ2HMH84/8R6Dp+5bxPZihawKDOF8QJCWL5VKUUeN39pp2quL28ybD3scJ
JY4xXAqyQvCqO4Gnac2E3aEGBS14jvd8COlTxGYEyrBRyUS7XnjDDmNpwZCCWFy0
Z3ZAJL0j7ODgnhwnh0LHebBjqfHaviGGkHTPqdRIFxUSAfOdvWDNOgBS3PBLSFMV
eClSGUE/bfVC1VhuZRujGFhRQhIBeQbfihE3v40s5kicI+u5p7gYe0aPqJAsAgJn
YXCYsO9Wo1X88ZypZfic3UAtE40UtmEqdXHy4eHwU1d+c7p7grraS+3+5fjpa//4
TY/BYyjsc2La0HbR2eFpGqHL0wBrM3qdhQMeYTQ/xhYakWwPwX1CaquJZb7sR8nA
RcHwi8WGz+SMGBBx1wGfakW4eKfHJh+OWHbfCDRFz5MkMvKwR4fL8S/mQRVNsJeD
9WTW1rvAi/umOfTB69RdID0Zq5ExMSSjJleT5jy3BeqbxaZXzTm/9Qi329d+FUEh
2soZFvHYnXhlYcP99Fxf++6GxxVbuVAWq23JG5CksrXs0gaI68Y69Zn2A9+JdClM
nMv9fOVrPW7RiuGgZjsIDQHhPOPT6mgGPM1QGpwfNS4AuknNCNWICa/JSngbtV6U
/Io6yvFgaksZMJMJpnsicBHQnIIjOFG5zYy1+yasiVO92RM5Z5SJzdHEB+d4tAs5
lSHmleCAWRHtrGjAffzUXC+2Vltn6aL+NxNuyaERJmHFPiu65sO/d1OQLjalcuIE
uHFx9Ig6mk5FWkOVZWE9S95Y9tBxIZN9zitqa1BgulTZrqlhEdG54egOn2se5ohU
GvRbUpe+5FPv15dNpt9NUycwn8bi6dSkn78nvU92A5M0b7sT6mzZvkKHDAo6kdNh
8qT4hyDk4qaV+O7QrFH4mrJMQaY+6DSkMx6Qx8pGUGSQO2HJAFSlgzChWwRF9LLu
GC80nVib5J66JYYjJpVAh52JMPZOQHvJp6O3S8mfueg8cJcAqkfWe5wMiLmz15Sp
w94N7OhtUF3oB3qG3X4Bq9z21xcM2nPg5Bxlkse4sl21qAjdcNRs2svVVskBRmPe
inUVtXQkda2nfxH5EUmZZ4YltlkmkrTyUF0RGakDCFu58rgYftkcPWMk8Q4E4+2g
3X+Oiu7iz4wjwSkxwanCupc9vR5130QBGuKV5iKJscaio4wwMAYEGll0R0pSK6jZ
fAq9ahm+AUj0iPmEuUWIuCk3gCCqe2De0ns/K76WIBulne1jSkMu7jsvzfc9pmfu
OZnyX9bvqfE/j33x28QHvKNIF8lxF1VYrtkhDvECWAWOIBuC3MaWFaKqfwoV0yIz
0mpwOLASMeBLxnBC/0bxBraQ2WAv8f3sxsgWl9KS4FaD8JbyEiDc4mqOwYA70Zne
cj6AR1W5hsB50uxvgWKHnD7olARxD6fDOq8yiLLZAU1NjUZUEfs7vvLFO2ioQc+5
wLZAJnEvI3i7oOfW2i1s7KbV6Z4TGFXOI58gQK+hsv9DS7YnbLXBLAo2vy4wyu2h
WIYKuF10gSW7BRB4xXZOjeOIv8zC1zCnvMVIo1Rx7JEKxoc0Tk2VGjchrDOnqBeN
eGZd8RPjS0aeJUoB6bUnEHuUEArBdy1GtYSnnD8RxOEJkSpoe1ylgWmJe9n6LWxC
KkJySiV50z3X1/xy7XXrlx/GDwuIFe9CNQpWoGob0CYRyucN8zcqBxYDRWlUdFzt
Sqjsx4L87ChpWc4iT4UvtFj0CE/ZXhfv9K5BjsvpJtlC+2Ro2v+/nFzH6+IORHXT
/qt8tjdtMV9+6n7g2HN7H6Vuu3xRTZCRV0p+0NhzDPCP4u8OTVEaCTSCroI3HrwD
1YWeYdsZT3rGjUZWKaXBSJpq6QN3yA7T7Xqep4Eu1kDFmgv6fwVGus6X4qL2eST3
mhCLoLSqFbxGi1Ld466RTv8i4HAP8nL+oMnemM3TRyFpArtakJihy7YDEDmHQFFu
uMUv8rHTE89M/IxJT5gp8ECJrCFTJ0ubbMIDFgmeZKbG2sEp+xdZzNkMefTrNYpc
RNC0QGbfyPO6zGIjHIQaI6MxaxMEA3Yy62AME9kQDbJCU1LOLHwCVrMarXcLojN7
pvyN4CJxMh5roegTupz2Q8jvIuKsBqJUMHQfGxr1eUApe9LHbdflQde/7metoZ5m
nXMNqWL1jCIXoeUlApHk8BWaRd0FuyyJb9nTCHlymfGaIM/BJjXWwo5pw2IWjdR1
LR/6wFClJqgTqhsg2s8/IR0s3g+5GctNCGTEcU0OChLPDLZb6uxpRZ2ZQySmeDW8
XHutp5tfGHJ4DP8lQ06mBk1j+vtH/4/5pRkEywcW2ohsVADxN5Yq5hypE8mpDdo/
830j3JKptvMWWiQLnBZIOlGDf4TANKpfiECg6yAqidIpJsBClCSsa02w38riStEf
oBBdikb/0MMWTTh35OCzMaeViv/Q7qusHEvg8fU/b0ta0U6Jka/cxoo+ODN5pKcJ
8FTr4BKG4+qsEe4Ytvp9I2sbfGANHF8Cehpvos4N0wDiFFriL8SyohsSot3XHHjN
MPcqQqgR2dwvnmvdRPyYlX+UWMhkbm0BPzxOvBzY5EJuBFwkW9ptS9u8Xu8o56pi
LFHrqOrga+PKYnpR6LFXMb3mzjj9y5TSHElpwfm/xAc9BYNI67YvmLjRECgUeusM
Yi7CetNjzQpwvrDXbAURjJKb6OkILScr99nonVcnITApRULH2XCz4D8BCvQMc0HV
Tg3TDDp0KBpDdEHkCJTVgfBiV60eNntSxNO9zoYh8xmvmy96hmfLlZtcT8m42M62
p03p1chRQd3K9MkTV5pdr9C1P01ZzsKegg2ltb33etjiXH8vMLe8Kpo73tfdYJtU
cKIz3JgXGnnUNqWkruwIW8HsT+w6v+uUtTsrauj6FJ78pgYjWzw+wq6y0uLd4/d6
tnd4/V1W+Wh/5/l47QnSFOSzLbrPIMfrjzm6hpf1u4cvi3LCn6RibopWDYC/Q/nx
i6lVvJmlvyZA9ysbitANBCbuf1UZAHdBCqGITSf5iohkFIVAafUO10DkTsW92Qn7
JOop5VfCPH9GTOPliB55KytykG0NEMXd2bVr1fOrzOcJEy6hG2MlKuXwB63vJXMh
SXuwNxW0BIXaUwPtL53O89p6iwvdXl1Zyc95MycYCGNsr+oEVri2X3wpPYfIlWRE
U48PCOOeJi7edns0w6H4EOmxYuoCGlr0V8m06TljToJdnH7GW2XY63MrKeIskH/D
IQx9U7b80FavWzW/BtLBQ1cUpEqccMWPuAW70Dk3E0A4bCNa6nH1MFD3vTgM5xoD
/5Zvjj1+5UwfgZxVNg8Kr7zge8czIaVjNF1xvgQ0rdK4uWtlhSNtvSiNy5dsYvMh
0xAkqmHe56KpgXWGwnR9TuihIXg9BvgWOXvFt1dnT7Vau3nZ+WKLPtMA6DUKz784
dx44PTDtBSATXBvbFS8Qe6aAO8HDEW0C/EjXiExlDQ64v4IjfARW74saYNY50hhh
nmNPrO2N5q/jiZr6enX1gvLlsLZhcpwh9P1to3EA877Oz/Z2S3V17u3zGQy7acXR
hdEgJ+1Mnw+/CjvN7q2xdO8b7+g4lN1trYlfI1xZB86DCSOdfD1YWM6BWEZTBSOI
sWbBndC/vtVV3aVpy0252Dc3GzmsyR1qet91dVV14cihtSne6DExNskEsMB1uyng
bOxz4V80rFl8RDRg64BU4Tiwn9B+nHoWA19bCG+ZLZOEc4bNYSPfKr30/YtAaMrC
OQpg0mVTY76KeWzoFSWxGayb+6tsu+W3lCG0QbpnimrxSPZAD3ps8mMZFqUDS1pZ
SUpZg4THCdPJKaDc8FgqWy9qW34IXW2Qm+crKsBoRVrV1DxlAWe6iIPE4FT1Pi4L
wI28J0aAzUl1iXP/KzZSULE57OHR9n7q5P1i1K0x4yjzzt092+fzVhBg6/sxPniw
4PTZr8BTbnHWbwD4sZCf2mjv7WPt6Pbo98ONG0O9ja8UzBbkY8j7CRWjlWHxaFjT
EErw9xAm8n/qliwXyQTR5XrYJSmu5Z1617aB6ynqnheC6KHkxc++nzet3X/R3FSC
KZdbPOBwqv/zDeLp/eRNqJaIvPAvukWFjxWP6ShGtVAwxITVDtJfr6zc3jLKWx7x
77CdwGALGEQDBMOlOaAh1blSP1nC2i6lxppYGTv9eAE/3kLNhZRZY6L9H4a4ocWi
w+t2kA/ZyZDE437WALIuIJ33hf2wky9P18D967KVQegwg9LvAaeXD09PoWz3W8EI
1wgeve1IvvGjjuzIsTqbfLgXf2H0psFilwxSoEleO7fMPnVmSrnTGf7Z35CYheRG
hAa+zJuH5WrXlIcDS2qzdxb3PEe1Tdbs0mSKq5uKoG1rXZgLMjdZArrjWarR8mD3
8apJi+NGeBe0Euwnj1EiD1N0emWO6y50tpGgjefvXu6wu0e9VYQxD8EL5/j7ZzHk
ok2ltYD3y/5qC+TpBL71u68PDMqJj8rW+ymaFAwqhVFAbIu9ZG2wr0rRDuc7yZIa
q6+HKmO06U7ejMjQ7LrhqpfoV+xWLc2fmxUisjVU7ig6IvewMbNnH1R/5LuNewiC
slbPld7kWXd8jUB8GD4E9J3NEWzjdsT/kwRHn7UnWyiEAh1eoUbyl2N7dx6LkSNY
o125wC+J62RTspqVkNCjBl5F2zFsf5cA58fUcritqgajoz8jQ5JRGrURWc8eLLJu
55VCVFLBAde6V2jLvhhBOb4IedmZ2Mpn42Bl1H73YtCLjH3XlkRLtNcsfpeB1dcY
QiuFGL8wRAv9bkLsDNlkZ7kl/rwdbd2AGzYbRVWFxhsCVVPYOA3MHBT6+SJoMOkA
1d+Gwo3PTPm8QakZNjxhebplo75verkh08i7wBG32FqLtW8nJKsgLvhg4pkwF+fC
x7goxNMqstpVYCOP3x3oFVg30uVzFpnOr0AgGoes0aqjMtOs2RrAM0EtIUio8JUq
yhml99xRveAUvqYV4ANPjWEFpQiUdAlTf+iSaOFlnMk7YslyOV5CMznEPNO/4anj
p0PPd1akeqcmMbIY/wz618Rd2GFlAaL64CGyNHkVflwXKcV5RQo0l+AmoUDd9kGl
qpE8fifT5XdXVp5LFIqQ36Jxt4R1peZ29nRaPwiuZrtYhUIPYWcj5kw3v/gCkXUe
JUvb2+ZAs2P2aTDXuZxddUBg8AAyKiH959vzdgh4QHLnb4zGTJAtVyle6Xzb24Hp
QjhB6LLWiPo6RphUMnX9D2cOoEMEpselyfcE7V08P/R19rChAB7toslyVKKfG8W+
KprATUXbxcm7iXRdS4s+Xk80meMjUq7XAsKjyK/m4OrCibL6GR+rVHRs8EqHyVvn
7SV0KWAHuKd7oC8KHIjD5Ysqh+t+I7bUBmK7pMr8RYyNG2+cvhNqCA74OGJ83ezR
6wLIIdyTW4cE8ygDbbTc2MGqKRLj2hWEtWFXJhVG5N/fsueVGfNVa4Vk+iERfVdD
RKM1CVwE2NKy4SFMbMZNsPEsdHHn4iJb6WywB1aTvvZPx3ixLAxx56X/0RLYg8oS
fu6ZZbBsNoyaqw3n2HM7hnJhJqt6pft97C4z10AVuUnTODHQeGsu2QxxGoNjH3tz
VZ2Xu6P3Ypfiai5ioItBzb+B99nQgaIpS4KrUQXDyhQa8mqvAW+QR/1KteE9EDOH
c++BIGbgV3trn1cINHr1W+s5Sojfq4aVm/m8U3AucNT+hDrE47+5/aaK73dbDlk1
2Fe93tfGLaa1W9deoh2t+4JUh3XQ/YXQFyM9v7incwXRkVbjD+Aljs3QmyU23sgl
RHUgyw9vjD7eaz7RVUGVZcP9hAz1sJuvGvWZuqhBLExgVJZFm/WJ1v3KrU57+EDD
6Dik1imLfdGsQi++wszyMz/2xBAxc3r5W6a5zvKIpbZI2gKy3SE/4cpXI7+IhOIN
1U5pbpdNAL39MZt3ZeA3IDMDkKczytbUc2Ggz+TzQNJqNVjLrgHBvwbqrbDhFrHm
73tfLWexLH6++rLFGyZhmA1YPbpc1GRc/HWouEdpPZMGaTEeax9qwPlyU+KMHqj7
B4VSJUd0sZYrVtwhM9zgWkPWpNw8253nEvVswqUSeLMFQYm9UuIhuk4r1oRsMWAo
6w3z1apokpaPe99Qtiz4GpWSFcBeOKDontorc8/ZRGJ6KScaB5nxyf/YAWfNWZij
zbA2rD9f45cvGI+jZU0Ef5AVi7Vb1JmGkfW0awikGChXyJ9RTP3Ptt3i42t+dgDI
vav6Nj6EBa+bKX/oAQhSJbC1XIoBjgshPnHqm0UoW7LXyUenfuUugKZSRa8IQ1hm
xQQdiV6JYl0aqzVPtiXiSXJuqmAopftv17Pj4R+r9DM+O/zcm/yePasbQcYGgmnQ
uHlsBAy4bzXD08aqGxCdYl20pL5IijZ/C6LFY2iYxWnqAgefvi6QyiLPCKhZ1Q7c
WG9v2gxxMr8xHPidzWw4fiSFtxfJSzQlILK7rxKcDTzfF7leTih8O6o6rA2XMFad
YG8RiIBaQYpPyoHun7zudZMIanxcKLvZ9g3XIGTSO1G8Z2yAgMYTgMK6citAu5Vm
QewjP9QyCR5ER0mZveJkQw3pwd3IpYQrpjmmlqtflGy13wUecz23lQ3ZQ1pthOPX
5LqFoa12yvlkk04nFURWZbFrnsZ8lK645K9fygGklBJl+ag7anSIPhiZRDzaGgdc
JqG9UUu1EQeht5Sd5SuRZbGWYFavZR2fDP3Dmdv5nZFT9V2O4s0bZyfdeOaw/kkG
hYLDshOSum7kuE/q/NfGcxaYguS2piUwe+bbUwusBfc8aLs7opH5HHnScKA9CH8D
UKQOS+bkcOqD44DP1ynveJnn3HicxjkzOI/8qVM7ar/2huH3GZ1RokuIk8mVYmOu
eQWmY6E1B1tyYscsZf9Em4eDI+T2Ge1bFJ1Jnv5139HvvPxXun06Q1Pd2hTmejBB
HLWCrSxFMHfNg5bT4z10xdDu1gQLEAhDo78LgwV7NqozF0r8EGdNvPeTlGxHROJG
zfexbdX9alE8GDTQCmrgrMepmd0RDgXsK/BmZOuLqUlkIeL3fAxFFx+YNkEMpoXg
OhFc8UvwvcOJIMgM4WsfQGV1oggkjPaoGMl9TOAq8tYo+Y1FxiVpaXO8/zb/WJkS
6DJhgxHX5FhRkdvAgOPwdwmVsqvlxSi5QsYVHNX1xJ0tF/hXi7T2ClEYi76wJDZJ
FiXFxhqvC0U0ReZFUZDynFk7NGnUoih2xIRzFZwgc8Oapcv6NXNNikYuDvmcuvNC
W5h3mU/m23bRPZ63Sqs7VM9k4EJmekv/s0hzgyG1Ru9x/SoDOhdDTXV3+BbI4b5J
uztMB24z/EDbjFX/e1dlp2oaSIkO4wIYbZ2Geh2NltJ6jRM3IiBJ4bEQYJuv1zDT
s+oT6aW1iV5PYa0Qp9guX6s+taVt6gGwbVYZf+oNpO9iE4LWB/nBAB1tDLGVD9xw
koy/yWUlZRy83D9Oeuhbu/Z6rHOc7pMO8MgSM3lLjBUQrODAJzI9ndjRwXwsqERi
AdUzbFHg/X/yImNf2J48pX82KgJ0GSlop3Z7ZTMG/5iU9VznMvzznNxRpgmSABHW
Ci3ICSvQpi7JlYYWJm+FTDSSfey0XUcDrUW59BylizQdtvL/12qaK1mVPMifNEUu
aIF94DXD0m5zgjK2ojDMKKhe3Qd95LPZyGS8i+UzMjn2YkPDS/ZQTCyLZif6l2DU
+zHrIqCFQSlg9n5D2kUQgYT2PuyG/kHJCumxEVZoxEpcWMRMj/jlxAdEq6B50qPY
oqwgQ6ZpbxgfJDkMgcdxEWXlUHbgWYV6Yr/BipgltkE6BaiB2pqlH4MeMfWod3pE
ckLK/ElIG8dMZgayvG0gl89fT68Tr1pXv58FT+xybs5fgoC7ThiEiNt9FRzJ4Vhg
aVD2mq1auXakOiZd9eBe+EgtbdlT3Z/IjNWq1l86G11Vl5bCfCYtNVtp47d061Cr
kVp0xbZFd4Lq7RbQ7LUtcG1rRQue1sHaUxA7VJVCCsfq6BJQAxdzRNRF6ZXsBJ9G
5C/1LWKNt+DWC3FvdPjS+mMahwK2OOKFZKQkjDf8U0Dqs0yMo/eqbEmjUe3k0RDs
3ivxY2il0lqPDU7vCHa036RVVyIgu8uJ7Kt17NKbBu9mkgQgooDh7vVBdDMJ8vVR
p0HRj1gw0YYV6pDoXlmUkLY49QzS+lFxkMFeWQliFKxnOeQQZtYv2paF9ghDYNHG
YDoziyJjf96DCPyWrroaMFvnt13F/S3YrjSxYHkNVxBBnWYvb77ICe2LXHRSQeXy
1CoQupErw1oL0MjnEQhj9KveYf3lqAifM6BTFoID1aPZZr7tVtyWYMArm9rvWXqI
JjeGeD9XJYsqGkvo0PNDESVfDZ+cFKiw3Fuk0Q3944/cmUbBrCnjhcFtTMFAjgRp
yZXhuSYfCLfXv+p7oFzlZyp46KkiI23PigZCftHQ6Nv5fqP9k9AQrCaT3dMUw6Ld
mKKs5N/eW6sTfv1dRJtX7YakK+ucCbI04ZL0EemDCEme407VxUKooFiGNTNCSIbM
TiYWdYruJiWN64YFAy59CgyGItBO3hUXcq55AHWCOFnsEHkWW3pHM5odHsbOv8Pj
aGH6XMjk9BJD7BezZpvmVs2NLcgF+0In0lh5b6EZRVRoJbxhuGc1uFKGOzNpnZNq
SMG8PJgcT1COlTB8uyHqs9nqw+/e3Qx9oUbr3Mxm8CX7BEqeoPFSqa2zQx0CLald
W8u8bG0C3xILtTmGY7l2bltSf+n6bHrW/LPBZauTCP/A9hCzu+wXxH9Ko99L+kOu
QaH37RB1Ks6cvi4d8es8/nbG7oKgeWjcUNNbrYHdKT1i/U/DK+6tKsDhrfMuFaUg
L+rCj2HUlTHdGOyvdjHvtRgkh4+G92Anb+2N5ALsOFVn7EJ7/7rMWQ+e3ag/Vf80
0cRZqdc2dRwf9i9XlP9x7V4QhsOhb6urFo3BeI7NOrBXPzYXlhRhAebtnEAgnbvE
7Ulg5fM5Y7dUpArFvIeAB8jVrsEIQW4SidPG/YvhR9vqHfRSBnU7BvzAq15eioUJ
0y8My8c21JQR29wB48BXjlwhrSv3jftLlNpbNr24Ipoi487mvQ/RrL7VZ7EOpNrL
aAW6TJCEJ3+J2Y2Mi3NL6GrpWJHE4uGhLmQqjOw/uR4CETahNFLEa24sS8xW6/hX
hNdYFzANXGjycxsP0dc2i74ATzZH2yZxYmBoN66dm/DgVXtU8QV6eC6pr0Y3zrxi
LwxmElUkLBvkM5neDumIdhr0ACTPfqSsbDXWyJdVpmwbsb4Jk2PY9WmHPlLzy/4Y
zjcP5abQ7sfH8D0dSdo2jduLmwV8WmvCtjiBr74iFrrDHZPWooodfbUVlWWdgcAD
/WTLKjRNEFsmD4KbygxP0a6aVY66wipHdUC7cDm90rYiRjG1w3ySc8IeYBSIVKAg
oO06xuIG8HTrimA3s8/ylDm1MH8d+Taxu8wsZAmXa0wBanf2JKjQyqrpy+pKLY4m
eCsfBW4Z1VirDzc6nVO76+oymvaIhpvWz42Yu59T0U77J7DclVOW5O1SwKjr+eD8
D0U856RTWMWuPo44V4sDk6XrPGIBW3XXXdsELTV5o6jHFUPNCiRbpwQWNExIyT2g
ESMRUeSbKtWCMcBC1aFHyn9CkTfoTEEfB4vcL4Ana38vgudhGFuiJvxxhyFTjNC1
G3nKSAmPXjXlvkgD29KN1jJATyzK3X3l+opmc0OurZm2FbUlCBwa9UTQ95KY4yCs
DUge1k/QgpnoPsiVJ+d3aPG4y9ysNb6l7X7npahap37U72dLI4Pzvr9hjK3tF7E6
RikGJYSIYJjq+UvUDl348PmydQVLUxEPG/RxGiPsaZSxQqScC0Z83chxyVLDC2ka
drpM/1OOtohZA7lAMZX0q/11jhMm8LkZKoj4WNu+AZjpWQTnTy5oazYvVClQkSIR
yvKpTMX3o7d1OVnGTIv8CqdoQZi+FLD1BOLXFbeN8yf6Epx12IHcDqTPKRaWPy59
oWcUYWNvmO9SfoaZXSwUA47ThhYaxiQaIYGaSQ2cf1m2DUUbmEl1/krXqKNNws1K
9E3q2uag6YMcn7el6SWFOxLr0PC1y/sox49brU7nuX5kbv0u3rB8MKAGOzhqXfI6
Vy4XEhgJZ0bsd5Rg3Wqi4K0iAaIqfCH7glwYvvxh2iyZJJ9bgL7KZGJSI1+YcNh6
AqrRsBHCP+DUOYQ98P5HfB02qbSYfzgp/SBQ6Omiiqnxgd2T2RS6OBs5/95979ao
YsyByJgIJF8cI2H02jRHe+Z54QRDCW6b+oOMFyFeUaYRyhxB4uJJrnYNs28kJYot
RlZAtF932ki4EaYjmiFdnYLs9g6ORwCnPNqb7pjyxKkTe2j1jJiSf3pdhhk1J9N9
/uoGD8+WvRHa4sokCzPBLuP80IZ0fJwNMSNceItwzyiPFvVI1u27M/wlTr5/qhjG
YUfoLLo/7A0Ido5EGLme2t1qXxh82pNZiBgEVWfU4MMURs6n2LPSrO5esLcC/bbE
WUVhdVmoLkGITeXnWtqbxv6yFCeQicg1LNh6VAgaPp9b4TVe3kNe5+xTRyuVC0m/
LzBbIFSp9OPKZr+hHw8YQlecTPkK+fzGlAmqqwkCJUSB6K9544uNXf4JQbN036jv
NEjfw04OYsKfsG+jfiHhSuaHhQyLrIGBSTRY9Fx4w+4HOmNA6swzj1SHCT+aEvXq
snEhKJ8bXvC8sdAG5popc7lyVL1sobAn8Jq9kvfOyT8GIz3iqHMMs5McuT+gUOtS
g8NNZQui/wq2+ARs2xFeFBZVbQCYvXicNGx2wLwynF5JhHI6dwVBIxkQHUHJpUJU
/rIsrWJZrwKErQxRu7ZGK2C+YYTaM3SNuTTbJiHYYGE+FN7YqsdPCSACw9NbS4W4
FOsmwseJP4MMWT50zyiIhAIQ7qk2rlRj3OCvvg+ZO1wDkbdlV55HvP7TgX7VudBW
YspoxcMcWVpTfYEWJh7C0smaSBJcZz/8u8jJwB9BK0FklK8ps+B1geNE9sUhoeEu
99TWcGXvecpsdlnpUVZZKJayzZKu272Rt7N3E6johu3wHNRJpjbxKeAx4s3jFSho
yX2lvrmffHasuvQZYfMlT0JLiYycoht+jjLTk1/I3gMiKkKiqhWsLZ7AM9Pk2plA
otu3xCd/ezWhGZ5XgZ4j4tFy8sMnCsSQr2bIx12crgn151HETNZR3QoCXtsVXyPZ
AK57DJeXI/VYs5aFVxujVuNCuICdfzkE7Rosgj+2h9T3BQiuh/WYO7FCK9tzS1j5
IbRlT19DU1VY6tc8WgjjjDdOGI7aQI2b35kJFz7VBk5U+O6/l7nlecCu3mld44cS
KiN8/Dj4lu8mmL3J+G17TK2ld+E8WXxEUxj34UM2bDcI5KU7ib1FaDbAZ9HvLlLf
nnFdMqXXn5axJciQ+XHwl87NTvSjEsk5IYxgo3N+3KYLXk1GJWy9qxWXoTHH9nRi
yph9IcLfnX368J3I4cv+53KQdS7T9jjBtS6aDET0gsAL0AWl0aVPmtFk5w3FtIkV
vRAeECZeI1/Gt6sjf2Ukrne6oItBMj64Odeok15EQg/MN4KCnjDDYE8ZPBdSk26t
LvKr/E5I2f3nYfIb1nuTtHeX2+cdCVmlTVXZtyWg17jNo7O3oalXXIxlM43Dj0k6
pJikSLY1MQvL2rVtjGp+xTBbX1wfUKWW5iwcUPRmV8Y7q1wDn7zVsb7uB7AHZqI4
MaZCqHak0lxbISig+fypQG59P+bto48puOvTYbEgEcA4BUI3i0ypUVgIAuM71ZSB
KiUnCT5K3l8GBsGs2m7n7t+TKvqwYfGolGyeXQQF9uC18HKrSO6IxhYqaVrIX3ZM
8Vp5nXCfUXpL4Tu1dEhGjKR1Ec6z5PcnZkOWe0FtlQg91Jf3nv8yzl4LxDBdPNFk
nob63nHjkMcWfUX0ZLpMZ9hM8RObbdnYle+dfanfxZbX3WtN8k8PS2rRJDCX5PgN
PCC/EnuYYtea1pBPtZG4EXUC3+/ItmeV18L2yD7D96EzD2XKCjc3F0oaVuoau5sQ
aTzeU84ruYNEPQ9OPEEg7cc+UB1qdICME7e06DW9wI00Gamb6Ef6rvWxf0StdQ3z
xDc5+nUq7R0XGmHP5Ft3zJ49SxDFHGty0XP3iDDgkKTUzHVGl8gje1UTBX8hmfFW
DbV//Da81t/a4Un3MXF173W9eL30fd74VTdOl1UAGwWlmOrYd1BPNdUutR1rJG3d
2LWUgigSVYMXzKuB68cI/17j9kdM6KgBk5FvsLrMepbZkdDeYmNjv1rSflPR9fq8
7hPRvR3ra94dKiDersr0AZzOYSz15vTvdBq6L+mRkZESUxlwQWsXjFuU13z+/ny4
fLXzNn7pmOzc9ev24E6c6ik8eYMZSW6+/d1Hd1pwxlK8AN7Ij4cpPY4X0P2bsyrw
2W4H5AQYoYoa5IxzvZ1M3FR4lp+696LbjNW47THZ5CzkJlS6DBPrNHBHQ9oTDmm5
RN7rSIWUhIwlWrpGftbm3khnZBpJNsy6blNZy07ikml3LxdY5ryMD4bz/a3oi201
zu+t9IXhzgmjudZO9rzfMej3/GrHTDtyEPPHLa9d70IWueEVMXH9TPIKrXvRASma
5sxBzerzdB6WeKbIZLarFP4y72pJHHFUim/uCuR5ODtWUspxnfKz9eno8/96Okkm
7EuGrY4XcHpQ5ff7jrA8OPQ5DDhy6PsU8HtQ+YP1apheijvyNHoRIlVGs3msrxsU
9jH8CGe0N7Zz22VABq6EP1684CHNcS0QxNZ75fd9NZcfrp4UE5DGB6q3UNYQ0Wrj
eTaoweifZPFKO0L2zUOfdMH1Q8GvYEVQ/jbHTFI6l3Qop+0WyfDVY1NTSvaaKxeV
Ko3RaqSdW069OIEp3Uo3jKXiH/M67p+/cvXdekpxN/Abmky3ZCrAzTA3XlzXNjrS
JdDoLp7v39YEdP3wacp97ac3PxKv01Uz91RDvQ2U1f24fyAp+LUcgz7ZSJh8kioM
f3bh5XU2uDQu2LfukVjTS5syx/iqRMl4y1lHQIBM1Mp7aivX8Xrmocf22N/DhDEx
d/vGPOurkdiYUPHoegxoH6bKzID13Q2Rq/GXWjfGHe0YxT6Mfor+OhzErIwOCe23
y6E8jHJS0Yzilh2bZgMkuh/e9vuL7ZWl7+DI45c9/c4sfZKQMxhdUj3hTwJ/WbDN
nOmEJRzZE4Yq/rQJZxhFVhpg6rfrNJ/bXL6OKnx6EPa8HXyOz72K3tEy3kxK02Na
ObF/KQm+cjy53IZ9b+/Nz31nPw3Xk/VKlP8tmh5Pzz6qwtA+sqY9a+vDuR2S4/1m
oZ5t9jKMXvyD4HiGaoN6KHKp1ZmCKdGmJStoi2K4EWV+apI3t/IIcctf/8C7evft
7/+xBFrSxtUl+2eaMv9nBtPG+x5omCnA+kKpmpx5WrDTQEH6pPY74gTvALfPUpbx
iL7BSZ3t99t/mrFOn241LCHGjRqI3X4kHnAP+K038Psud8j3+32YE/y5HlyyUCDm
0fB4HzAqoXupNhWQt/h8fJhZSfbMmjNQfS9yp8cSfEj9Hf/hyxcF2WuJfzscJVbk
yMaDPF5pGAn/ZpG1ECNocW416Hs7l6/ul+b9WgvJ/dSov/y0Yvld7qsgxKJegMTR
2JmamDIm4KL259Km4zasy2LyMAmDVPeDStaXfjHES4EpbUleKHUodSSecc4eV3OT
8uNAYcUSPUmETKU3NssL8xm1lk60Vdgamspstw+0s7rBGFyM/tZPSDNn1n/C2xIG
UnxB0MYR8Pt4K6efWfTaDMgW7C1I9BwZBu099/9oUwqZ6PT4bnIEA/MdK0HATf64
UNi7edXm6W7vbI7mXILP3dnYntjLagtT0O9b36aqDuJMdrJ0lTVlbs8/nXSch88R
XrFemqxs5AfqkJJ8/8v3SY7v8ep+tHvWL7j8ckv+yfmKadfALfTDY2NMlHllm/IP
M/73lTAC0wt9JyrYMTBAkYO/IpWRdpXqEXPhKBsIrJoKqhlO24WRjgWiGs8XqIzg
DDqkmxBu6h6yj3AIUqTIb74Uku9EMsXGZjakUDqL/QZq9JWMoLkOk3IltEkdJDFk
ITvzKbViRrjBvFEVSpRcJIg3+U6gDnU27OD8LBflPn+GI+jQ7+WwbjzF1/EVFLUA
t41Bib9H2g7lS+kX1X6zWkOaGbbYWQWZRXwFFtnfcy7fhb98GdIuOKzYqYH95s2g
t8lsvR5Tv7Yzlz5XQM7fm7rgrn7XFbn76O/UeM6f1xXaD3sRppW+Eb689uCIwhIJ
sI5uDldsSGYLXFlBMvdXhDDIDV8czmGTcIBAl+g02NHOT/jbTR5P3vmix0CHruoX
Y9DaaFwIcP1cp4n5KLMFFpx2N7AJ4Nu+7fbBQxDw+fDXA9H/wW7kaOtx93uT/ivw
3xc3lwKyxnx1BibJwYardI8+ge/r8KlAAabVrYlK9ExBy7f9vMrnaDQjsID+XBhT
NwOgCvmPXf7IQO1uLXMGtsGi3RabWT8uHWqlbpZsv7pG7RSHlE5Ac03USUUUOuvS
VHFi5xt01/fnyXbIPxBLlZN3y7aO3hwP9Daee0h/AbJ93u3oz+83oExwv7W+U3E3
J838cjC8jV0fxnP8id/yfD+Q1JezvMbgD9Jw3w0uW4fHBtyt5eyW2xMtkQ74VVcC
+6RjNKq4rT1w5tbmZ26pJ/oNELD1ktBdfmVVh3ILFgOpzdgxp+x1yfbDgvzd8nwC
vO29XY3E2ce2H7xdK4fNXYmB2d/qyL42D2Mce3tK3G3bLvDTZGrYlGFOxKCuuygR
53K1dj3/4D/IG5pFK2KckZ8rOJ1hp7+OiQrlXlZyD2wlHSzUuimzc00k+aS8TpxR
Yu+lIM0hOsXjqZExD8ejr4Z/leT5Uk7LNS+jEASKaYWKZVLgLEgmwqyjSfAp1ayh
VEylGFQYv6Do+aOC5hlQVI5IGUX+7pGYO9WEPlwyeUMXORlb1ctJTSo5iB6n4NTy
83ylFhUuj3N3dVMPSBefUmYbpy3b7O4ghZeox3ODZSUh7fULqjZ9DgdDcqGwXyTb
BhCkiC3Iygew0zSBM3eplMBkn4A1YQd+hqtxkHpKm0cj4KrKJ9nSwNWd0JO83NXe
N96b9Znq9Zzy+ig3dp6+0YGmjsyLsJOYnmad/s0YdJUoQYP7U+kCQSqKbDWm9Tes
4jHF1PRh5E/VaHC8QJG/h8LplL1+DqBFE0GwqF8wiYJQfAH1Yugp4i+67CGRQMk4
8GMWxgiErnewxyG4DqQ4ubNI8TUY5iEerRiKfZu93CmTK9ocxBK9rcTuCOvxA1Ed
cZFdoV6gHajbF2Tm3I8IHXe8W1f+UZ6MItuL/cRckxPNaasVj/x4oiAEnZSVLY8s
Tu38TplObSfJiet14ajvLVjxxObgk0m1e9Z1KM2mf/y3pWa9XPaQg4puvdxFO3X9
2um0g4u7eHZF4lGwDqeMTVbrfAzcryNtf8sqSZOp3xviZqbCdbAUyUbDaBpesxL/
cOlezUulndDPckbRd4sVE6pxrxnT9/JqU2Sv3dRY+UdY2ALIB7yVKloEYQ+Mes7Z
FK1xfZAMU5GQ7oFv+2r8FxgrxPWB9CdHeTuRgGwUXEUTAGhzny5TgIjHkG9XMPRz
58YrUe1CAC+royDGw6n75d07EM+lf/280hvJ37DewP81uCFM17qq6XHf2f9s3zHM
P9YmFepbEd7+I+Mn5uek/9dr7rckPBlFwOTkhw037bP3ZmFB8gjwtPCJd7S/fzM4
TrhX/Euw0/9773vb/5Lvz/329tO7O9gbHI8Y93NS4PF6d7PQP/LqFw2vCaJ69GZQ
NVU13b7c/e/z1/RMoX8xOkrAnVYEJWRo9+TLBwzY47Yt3//2Rrh+/Mz/9Wj3e7eX
YFD69sjHA/GXXODt9vF35Rfb1OU09zjh/gc//vCb91NbyF9ctcHlDMHEVbH4UIUA
P90qtDxAGgKS3nJkrwpO2v+A5vOtPD3coDeifyZMXFmXR4vQ0C7+n/5s83vGeqU1
ssIpm7YAaH0Ys7BvF3KxSdFk56eTOlJift4A+Ytsz9w7iFyRiZdqESYjoYB/5+/x
hcbcSz/gAfB7v5Q+94uy49QMAGKU9B+bGNX5Hc/+UC3bjSUQ/G7avWamqDx62OOR
ttXhJp31lFIgn8ttSzGPiOlnqlztohJTI3P3Jvr6x1Xdk7KFvZiYPl+NnAso56Ff
fEKAq5O0es9MuhDrDLaW5JxAGnezFEYsN9tdcJg0nq5WKdthVAl6d+HAV8CQqpCf
80t196L4/jm7R1ys4ECnerr6W5TtzH1MiP9D/tV2MeQEZ5sXS1eYn/kXKl7phDvW
UiH1nekljeKrecRLps+Dm8IFAl+eij4h5H06yatNUz70c+iuYnZH83Rfqa+DLoO8
89sS8SE3nvftlfLrVoGXOST065bg9zPh1zfkcW584vunabv06ItAoJIclGEmeZVV
Q++Mzou0mzns251DF+aRo4R6JsJOZ2CYIV8sxyLTvJuMRbYzp9HZ3dz7sWdSYhFz
Tb+D+EQFLM9ZqcRMO0caQJ3THhM4PCV/ynYwo6I27HuR255lSG6QlzPGuJQ/0pqI
SmxEaJdzbtj0xY+/RRolKVUJ9eusDU7Yhs+7eGLKZD8npKeeZYdTN3IxSqWnCgi5
Osubda5YzNgaXYSfFmsf3qvZwC3DqpKK5FAI6Xw6o8juCYc/4HUfLTM8fX5sRgES
fMKkQLmAJsmTM8Jy6SQ/1DzI5+MgWxeMRQr4pppGYFXIxcBGeOJj3HWctOdNbuRE
6SnyIvnr5tGJu2O7ge7LUC59Uq/ZnrzuaJ0yLe4vKHdKOXUcwtCYrc8yPYeztbA+
IV9CWd+9AHHKdkyeEvd0TLUr+1UJPVn0HRWWzvLQxDMTbQ//jVKGk0sRDVOpO4vJ
prWZeJ5xj+4HrNAYIi8Gf0YhASpKRpOauGrvNVLhIe67Jfiz4fOv5zAcrEpljIUt
bJpAwpE9RhQVUDTkOH0v6yIPSHtcjJC+ikLSDtq8Gzv8SzaBcmsWEgjZlfHHkfLu
EE6+7J0pEwHJwhRh4oKQjqa/BZBM/5HvaRZhyTlzSu1/jk//BJx8JvvyCLdn/I9K
Aua0QxLKnOe54bZx1LX6+XnB0URjUhzwZgCC/8s59p6PcQRIXaJ7SzbGR6xdr6bs
FOFrQr8HOkx/LwItXiAhZJSUqNBiT5Ci7JNTvcn7gVzjMGg5wCHORpMQGarcLVTw
2BpfMJS1biNDef8Xye+JNK7aKLHs35rjko2S3zlUDJjt/gFr6U3x/lUEXyrpDfsT
bwFe0var/xP5BFfX/J2NsZ6IWuLPrR5Kyn8VjPpvgOSr6J/j8XQznYGyb5F3ZRWf
+BoWjqT2Gd9bVBl5IotzKsr8qmdvlC+y3maDoBqBVhJWB6394nATZPYaZs72s+Gz
nYfJEhmekJ+ZRR1t7lvCGFL0yvL+XHgzo91TibQsedWduPpM0mgZA9qq2i1zCK+w
Jjy/rvqFn5e8JkhHqwCcmucYl22TVVI/RY3D7oC8720b8PdYctffxvRKoYVTbug7
3t0FP0V8ncn6Gsi5KsR/JHO+WhdspKxyaz1Sv43TAzccW1WvtuqWqnUlXFpRbW+l
jhNEhbMu9c2PS7auOPFRKbeazeMI7mY5dSFuvuDZxez9AGEnjnIL2kzz/hKbrL66
bTdweBZJ8rD3HbazN1ZFyrDcu3S3cctjEuZl2hlxs+rvAzbC3gMcypFr+gBp1dgI
5gofqJdqV4QjaXVg85PsCrMa6ES38su67pw5S6Mrsl0hVm9uwoWrkiGu09UrNuHi
c7Zr/NXc/a5W+0MgWEVO6e+o76pXi0ccXg2G+ubnF7tOcM4u1anCTo3sMxxxAH/N
8hToaRT0aZoNsDMcjjMkaH0Fygpwh4CtFRCtYx/qEVcqlokYwwlLecRZSmqqf/UW
UBajLCVGHBUscPB6ywRuW2mrf/k52PgFmGzBfYIiLLqBWiOnIgAX4h9AXxxw9kZH
rb5ug0NojPQD70n7DeJR+qXM4KlmbEgzY7BA+mfZkJjwGdL33l1pnHbx30qJLmpk
+BLtcPKA6VijIKMWK+rZkyCnIhrcSLtmDG8njmkPYaUVWyEQ1YnsSn00uyjLKd7f
mgPU0P5iLKQUYSzECZwVAmF3fIiG+ibAtVwJaucFCAlXDncgXYEIUi2YYlOTyfW8
jhtHcVyXyEZQbQYQJ3lLAWvCv4p14hEJrIwP3rE59Et1hXFpxHIEPm1BagyiGSRN
BgbMCyi8oGlxx2IYLjOaxHA28CVe3nPy+TvuP2ZodZfZ4CbRY/stEQaLJLctQl1i
fmzOEeLCNpQo89nA39EOaMb2chRm2qO9wcPdrtxVqtNCYHO4FwCuXKn2xetIyHKN
K+h/E96hF5EgCZ4wVn9dvanh0JPLcVod4Lz+IATHImswucDZ12kRBNgs5mB3F0y/
mi010eQRh2GFA0Vbo+YEoLKW6dtvYQUynemgeRVSwY0MVo8zGnzfPd0r7An6PT3c
p9f3vb1sFAv2et8f/75qKhhnWO/2uG6bbYi2mG2te0oATN4InDKm/irbmYMwyZwp
4WpmqH1IkmGNJxEbOlaTmSwzgVVq9w0Ku9CLRh4XLJRLXWCu3KCYcEP2B1WO00Ea
Z1PtYhsrKaW/nlU7EPp9/3uPj4n9h4n65UZ8Rd/vJYRpu4/2K/WWVwmZRre0zPNM
OpcRAur51hvBam7yVZ9HjOu4hRb1REZtCW1mVahXxCHCelAtMxRt+6an3/J1sRtm
EGjdkcWyLvXo2paEd5tv2WFdpcFXvE3Wdy1oCzL6VfY9gQjzZ9Q65MLK3dlafV8+
PZOusS7sslON2ir8oPqpySr9lJ29faPYjpCqANgBDzF9yUqb+nhFygGS83pPlIWH
cfLFGqCD2XKyIZanqT2rlRZSDyTQs5hlQzqcJi1BH/APH5yyhL1cseRiTHQAeu0C
PD/1BNfqFctRUcqVKc1idhGbeU5JOe2d6qg8Av/d+lV5o+Ga1R4I0YUR9+wbPRhD
6L4WOOJvaUVo9GDm8l+EiYUoznl7M3G3yvs5syiiOM94G7vNDrKqthuJfuCkjSAR
DpY/t2MtPfRxG1xLVN7rQs4i7N7wquc03Xw+oMmprYmeF6T4D2fOrOGuSYb7vLha
YAKr+6RgNgXt+veiwsMxLiQC55Er4xK40dvb/4at4lr2ycQU9qT8duLETlHCOxsH
bt6t5BVu9x6NOBE00ANNaTjn0g0J0Yjo3DiN6DDAW56XNLMmkZXCEviKl61NWPHs
R555qn7nRX7I2WIP6YwQkxon9nlbVUAOMJhjj9MOnilUBoHjkYLELy4yDbHmxcFk
acyNctlIdowhwIZW+qEvzsC5b6lujH1jqlLVOIeHUzUaQ3bx6uewqliRjpgEwjSa
BBejIkfbzaFHKYYcp7Qulo6uXwN763dYkiruTe3BGHjjrjwnoiQmj2AHM1PTZMaK
T+e0n+OhRZaQP0KcpLWRcIUcZT3AkDAcO9Cn2uGSTT6smbqzsfT0UGOVT66eDpB3
yli5Qbp91BC6HIVVmkIAVhvS6hA65gmfzKpSAQbAsXGwhaI1EuphHs8QW0j/nn4Y
MqVxzr7G+N/PNyx6AhOJDcY6R4TTqYnUwRrVtiO579KqGUQG11kECr9mNSHUgB0D
UV6JymtchuTuiRvyfa0CIXrW73ZLn+27jCaHaiAAYZ6AweNMctoYEyc6fmfYV0//
XxDXy6KjZtOuP7LVG6QtlWfnoOK4+wAIxlyxTVAYBCCetDmwp7Kl+zTJUecnadOg
VRcDmOqukn26VGHQMVTiGsSlREuHSy79CVSqDS9tMP486vS6vtkz6lxtmCgSoUI1
tR4HDdBe7rKA79BH36FJ9B6eU7DGjQPgj+rrLisobfvcMMAmUyzb9kbWF/CcNAu+
l7oRCa1lhCQP8kuikVqG0iMDsNzBfV/MLQHA2yCEfrcl2ubKQM/ZNJ/kcUJGCJ9m
u4UkDOJiBtcnK7/HeRGKQOdfS13Cx49LEFC8N27BFFeEAy/yoj7ljXg7IuKNn7H/
0hfC0Zb9gQ9Mh3mQPVdWyWXlfxSZQ3QljAKD62mntm9t27atqW3btm13iqlt27bt
3tp4/1sl65ycfIuwj0ol5rRRZa0XprAtbZjnPjZCiy46tUHN2+ag2z3gUSxWBVjy
/8GAtjYbUvZRodMzDBmpf4O/KAeebGiDXwbpBeYn/P6XFxgUkQnXH3XCGIz/Q83w
ycbElCzaT9Vuq8JLW2ZXKs1AiVVHfYPcMnlS3BQXa4h+sTMlGLFuPSWIOiSbuFvi
8LBXOIiJ2g4SoMhbWEyOLVm50VTMbG/ZY6n8i7WCgR4e+s06jtFiwqsMYG9uvBPJ
AKy8xl8WEKy0GLTCr3u/5ZKh15s+Se3uwVAVNdOjAF+LHMZeXHJxGWTNKiQgzHMB
E/lb9ZvYvKSYw3Ubnw+7mMMj0t+kv0B/rAkduexUvUh8LLvPrX4jfy6557bCZhGC
QX5oRePpzdBh8ELPXEi0VUy2NZNsX3bYJCXNyk6uzp+YaQzOX1QzY4aNmQhSaUw+
FYuF9MvE6RRm87DvnR5f28yYFJPrQL3aeW/FrI1N+HcJClx7XA3EhMUyrplCNwHA
ow/ZpQuGE+nGI0322ssWevj9PeBMr+SA3OrVOMO44s1pYD8r/a/jE+/0rO/SMeV3
OQJXLNmfB6rNppdx0H1qIxq79HWxoZXd47xW5bTY9Ow0TlkF1Cy7+Rrw+dMv+Coa
wxZcKXOUQG6xK0maMPjEwxcuOgy0yB7JC+BPnxI1iJs+8efr24P5rH6X1+PV+SSF
gr8HHl9RqMkDGSDehfQkQZawdYoQjc5aYjZfbFYlDFjqwIUN5BBb2Lj5CFfI543q
UThZp0SjkOi/tGiJZVe7sd0kXmkG2JGzV9bfZ0NYILY6vEgnZH+cWPi8XWR8pBPB
6HuhBIi7XvEN4aVVO5rcvTZSHnFw0sVoRQjqME5rvXAkFNgiJw/nXo6v7qRH2Byq
4oQRTUQGD8vzlgAoQ4ZqBrWCYklGZTiqrQOKnSqjyGbE3qXJUU3qUHNSxPPuAigO
odoG0UOnWY+ftT4WmfNLF2Wci/hRWytBD0+0pJfk3BsNcFHWNXB8/yO0ty2DJn+x
LfLl/r8WhtiBKJw4lkCxZLeYUnjlpjfRKAsR75uRxNeX4pp4XJHR1Jun0LcuM2Sy
elKvxa3eYq+ndS4mvwo7FPWM3Aplk5Q52mLuawyvdUSVRPiyHHDFW+vsCCIaknFa
C7JM3JUCG6ZosMwt2DL8TOMBpYzV2FV6c5WVlAlaejjAiGCbPSQ5kauVi5DVocsi
CZex/AW34BmH7oz9WhtCv7b2Dp6fEkEWXMfVvZGb9t7qjqvrNbW1OxcC0AlN5yT7
2op9C+EYlyNNG9F+oaOncb2TtcfqKB1Azma+6MZ6H3QiRqmeHmPZx5JYbxEeXxR2
z5geZKc8Wop47G2LMPo7qKRX8qapHeTZL8Sh0CzMYODovjXnuLZo9F9mYUvGlR3H
X+/alYrmc07n0VO5xV/oKtg8IxNDgUJgGAohqaxyJNauuUt0mTKDfT1viZ36hYX3
tVYfbZ79uZfVzcNDbT2d9lL0tnkb6E0sl5vHM816OmpjirEa/84KBaytAJZ+oz74
ZS7bTERAfhpdM56I9exha0cVNa7sky8cVExU+FpJVclyC2/LQXAgAbwOalFNB2fu
tcOH3x7wTzL6Qm5vN/V63iZLx5jNiU5XhdZa/qtjGVSJ9VfDv3PpwxWNnT5cwpHM
WvpEZOHhDQBl5jMY82sy4YmUXCqNShlZ5i1TfaVtE9SzikoJEQu/VKXG2pOGF5+q
1npOjoqgqNWLOnM0c/Bv0cJ+q0s++VbJamSEoSzahCB6WiMpQ5WAWgC4Ke8kFzht
lQGpDA5y3mTifRVntco5O/XiYywoj/GeGR1r5t5jFf4gmxbsPCl1euYUZ8oNVigh
OxCKFEPgXE7y9vdn8nJVAPHBAfqoayeBhu6bP7mCkCUh2+W0wx+Pk81SDMJWHo4+
Ozb0DotqtT6Z2Jie0ZykTuN8zzSkQM86dkMtTz0PaetMRQv6/dUon6t43M+SlXwK
Xg5moGJmzYnUa2YMjzYwvi+a1r2Y6AoTMRbyKrns8We2x+fz4niQocfX53B0PHe9
MrlrArJKTLvrSZHue7/DRYdhLW79OspATmcV0glNpEwjYmEMfv6us28kTMIOrW8c
4jPaobJorQ2t8PHNEqOgSlMVdV2uBps4YBKHqY+xsHgTYdrtl/1uYM8H+qwfMCq8
u7rsTqreA/3KSMLMTQJ9W8xNXLF5h2VY52LEBB1T/wt1bUaY1Dbd4EWxRBoK8hwA
hdUF42/AdBvz1lr6aKi9B+4jbyIrJp5j/hHl+4LFhHgTMt8BaNpvwvHDp1WeMxrA
ZVCV3HfVs57UyNVuVn/8uFzZ3mjLkj5fK5L56zxiaJQUg0PsqE/6dVCpwfD9ePSh
scvneXcwvlirz7fvjSshcF/zCxeOji8nd7hgzRsFxlPYVNRC+02aRoqSRL2/VO0T
g3KEEJOHLVyjBs3rZ4LUFLe6LbTXS5v8lG8+ZXpdLzBULJHuaI2cnMjKHAVH3dbo
lZwPpXqArWjTPQCZ3bBi/zHWN6d9v8vCQzL2BH26X0T0+mw8bYGkYrLepP4AtZUH
F5s+H+Wl1NMyVvl1mINT3mqutjnDn9Cnm420MUwWVNfKjcLhLzJfpmOAzGGZgM8H
Hc0/MTGcno3+xGpwFYHhBrEOg/SOc1MKQs7CedWnyOYTOuW017RisBrmsCAV1mQD
f7GOVkk0AtHonHn4zaANN+Fs6gX7DNKA9zH5Ic04uiK1zCtv76s0+bubqwPeU4xW
fVB44BrMGX6g3lScjWCYcHfd7BjHbI+vDma42T9taeqy3JOea3HvKK91oA9ACxbg
8cOeMxRjOmObZiozobMRs1pruKR9c+P2YgTzihuK3lXB//n9MarQy1qKr4XOjQLP
V69hYrONprcQDZnLChHf+vI6N2J8F836aGSXKNZqGq/H7x8BUhCvPTxil43TacLK
WQ43ryMRpK0zUhNAR+h6ipOdJUvd3q3k4b3cTJXNY1p/Pq+qFJpUCBejUtAw41Im
W3WcnFPLOsk1WuHO1kRSepfs2eTo3OPzer9faa7Q+zUp5z5Kr+FK1KU7I1nepCfP
luqYPHPvkDAIYgVxmIFk3vquZQKPE3spHiDgi7oa4ltSmuwbVGjJbF7Jx4SBeeo+
KwxH3+88iuaZq/rG/imm8dXSfe6GUKgART8ixS0xIx1EAH7bpXojsBNGsH4SMVM4
ZW5ZAr70oeHyC49Cz1NtU50GED9QNk6Xmuu2l8uhoAAdM7MgDwLLqMW/v8dhhHeC
QHE3PUgrOzmJ3MYdt/Q6lNUiSgxq0CiPiGRAaOyI6qqwKLOFhO9+1qJhzQsXLG6M
otkY7YtEcybg9Ty4mC5agsx9D9sjKnWU3nXEDbEutP8QrqDv83F73HgaG56o5z9i
/Y2LesYzkF0jzqTiiqyfo5cW+/VEazHoDQ6IXyYt8oTHvZzujxTXQo8A8WjpyLMH
8H+936VbzwuKr7YVlhaTprVJM4GsYo+RcOWUq5AnIjLO5nHMhugPVyvkyDNsxGRn
OYdu9YWJ3L+Q/QawchH0ULugBoNXFY6H6/N6fy/kg5mYWGqdw7Vs63jUEIYoiYfc
Yc3ePzKjcGXWId5kLTD1RtvKMt7sT4se45YbtJJZy8CO2ovAloWz8unMa8BnaWqX
UwxDPLkI18heMa5ep9yTv7fvCw/cyC5eyXUcdyF4Rn+Wa1niq0hHwQv+fHV+iGTw
SrsU+dMme6aqFag7W5dUlpbJEnIjZzriNDBBfg7zdJ3Q8THLzx+rvXYb0xNLUKl0
EZKCKnlwG8ArhGD2F1TfCoNESuyLVl+tGNrZT8z4Zle4M/0NZaZ04ufNTAWnEEvU
8WIIFYh4iKiNeW9xK5x+ZyUgCTMdiDKGZNbFMtBJzatH3XI13xYu/hLvidNee2xz
9pX/yW138UeYOUYi3U2+PCMgEp1f34bmYGP8LVORl81hQV9weM7AOavSLujCWxgt
Btu/9M4unGdvnkjXJSwT/cFsf7ppbFmL2/kzIPyc6grRMR52tf6XIED5Ye07Kdaq
eTIO0+38btGcodfnPkfXn8X4zklOqzgK7VwM3RnPO0TjgmCK1XtGNKsHCyqzAjC0
XUeebHSN6pNC40WIRiVzKYpAhlUjyQVBJqcKVhIRegJR5eXJhXuyaCN65vcNBQoz
z79Quc2+YG/ovG61pRTf7xa8ZmJvejjPDGN+us//L1kCy/afYed+f3akt6lOlAPa
QGMlVd6dmm3lmFDCl1f6iU7Tc6vnt3hOrO0rHkManpqHpZE6TmjrgseUJqScn1pn
Yizu2nqDK+6U34b8BR3Ty4il7qhJyElFXLe2FH+8OhwlsySMdlPiOKegRliZSjg0
KJwHr9BnYJ+gg3ekbYkQIcTD+fWVlF+smuPsj9JkVtmpBv0/InAJcE/TS32MOova
R5K2wLO4WQTWlRudMqLkStuAZTQZ4/g0VlQLoocuYPIW5l1bJnZ2FOXjl50BcuRD
P2hjx0by59nCgSDNXl7O38XJG/vaLBik/uWzxkb40S6JlHrPNI0+ovw1dTnZLbDQ
1X0hrX0DD0WKuDVYSWQ4BrBUnlJgyrrsZrcpuQhkrHjdw6/j/Z3AY7RCngG7VVVO
ORC1hgXfW/YRjQ2b1Emsazm0Z3/LEsfCw7fljhyLYnqKo4JuEkQ2rnn0fzkejdQU
HT30FDtFk5E1hZN3sfp+LF/w84eSlZP3LxQKBL4fg+nx+nzfNx/p/pEtsPvZIHNz
XCVDf4fxHIxy5Lk+CfeMWsrpswNesmlKa4P3a6RwdzJKvaxHXia49ANRze3Lb1zr
C7vsq7d2UUDVNg4bdV6EnkVpt/TlIpJFy+nQmpBLcfWb69+5c81NNyr2mayJig0V
Gz2P1pktE4br0Rvv53ZUSS3MsGKUjE3EyeVC8a9Y8uNzgbBWDUmFCZ9znmJ74J5/
yE1/2zvpDLZ2PHGQdefY3ZMz6B0OJd2t4f23pNytIkVolnZkKwoykQMqdb64hyoI
6TejXWrVVuWTAydVscpsWwIP/ExWTy3LY+8Uk+dNH9mHsbachbFqXVSGT35MIyfr
eqAanOnZ84rZRhy2ae8PjS3waJdNooQKlUrUiSwpqbi2kW6lK8d++jh/whjanP+y
qUM9lEsR666MuTwwk2D3IfP66ijKsjPC5o4RxacXXlszKPsM0B84oozeXZe1F3Ac
gv/RNP88/zsOvrO9aZT1jA5W9X1+3kiQzz2rVkk3d9S87RV9Gt/r97ScbE/Qylr4
darZqLNhIQkhao0bfn5JB/B9+Jwc9bezhYiQEi+wEk1ZsfgYbvXfWFJ3WAxz0+d7
u9D6WODseyDWZt3s8ng+U6i2RXLhApyyjN1K47BWZ9n+3G+3KuS1cCCGBOnG30Ta
/7PSnvGPrjxPzKUDQxugYtMKhtIIuAvyhi5Kn54saSFe+KWfPBHmkViuHbRNgsB7
xbdJl95xF/Gr1mlTjRwl274H1vaKDXEM1ey2WJB2bkErgO8iNwoRUfeaLv1PCfh3
MOVp5/fUH3NKAYg08Cm0bKHMI4E0kle5nf7n02uvg1lcxRXgHZ1N9p0aIgFbPcYj
0KP3Sm4ASBW+Zn/7akuPUTXUVggdJz5Ww2MdEmRNBciNrw2n3fEsqh36fdg74GNa
ylEU3iLfCnkap10mIzr6p0nbu7d/u+eGLo5DqR14t6JnT7+q+EafdJFy9xVr5/xR
SQmC4dDdG+htpiK2modpGQw47f4HvHC2fJn/VtIV+NuiVMTnksQODM7PgFOfHjwp
8xooN4d98oazdrxpXBcuWm9xFUHvMdZuhleJ8MT+G5Jr+UGf6cqqZ+cdujtB09Uy
nJu2batywz4D5PMIXC118nW3iu3pYYIe0i5fVs36BHy42l0Cezf1LVvIk4Y/tlaz
3d56DHvhu3x95tf9eHYwtzjKHLcjDG28cmOvLHu9mnm5VWfZX/UWHg7Q5/2K+r5L
nXN7kgagqgcNA5+mDyQYsMbEW3ruxjcr9OFLNWapzw75ps4vcD2fcoL4W2bPu0cF
YAVb72p0EXN7XYdYlh3h4SHsp+3mA7ZatlHNwn56LmRxvzj6KxEYgAveqIp2nC/6
sQUP8Z1CbS4bQke5sz1Mz+hCRXZunHRmNN7zqcgdOx9YsRFKQEOQWOpjVuwIkOGa
Eav2TOFhWKm6U8vtBW9r0fRqww47iL7sjElrvMFaFkWSx9UPnGOzX8yIYGZ6rsS4
TNLCNK9PQEjEB1wdhP/C3064nnyLNVjf7dDHL9j+7jYv9/vC0QXeeO3BzzPxxEcs
Fvwz40xx+kMoLvGGTSvE+SA3lGk/R5xNV0qVBxOplyRUd6WPM/N7dmV8RJwRQLwv
jC2FZOrRw2ZkvZ7gef/RuIaQnnLsVBqHZzkUdlssXeVLH1sIfdrJOB9TKKVVcu7h
DxGFDyDS8xlsIKnpU5Jp4s/9PWqUG3TZniJJR06JQAMvms8uk+zpOUyG6VHj/fts
vTuJNH6VSM5H8G5m7XLtV9SfUe3ypFP6teAzKatNQ/SDwOwAo073Pzx/vn/TvHRu
N9j57+NNf+KvftFgQbFStYYlVKQO+Ouj6RqDabz5OXxdJm837kDRywsQ7GREsrC0
0S88ms89v922Em1qxzXT09mQHe2uCnGM9Epb1+Pll9g7XmbVJkMDcDYi8Y45Vv7e
VtnFGYFliZAfeZvZ5kx+YA6wx3WRI++EgewE77HhfUt7EtJKtcLkG7TWLpTWzaFy
NcukPT7rTifbZ6l5/Ozaydu+7l2box0MtWYr4cZ9VpPCyinGbCYseXt7WQ3aRodF
ZOhwpA4vxchzztcRREpm8kgAWh4HzKJE7awaTnGH7Idi7KmzO/pjOKShB7B/oBQb
pXJfh01Tb7RPC6rlg4Fq42v8BPUVB0ghOOu9iZH9tTUlRG0oDBs0WRKT1Nlmy3+l
jjSkVTWWjf0SY5aH0ZCZjMbdI9CxCEQrTbY1doFmbLh8WeuNWbiHtTXkW21BM2rO
u1VaOw6k9jQhW6yDZ/+wUEv3aVh9/o4jiH0S+D0cvfl9CnGubwkG6eDOyjzr4Mrd
AG9HgPK2IFiC9te95J6ezssBeXVF7GjRozuXmhp08rouevCLyTZ+y3PNtSPFlxtZ
xdOwiLmDWSImeCGUj+/+DwiCxmm2FVtpTGJQogJ2XaOTwxkvLh6x0MfX2dMCO8rz
nxjFO54MgwMmnovln9czR9yDlSTb1zw4cp5A7pk2CLheGCZ3sgY7X2PuzdufD7FD
DVnFRWf49jXEvpkGnK6tz2HIGUGM9rdIiOkI3lXoQ7mB5WVkhV0XGDdrlfuZRRcd
aSzfdq1EV1+bJ0/ZoLZFQzuBmYiKQMPh++eExeKBlV3UwzZGzEOXNl4hVk6e6Pqs
s3vadWPKf1EyqOgQTtUmei/8BgqYxk1uuV3rtS7hrdtC1QcNOjKg0CsS/1GSZrmo
w7O+qIF6jKva18W+PAG+tFJAlMf+dOjfLDxqR4UzGl8FfO9jmlKrhH89Ry9dFbXc
K1GR0Iw1gLq6UUMxzJDD9pKSYcTqS96dxIhhUrBHN/pL9PZ0ry2NekBKiCQbYmnm
o7QzzGCy972G72BJxe4wJtthc8QSQDeursYeJL1tsHim551NXgONcjlzre4zeJ1E
tSoZvfLVwR2ktSfHD5c7Ho4Ss0fXNVDtXGdGV+tp6zxxXKlQ+OH2sfA4vtvGcUXh
GArsbvWu1vsUF5esrACe+re59/D9CnmnZUOS2hbYEa9GerFWt44w7rbJ7ihxxHpc
ORSFPsag+Mxy7oFAdgYweCHRQ2RKhSlbEyuYH/06QFCRtQIIP18xC3X+e+U13MpY
PpCWuN5nxsL0ytTwa1Q0h/ei9rPueasO1m+SE3XekLSky5cjRghLulU56fczJ5+w
FlwXRUFJ2nHL7hYTlvrVDrBxiiHOLYEMqsn8jFJiYet+cuGdFQ/55yyfYyu+HxGM
Z1qZB8N1Dya6KvER09+5vmiRZaLIxNEprX2aE3M75pW4hlO4eGS04pZSoDFAPQEu
RKE+p6QAI06RbDN0C0c53CULFlguOiSWEEH/l0SCr6xyJqzisDGEfkVKxkLTJFbG
8hK5UsRX+PgVhnPN/oy5Z3sz+guRdt2oKVchQUte2BhRJd1k4QaKd2bpGC7Kr6NL
1VThdvR6kA8UlF9Vyi/dYs4blI30uwXf+5+foz0aFS6E48PWSGpJMrkoV9qZubcG
cj3xsCdZgq+H6UiJ+Df08PQ9wIHiRIpzuksQ6iSaQdhhCbi1VdWgPKDRINpq8nol
aWAB/0oy7sy1FZodK6Xp4JeVfkK8KJRzaxF6tHjzpqRoopQYfSPUzPY+LmSzDb4+
+RgJAeL3zBf0S8Dr+7VzVEG/hu3CTDV6zXDVpNwTsyoYXyFTBQc9ZgjsLOq7fkrc
vpRcWaaYoMfY4HcXK++acrV9j9h0WIO1CklXM+PI7aQ3f+7Fs2v3LYVPit4jaizt
ntGqEV1SSa43R03SeE6sYBZqfRr4iBgPbLL1ennct5J4dryysqeTOeyFfxSEfFA6
MkgoOfukXyJWoenNfvd7U98OcSR7kOvfLhCD2MTcWtkwegMI4wKq3nLymoL16eSB
/A25a9O/8Zt0q1J+2FB0Xaz2UoQXIMlogEbtka0hiy6v5qttxNqmyI+zYNMpcMrd
AiC1PnAkuJXuYcdV/aBm8UNrGnUxfyoXwG7/DTSfOHz8kn+bfNTIb0gAt+fTdRxm
7fskdmVB/2f44JOKd8vdZgV5XarYAUeYfc1x3Y7Jqss3yrcwejx8l+0Z31AUUh5W
s2O3ajvQXo3LcKDhuVwXJGBduWAKBhqoWAI7Y6hhEskL4seQb5lTK7zwC8UXBTlS
lGElBprYqGLOKLKtcvB4PLItAkqrydVFJM+LqZ9Y1oCfvZ3Y5teIUUbun0lVFolP
jBmQ7JSqWVKssWW9fOBqf6MvtzZKXe5gHPJ6z2BGV1KQzhrZdMSIGMd8icNuFi0d
ncQ+iF674Oa4h+PhTOs/BvZQrJqWYwHRT9h8brKGwITl14tQb5xKLoqePTSzO9up
N455DlYQ+h0jsFu9wBp2JzRfF4kiP9dzG4EO7puz2KSHlSK+mZxL30om6UHim+vc
VcblyxEfvvHkc/Zs4l3Sm2vzkNaxN4PU1Yz0O7XHqP9qnF4mVA6LgPZy40zBOCd5
7DJZCwpbc+9965ta5T2JHRK2CoMNTKEpVaqcxqyO5D55jdNggFZJGBOXpmHVwenP
t0tSX3Fbg6q1z1VVn1lLN/C59p0hr20af/bcnvceCekJQ7XiuWhsokwkjBjdDcGp
J7H6fpDGDSmetHiMjBCNMLPyK6B+Ce0T6rWXU7OWpGdJkbbzoSE19CRZTpSaMaAQ
SmWsogjZkcUkmYkkJMUxS0tl99JklfnO68wyfNY2fmTVlq+0YVp2COsOBi+KKJXJ
pGeK9US2tVVY/IJitRsNUWb7ylJvQu++6ae4Ej3I+GTEdALuJdOXzVfbs5+Vx8dQ
Du2alh4GOUTScxIr6yDNjxiqkp3S5msSx5ABANk1VyWuE8yU+IGkSiNtGqNqduEM
RtCTS4Jp8j2QXd1kHHsSpB+RubluRYkGqJIHEovHmg/wsySzh8OLLe98Dn4kyRVo
2K7IbXZeSZhartybOcudbgorxH8dfrvAGFeKO7ipJ1qR5ExhqU2woVguSofJiJgM
roeHNhBPtqlq8xSWFh8b9U68ZOrubSovnPw1hg2txirYz1MVEeUHGFwwnJLS3bFV
s7fougg4VnZn0yPLiOR62QY0oP6t9GzkxbUX2KzMvNIfRDSbsYzOQ3J2na+HKHzr
jtS7GmJ4GI6NGDnWucUBVWE0c5mKMQzrPZw/WHXYqK2mulnS+EKwrs8Fh+wKuS9t
/xeZo4OA0UKs7O2RKf5zv/vzmf45SrziKxx57Ffr7fI4z0ng+4jfDcBzYMnufcD6
JYq/1e39oo+AEHez+/Pa86L/fXp7exj/c7x3+OEu0PPjCNzpB13u9XfxeGW467ev
B5WpQ3H8ZFg2VTvRvtB9+uo9E2gt0q7nsk4+YSMHuUXB34oqasAiqnIW4E/rjSum
1u9y+nuz6vh4CiTo+SzVc22bKjWu2LoWb5zUuOeAR+PzfD84HrTvFYP9esiom3SP
z+P7uhhffTxN9/dbqF2IvnLwSdsffWF4f1wtinl5eA1GjBcoQOjxWsmfxyH0je7x
fNtuVf5pypIrjsB6/YV4uzMpsiZGBqTgJlMODjDg3i47v2XzQPq6Gdyc7d2MfomW
+ty/ZiDoFTwo70a0L2aa9gEW1/XylAOfDYDF67jXSZktLYCi3XpNzCaN6tpXFqwr
+KJdpfwOopwsN4bv28EqX/bXW+ysmAdPnK+bo3QbZKC/V3emxORbJ4PAb1iAIk0j
+g0sAiTFY6cv7VWlube2tVg/tu42idAIOr5b78/J+mIvrwEYih3bw9i3GBIxmdk+
qjeVDk8F8tJu+L6kZmD0lX6LEaRVwI/wBlhR+tEoaTDSn0pSyErPS3yn3LGPj35w
+zz3Dhf0G2jNSf/nH0l/6Ntw/Hk84g+N6mQTT6EfAN2ZftP2I3A85/vpJOmbbVqB
8fe3GrJRgX/xilZ/Kk5j6rHYd7xDuf9I6w2rmVka4LtqGjki62eb7w3SP+fzftdk
tPbpO1rpqPVt3BvrMOrl53vbm6/r58Xr1wsCPz/nwIf/XOfHLvDH/m6WCH/ku3/7
axAwGX/PxJrFMLnNG/fTJ8OfZ6rGgc8gEF+0S0T/d4z9XupzTVAeriCS+Dzy+8dv
bjEsjvf9XujTlH+3+sCQH7eBny576IQrfD6S2OH2STV2R2za3QLMS5KLYjRP3rg+
KXA+LHfuKU38VoHXlf1GHVNNtvYt26XnhdAvK+8DQ5wCeyAWMZkZd170rMiB/U/l
rUoF0suhCVzG+L5fbav/7TmP7X3h6iIFcEll9tGlzv/R7pf/ntcFvq57/mD6mxBc
p2tGC5nRMMR87PgjvRMEt69E/PeNO3SM7sjsdwiLf4vk6anL7XaGeZDcjkCXNz7S
Vl3JoIKcRP4Sx6irai79qX2Hp2NDd6WCiztIaH7XZA4/O35hrXv2oq+uHmJAUyFN
+drpZPQNZb6UOaKcNFoI/RQG/aktXXy7K1PsecYGs4z7xoOLu84T46aRuUiPcK1Q
wn3tYlJANSop4YWHijOVNbdfS6J8xn4fbuV53PadL3oQYk0qA9lVk9RRB+AK0LV5
t+Osi4/Xo63hjgok7zpsutErroRaai6IOs2p7u+BOZUCdfSBQWae4hfrizVJskF4
69wlQ63ncDzQSXcwzZCP4bKX1xRtJMotNVV323bxfqnh2ZazFmDO3d4V+HztyG3m
TXi8kaoJe31zzx/Watbe2IJv8jnO6K6P23E9CK9pdN8NzTu/2vne53F323N9pt8T
9Yh1A2YggUypKRh8zTb4P3z6ZCKw1IX2Nr7DHNUqGfWtwau2ax6AJ4QgL6qyMQ8D
DrV4qp3yaDuatReZWZ6kURx5Y/dCHraA/d/9o58HOx5Ar8eeJ/6vR5UE5O7g1vM9
1MX+/u/9r/+ccW3w4H/S4xbAtyYJg24qBidX6537q8V99rEtVrpTKd69fVThNbf7
Rc+LdwFguQy0jAvXi3e3XzKGHfru498LSlr7Bgw29zzrslwpfTG1WWki0oy0XjpV
8n3wLh2p4LtxvvLUexECBu23k/UjEhVnx0tpaclvbiGw074xD386i1k88uYqPi8+
Bb54Cb9/bvZHu735ViAfbwgA2z/23z+tr6NRXIPWd7tBzT/Dx/5Ry4Hb/tsf/i+H
wcHe7pcvPzfd3j++P/7R/m5uB+nnCne02Ohcv6IJG5x5/5ZpYtOmDbqT/HveT74L
XuN/eWVQQnI/VBD4Ptu7kQjPHwnv/hX+AtgikT7Y6+8XwoPmOEAstqCIIziOniTm
4ao+2Ix/Ptgpy9+6HMrfKvvxXYgU4Cv4eTrzD3/sLUb4F/7j45XOrwhehHcjo/qO
+VbCHd48qxGBXhUXp3BCQszgtmYxnE8De2cwFpT2t+WTtmcq3SZKtCq1nkb4Ct94
spnlECuKspAoJTlEO2W66e1pkeCgFjmRMXNklyFcsurVll36lGwASYIHFi21bMXa
9XBKgCXObWTjIgE1dlf+n0U4uVa5xjqgC+mAylsJS2bYdtK1skHJUiFyXa23awKn
91qSNFleVu2QIL/r82QdkeEwXOEH5ef19u3/7873MYsbR4hHGqp1o44d+bP/qYNy
tkb6PML1uHt8vsB7GA7v58F4q4LeN6T168X4ZFm8fldEr9czrx+W/8/t2yRFvN/r
8/7D6wdBnv/P1bBxUa9eScX6tIX5oJvwFit4Jqd8JWl2kMTuGyx+Pjdqw6xFYtwC
3DqeYVdrW9d7QlEuxLzeUHqD1ebwbMSsjO7IksRsz89kcpl+dC93YmpuBpnKfFyU
f6uIGUXPC9U2XchgXG8+eTHrTrw+LVEdJzc3YcEPmNm76ktn+F2/ISLexnz/aO5r
OCaiZfP8THI7VDK/xFAcgghDGJdC2RBLPckxilbF+oRc0sTMHmS+VZy4oVFng32k
RzoCy0FgZmQqAQhjSa9s2XEaQnGusyASOUgmZxoCx9VrtktHBMzfGQzaCQ5M2x9W
hbWvN/16OG67CP00Cofe8egoZMSvrdVuAT1FT45xuGsF1NJtIwTxafBzH6DiXyX1
UnfSoW/JHuk50FU2e9xG+IBnMb20TK8cq6UW0ht5s4ODWTywm3PWdDx+FPmAHt4C
/iX51Pm+lOLTiNr4kveqNiXuMAmoIEvv7rm2h088ayRLcF/u8dJD1sj8BfEGW9r9
pmI7ViRH0ugqqPUjI0ZqLXWxh0H/X02WysyUC5ZOTGMnsBsHw6zjJ8FSYa5RsG8N
E/vBrEaIqpFTZFCebNFbhmCHMqLOvo9B4hQj8D+LLHMdBDsXfBH2+CMENa/er46u
lw7dcX9w+BRmmT/vAvIjEIv7aekmj0h1fa3d1PPTxZi9wDUee7+1ytRx9+0RVzRX
kyNDpBokTLdqsyqLNq5EIWksykPWHldMn9Xij5zdarLjiNRxTyFYIQ2ZN5CftHeR
ZRawe9UOYno0SyIxN7Sf8wrFiUnhOT3Gdx/2J+ifa0+Q+Tbr2pqrO+IOPBilqbE6
e75bvwXLbKOhamWxgaOwshVDsacJH4LOcFBrGk/PJ0MhmhTGHiRcJZeMGaXLBkLo
4V/9cx/NOQv5qkM/rsfF3wZHXxPmjSUCZ21JjvKxHf3ABoG+Xl1sUDuCucvUT+PM
3OEvjz7/tvsqgbGt2vMEBLprRPWa8rmiZpqB0EvEmzawrITWgN/u1QKvFM/XsBts
zx3y7uswOTsDxB+Q7JWLWABOFGLrnMY7Bx3TPh/sTr6yqiTV+nv5qUX50rpaVhiH
/a8MPVLB648cIqLcfFMxfnPMpRpOzFxzwdLIa3F0HbyohOkJZD5V0gQfmyCZV1sc
2gVP5mr6wy9fEE62tMx1pywwb3EjYvOIA8YFMde6LUe4lE6dIYiW1D8OKgSl9Sca
ddeaeTBaklkxw4MqTqllp1ef8rVjB0241bQ+gEWtZy8lWc643M2hby+Hz9yL69L0
3LVhO8mAmnOFjhgx+VnHqLAofb47ZOG0+c2oOhSUBLgf/MvGrdiD/nFWAnIVfktu
msY0/pFhDXFNrY6i3y76M3WYZq1d78Ee+FSsX6i25zJbr+EroZIV7zGk5qL+DkdB
JTHxP5EcIztHDAW49DxLJA4IpX0MbgQN7OIm5AEpZjiYQ0YNgyVioNQS72DXLtRA
KtkXHlbWuO4DGgbL87KLvFnuGFOxcBmNRP6CnC+I97vLfP9vgvsT9SSKJzBSXIlP
MLEnDz8wsNSs/eFChNvzecuGPpKQ0Th0OJr16dsH6Z9OvcWHRhLEiBUPYU27UP9q
96C4yJnNJSrfP/M/suZ6xU7OJO9N1Nq4oOLszQMcjvBWLdpzI/ZW4fY0n5WuSVVw
a7xK310LPy0ut0bev949n4yMfzGAJr4dJW6Y2l+Uq9sO9zqOykltbkErqGu44qn+
uau19eUn7cuPb4yW284E0jyEPwdqDwVJGVhoWiKZktW5JyFaUrV6PWaJBy9OQu47
kXdrjBvld6xJEOyHYxdmfe07NQgIBWEAJbQqM1BgOXJrQtNokThbDjhZXuMdmhJc
8+tR7iC4IgpRiRugh7nUDpXbsw5j9EI8GEVjUt4iId6jjH+SSZeZ9LsUwF2c82Lv
8CBMy6hO+lpzIsBgiocCAV99GlNbqNt9Ib8NiZ41MMMwtOK0amfL1aQoQ2j3OSzt
2vU0CVBSf0hkQ4S4mfqnhCB+3UKUbbziIjzgfwgydVDkGXbhzVdlWBAtCZChlWFV
MgXwzVrO6N0tnVr12Ze0ZVHulFGT5eV67F0ME7K0rfzhufuY42JGZiFID3dbCVGp
vE+wYNQe+LXSKGBaevOS8sq6t9pwyoFCNVG4GsmfqqcgRu0o8ZforuZ08NMIujj8
woVRhv5Isdknh75rwQL+zP4J/i0oGFtGc0DuhoRnHuFLhJbq4BXtDWy8AoSwC9tA
oWeIkCzbjdKl08qj4cEIAWzDiWnX/TBctwOxWIDssesFoX/WhWilPR61CYT6OmOy
BhMlIHbntUD/eC8gzFPN8E+bxbcGd2gTpynmktc5tjSJfZWfPdO9xLl7PEaq9wxZ
Pzo9lrvE6lIN2/3Iub8sy9pd2Jn/Rnd40et+CokkY6afzoJvLsLDJ7y+y3kS/W7Z
togqQraMknPh183o1kMYql8Mpbf2bLojqlDgDnUHBLrKZxrS2/f+avz5AN5O56iK
8F+/LhykxngtlfGoxEjHq/136z3lDWuwkX4qUCpo2HeeOLl90lkauiG4rp2cX8Q4
pFeh0jSm0VzCxAoP0okijNRP/UT2ka8QTBM9WglSQgt9Z7BVPL/MDxqCFMdFMzU4
WLtBefbK5SEjn8FTohDXQ+qY43lmz8vEOZifQLeIgsRxMSKa1LYRL4MwKZAGfw4Y
UrkKuFLX18J0ij9y6UT5iRHiHP/EdqzUqh2BTNk4MdA2L06PiqvrARoNqTfkbNh9
YAqMIHf9teUzLL+2dWPqV4epLYKeGkmLMCWajHA0+3b8LQWfsi4u8WsRgWe1i+EV
M757/j7imrscXjXkio5adBSoneb9YdjkYDF0vM4sXdYb8C0ggXcRwgOT7Ab9W/RD
JhW3Wvc+HuwsW2zB5lEmzgux5hgm4XRpY9sju2+7wU14ZLAyRohQUeqMbFjd6Ysl
ohm0zthqMTNymeHYDOYsQ+vOWFJ6qlxewamT3Laz+NCMIgNCIGVJYBcGARMDhJnQ
aSxdswEIXnvQJTyOG3znA8fcUZseeDFD0HDAedwOu4IuaXj2EpZM08P6uWgDjZDd
Zc9zMxjCqzMk0Z3cZZAZn37FQR+f9o5l7dXKDwvI4z9CewrAAh399pmHY1nHrAbX
fOCg9IlgzbVBjvNS+iMQArctv+CIXSCMqQc02zdZOqGd1IwvwDF+RZvX2kjbrCIP
RQRTQDyLM5HNOkwbfXa9vESW4wZVvOwaDvDHoBVG9Pv9wK29ou3BmZcGPz/+t9M6
MjMNxqLswF4F4YbbupIXQhT4UHIImgyyepUknMyRhm4dq+4exzqYS+YZaUZaJe3z
fXjxA5GOX2csmsG8Wfh5IJ/IgqEygoT2p4+gwkOctOZQJu4/WC8oB7I++FHZqLRb
dV1P91oFDoWQwo2ulOcddFrbsNETNbhvpr3N+1AmCNvKl4RauCTnpoGwsBAUyzKL
ldPHE0R5y9eKz2691qaM08x1nRwhGfhzOa+wetg1uPw57CkZlx23wXa+WYNDjVWG
YHOZUdtGfmMPy+KdLFf8x6ogc82Ammuqbfbl2Pzapyzbm61ROXu2MN/rFjgU2vw7
1Q/AlsUkF5wEYjhcnPqPzXmAG2IMpDMWP9u3OpIE6qsrIQJ+7zYfDBDwZAzUW6P4
ebtRmMBJ4TnjA3IRpTgKr6FD1jdgQMHcKwQSSLQ8+35i0RzThdwKIroTXiU3wMWx
qZ5nC9M5VBLTKfDX3c/qbBzUZgj6XI87/Rp17F2NVsU6TDw5Y8sW7IGtK/YcFz+L
rhZzMQ6MYuKL65WJaEP98fXMwss31cp0SZ+cJ+75Eign9Mvskiod1zPhTlUXNvf2
rfsdSiDv9tG/j7ZoUo/TRQQla5eve8UwqrylrapZtd3cqCyqmHi16+jPqLd1gW11
qD47A7q6UhMDXAv4MZ240ycuXzCSqm1RqDrbqMg/eD0iXabBfrB5dlXN+hVoMDUH
9ntIESsyKftsqV1NkxEmgwz1IGTj4vC6c6LOKLC8+YIXnewLjkdDaTQd9ENW5NXn
YeZJ38GvA7rDAxyi5pMGl0Vyn89c54zpqIgyRUK0AJW2b8/FWqLntg+YUFl+o2Tn
wkkmWxC4wa4gtWGfiaJg4B1uJj2nRuIVP3vjVFLYLg5uJrVFh+q+rrrvfKAokRMj
rprwz8ykB+jm1c/EP6MUXq2DCn3TUCFKfmBA4L1EFdiMqZfJQCKUlFWF6i10FhXJ
iyARR0iZ0CvfqAWFirwGpgXYxuP6RVKkPKgGbkmUAO3I3+qlcxDiPABzNPiYpNT4
mUOLnJK+zHpuY/jRGbGiTpHkZIGCfMbMJY1aIm8hDbbQijyH9Fd89KRy1Ujzovxh
GzcEbRUehQeAFSooL+h9SLUvCgkd/mbXJm2o62aCfK4ZNptTOUxKxSk250nhNkNW
OM/CNAZrN+pCDtvdPeOBmhL9iPZt9ukofmRLpBa7Zuhse8VsRaVgDFeACq3fr3l2
EzlHyP5L90ycppIQCaxiApDilVEpS7BV4/krq7G4suHcxBFRHQEuwxqBR/itemdW
wL+VGa/5t53lJdGlsp5IlOYpmWrXdZ/5aGTiocvRidFUonWfzu9uH2VKsQ0MLql0
lcRtCjx02I+AMjMqFIiNv/eC7do4yh0EyEuI4mHXFoDYynJkDyjWHhexpdoUyOpp
HECmKCaKtE9rCozrATMX6o5sja4zZtCd0iiDZvtdpm+pfyQyaPSplgX/H1cTvSz7
KEelxPxRGPPJ2znVcDmKM8BCJrh2XZt8o8lccQMtevU5mEJqYB4ZtM+1Cf29mthv
TXo4my5TUO69A1J1nD4TmzcxkrqDgJkk7AGE0/4/tNGQsgDm27WqpABaKUG+jK7A
l35JYBcPNd55tUjmqjRiJUFtBus/tdRcYfAvaxEWSRFdmtZBI7UBbssNhmZelgid
G3xBdv28HD9yMFymsKMzLRdPc48+0F1RtzlMDJwok0dejmd6L18YEwNCI/rk7V/N
boODP3+8t44jfGxwDWuRXfGeRyVf1RWc2OeM03KnmrOF7VAyTLpZecT3mKYLz2sl
lOOAdXqf8tGhM4x0WoLEwb9NIBZ3d+P1hwVGf1bmTf7dEypWzHMiR0IMbI4pEQm+
UTP8O+atUM4gxhrEg3IbG12qRXigTscblT2yT7Dte42oBsCmyrmjWWXqtAgjc/hn
3QikQR/kzHYPGhJlSd4adgd2n90M32EipRhnm1kyMzy5GUoXqScXJ/BZ4V1AQbOI
00AQ25gY2qfmaLv+M8SZ9rvfpHLyqBgtFEKXn1VpBLOJM29VtIyC2MCToWI1t7YI
4w4l7CHzkxMzMTJl1+YsLGB6YGytDNssr5GEnAYnXpP7OmW9jA41dPxrjE3z9Zda
Ps+fUQQI38Sg4TzxrQLzj/IG0YJ9mawQjgf7eIp8KCU/LirVoi85CGsxiZOPeDAT
jCzFFzbKWo0Z63dlbURSnnv/F22r6nHqCdpJaJfUopjPlMxrxN1Qyp7rP8wWzShH
5ASurAcelrGT+PzvTCbQKnI+bbIijIwaqU+VTVS9FDfDIDPw91XS/fb7lYLaVB+V
Q1GzgjOKOwAVC69O4m9Oq8soW1BFHrrfxtwPRQO289hk/SW3/wixcocKOdbJG96Y
r72yYx0P8LNhoVsjOF3OwEXDRVc1pQ6JQ7lxymFIwPVMHgJUjEWiZAImmflLhYXY
bEYjYwO0Zvbu3P+brUV0hWtE5tZZ62SVa4LavHDNdWvyXgZ6+pXfpCfuU61myVyU
3bxsMopjotFgzhebUsPfM98GsrRVIdrp0eHSlFMrO452a7iCaG7k3YTKG5rJKxY7
o6r9xGBWe9XJfnfU0xSdQ23w/ZnZDG0B/x7wq1WYlIt9wwGb6rG5Vooyeo3X1arW
OiWdOSYWfYKJrov0j/Z3l6uAppubkS5s6siFRtAL5rJD3w0f8VrP3esqN3j+JjzQ
SpmUJmF2UKz49YsJL1NQRKGm5ubvAtcje37U0mSl7lklIutBJGYIsu7Uma2Gfn7M
+4U53306swUhBmL4PiH9T6aD18sr2mY3B4wsnGjWvsWexu8aZvqE2K7lzWZuSDnG
4W0wth7+0towxm/liEBpNXox/tjJFD0X9lYf2U+2Iy9uJR62dtL9rmPBr/XNSG+k
MWKhbY2f5+qsS7OBJHOqRx5Hj482VptJFWYOWBTcc1onryORqpn2dXIjjLiEtQLA
yRuesFI9C+QU/Hf9FFkePLMZ6HIkXMxo0se406mXkMANvhuQjlqr7UWt/ZxAgeHw
QZRlXZh8BGKOgAuNcYY61O6XWbOkrwnMPif2bwEOjLTszt/XVpFX3sloi/I+/mk6
fl4hODQk039/0VKpkJBgqPnaHpTPMnfU1Sw7o2bORDWI83hG6kPXpMZ/xHFzt6CR
Hs4aM2mcfjjIQvpn0Y9S/Dv5s6DCtMxJTV6YxS2Vizac50Q9SiMcIFpUP+LZ6u5Q
p6cd7M+rgQLgyZetCsOb4RsLhxpgY0+MyngccsPppVji5dd37dQdGglr/a0L2xdw
1KlNT+gqNnOYDJHT0xZ0DsnlR2cZ7p7a9rQr+9YUvdF2W0pi83cXs/b6yeopK41E
wE2jUldrE1F6M6fuEEEuokwsQTHCJLRyln5Ykhfh5fSQZLB1mj565ffLitVj58Wm
fInBdmuslWphDW9lTGxKVnNmV1Cw2ueHR10LNG+2dvZxjf2ewpODflcQGyaE6zd1
i+3zy65BB+pSwPxT4Iu3ATcXVLcXrTXO9Ig/ftV3i3E0rEZX6YGxRMXNEKLE3Ewq
4sGhvA8vuWhf76FxBkF2b7oISPu37aWiMUYNzKcXOcZB+i3z1znoXqjB8Wvw6+vp
62v+naMAP390fK/SaSBCXVsHTlthhazCxnRgAqWu4/fDrWQT5gjUVrMyIoh9i2r5
N8JkwY+jCbn9gobXFN70xq3T4WfOcHyxJfPg7lVKSfQievH7YPhj7+jdHcu7//ts
q6h8MGB2djHIN2XprXgrOl4GfPgbqVKghz0lCd/qqbb22HSCJs3fxKdz5P0SiL8P
zpmekVPwnF0PYmlaDuydnO29VLC13ynhPh0uQY5+KsnW5GWF49vn/9EV+NnWkvJk
uK3PLCW4w/eMZfUnCuH2TwelyPxLGEdgwEViNmt4TczuircpoQeF6yKd/m7AtofI
GDEe7YcYxX1+HncuxUez1iamva1Vr+7QZxqsUg63OnEG8y+dviMtDRt4muxbXpiB
Q3hDPDm6oeG+DF/qcFQqeL2H3PjH/izc48qm3zA8ZJn1SQAPCVQQYgIv5yYlCmPa
v1bAJoY6+PsyrD8Mxh4H8bG20n+b9VTAzkK+LqrAbeE7vlLAzsp/Rmkk81FybVeQ
gz/OX1VCGWOYazcGYSMCQLNR8TGkqbIR93q2N1P/V5NcOKJjFLaN97UVCwK+ttyS
GiRBIYYu4nR/gDRBynbvre12Pk/k6dwzkbEAi2i3fqz8HAYdR9GPeqpQVU+Ccdsg
9cSobZBKy1IkEhKyvqfY8hpVbz0zY/lzrJUMkKP2NpBfySa5H4KUAxK1HXEPG+Gk
igMyXn5WJ9oxuFmeDrMZUE7xVNKkDgqzkQBl2nD+XLR5uc3mRJ8FgNN9EYV2C3LB
KyoM8+gxcf0PJJvsO/G/CkzIafPCyxNxAFeRL7QKMmXQXETE1S6iiSp18ABndWZR
Swkm4SoM0zJz0nGAspGaX393Y2SNlAcxKET4+Np61uGcOhtRwhrI2ccGj5OdZ578
iCPhFlz7Uek6lqlS7qCK4Dw1p+1K1eLnTKY+GFlNig93uMbIWoGYtcJEkStU+MOS
R1YQoxvUM0yfoGIloOWGsVd4zegmwjUzv562bpBQYrWwan6y68EKPlMtqzzdnqCG
0svQNaRdxaysP/QqcjniUlxUGhuCq3X/qvvMzwkappSJR7UuSPSRbHYcjx6jrCHH
v66Y9QFaNudfmI1EW0jNmDIXLY5h3r+OGMf2NU4lEwWnkbDItMHbaQICGp07KHfr
PxVpVp+FuBVqxATofxDC5Gfag3lsjnr7OJOGd955ZQ3JLHLaMnj3cih+U5pWYajy
jDw2VAlPTsrLptxVjJdLulCkquUQbBhgYMxKE+Q9L54IpliYx0YfnRxf7jcROP8c
KU/6Dt7liTCNbUnmTfousiAXshOvways+plQFDwnFp9zvvkSfUYrffclahDYDxkh
Zds348v/hYGf/EcghPp3+4wdU0b9mQlhSSRM1qS/tEtUrGCde2mqm1G+gJqjznyM
rp1GPSYSHojX7kZEV1YIXeMea1i/M+qwmxmE/PfNZKHJkpnF45kiMcfhkeuX8mEO
n9WQUngNKG1J2fhnbAvKsfVeQ9ey3PKeROb5o3Inci4ORK2NrpXJaulze1f/mjuh
TSC5rKputfvsVKS3jRUsBDECxMPiX02RIyPkCXVaD8FpXQPszh/xSiZdQs1WFHY1
7g8ghzV31Xj9F8NSvyX6z+eDO3mDkdnBh9TVouCOlK4mjP72DhHsTFzsgCqmzXbk
uh2mlx4vhM2pXnJqPYCaqc7ZhqGrCx1uQDrrTb7AaexC99KtSkuJboLPnL6l7LTJ
SM+2Zw2A4EXXZrm6x8JgY19s3s42yn+heNfJ2d2ia32QdiEaSX3Z9MuoCuYH6Lka
ayHTEQz2aaksdVAmoyiPx7OhOX0JI2pUbp7Puz/v6/29Sbzk69vVuRrFFzJX8OI7
ynnhNgQVvXvNBNvAqj0Tuc5g5pdxThTk0Fr5rVQlVp4M/yi4nIVVWlFTpgTtWHf3
MPtjTHG/N0joAI+2LxmSAHfzG3vSIlrBSSAbONtAVc41ye3pB6qeWgl0moOaMB5P
XInlpWB8FzUX/LkhcEFE8Mqs1xwqyCsFEWDw4J4tNQaOXAPjG+sBz7gkHAcTiqQF
vl0kWUwrJSj+QgponYJYtEHg6efai29cQ4oxJ268L86aohdUwUkN1Acwl1waoJEQ
g644GpTMLRcDKBo2J60Y9Qc9KVocvoylv5YgphKxjG6KLZTEeC6bW6kwJ9KAQ/qn
QW7WtAiBOd1gXcJFnw2oec6LasE8vxlPBB1KHFWEGcY18+hIHlQXEPOgz7Tm6J8Y
GJCZi/NoDBwoujp3cBH4/P5603ccFSbaNNxnT9vNw2hE/on12nR3G50fROrOQDX6
0Z4xjZCUQzBYfyWsr0cYWhRKkCGlHDYnJHsUovqFbj1FJKLTsI6XreCoSgiaNcYn
LettTYiNbQ7GL1vBt/+BJAO2K8cKymLMR8JjvVZJJW6KgpjY7tOUHiEUPQYIJIdz
6YzLCczKBdwyiyBwyrRSQZDmLwjo5i86UOMJ35/DmZCpuNoMG/B6O4LJgtjkhm9w
ZmjPwUwLRVgkkMkviB48OBDkRNazyjuQEUpcM3EiId7ydLrXKXJh9mKB/BNqpw7U
YBbjDD2nZaj0Ddr1Dcrw3adcU8/DIfUSdJOSvu73ZQ5TaRaF2o+Tv/e5wsfYJPYc
odwz7hmfFQK4HVBYDQ+p46cZK5hojXiJzbUMN75ln9Q4cjup50bqY0TDWjxWOLhQ
H2g4c7AtUit7EznEJ9Z1SivQQ4JLtnK6e1/pkxZzrMGyLTHP1EfBZ74ngKj+j+F6
BgwFAWAAWtu2bdt2+2vbtm3btm3btm3bvFszZcjw0owZjnrSB11NcHbGJuDTy0zS
2i+Os6lYHxiguoLgAkoK4RpPbqk+L10rnzhiuhgG1ooZGG62HfpJ5cx8iOfKdzbP
ogoAhYk9bH4SxgQkPwk76KVQAalS+CCvz6A/c/PxYNDMgssRBoD6pRO9cQkjAvED
nGSTK0HZzZToWKoulqKJVz8OaaqBvOxAVBGM+35q1E8or5BjFQ0EEQazGhWjwzFU
0/3J00kKc2YBuA8/TdUeBkLzRJkzAQMyImBWU4zFrXJKVgtBDVwSCGN8JvDF+NZd
k154ErUi1xidANBodbx9PteGvh84NTXVohfgO0bzWSdtjboZ6FEDNhIdg61tIm+0
yrbh0WvSubrwb9esdjO9Ve+aTI86hVQdlNTbItuRaV3jl+yX+hDN+DKzpeKdMQua
o1qX7/fiRLNc89tiAuAhQOHrkiCvXhyxfFDgCwkYxdQJ3GwC425jclvUxWI/Tmbg
/a5ZDSdRahfc3agel9PL4X7HzHAy1lZ583IIuFGf5hTYOf/pxDmyRMveurkS9dmr
KKOypKcjxkWMBaj1H4EF8TJOVrsTzkPU7z9XtduGSKYPLUWojpmHXYwlyi09eEFT
I6kKhQbbY3duh4ORaDR1s39pSlyw+vzKRL9Nr19nm3dqLXt/ul8/YZt3c1Z9f7J+
W9T5yN8naXqr1tGzDXTeyPIOdg0VYaSJSX1sllCRu5nOKyj1c4RA6N6nLoTyBZuR
QVr0hLFsYWLrsutgRcdEKP2E/tWF0OCmUTm8GQVjNsABoA/6KMm43MmxwqiS8coS
Y5v/+z5cCMo9qRvqmVsA7nCTJHxA+6f8pqhHMOFOewIj8EyL7rCDfaEjMgTCmnaB
ulG5hxTarvJkUMP2YW/aLuKJkPcuYCbYOhaK67wnicOUhiiQIqnF0sgDPE4clph7
KO+oUdIbv+rfwp5QjCWAzHrJGZJXUpCPlNGO/IeJzubhl9sXUuhUoO02N48lZVeZ
SfB3NWP1xSzzshNpN+4uA/gBRE/9k7DrJXBOYL2n6ayMKwWRqgw6R3Y5/zpy7NgU
Izn10dMQIxABCQPi+6BvoGAvukv2OsUELwsmTXVHE2OXf7KCmw4sJtnqkjmfaSpP
hiZt07l0SR0SPHidQmBQBWQV1a5N4UF++m4s7Er50owew3Zp3dRBaun3Q+Sqmsv8
rriVRlPVKyDbS4dDswixUQvaqtfbJLvrMlPF/dJq6hZ2Wxt7b8lBpCxHDoJUo+Vk
bmPpsgYko8cQxx64PDH1y/GJd4VPBREv+pShsZCuYGmhdQsIQo6MYWkGLv3FhQVd
DSTbFwUCLF0BXI3iPzqwY/DSHqf8ojsBaKS6InwtYaWvh+qa5PHV1cVVOrbXnJyG
2qJ/fNJiNSNE8lYfifSb0lWthhhrzSlqNTn2se8fo/RTMXls1TH8Lb4Wd5bC7LQ6
KBfF/1wXVM9LFOy8LW0USlGBfbbARetEQJjF2zvENHRan/sjq5RQn1u8s+0+U+PG
tDJR0w6hd3bPSu2Wz0rluVQ33vUhHj05sTUz2so9AusPLHH0E1MuRsmmRLdO2SY5
mLWdUlW4nEKs6N0PwIjKQrnD5Sde6D/i4p3hy4IrmJYWQMKrg/jjX9J+5//mh/pQ
aniRtAnJ5kuoRKYxthfxg6CjL4qf0b3FAj60v879Bsd3yb9Z8qZluudKy01sDDVM
38L9KsMIp/7U4zVpOO8ZzSDCfsLjsyE2jh/DI2uVO42OrGKz8beW/CtYvzRVGbbT
ROsbstugvtlaQzXzbNBgI0aQyOmT1ovC6PH9fq4/9AxdZY2urqTnK0+7JlfioXSG
6CanbdYdzsZnfs9UbsmsheD6ZPwUF+fwN/JSQjhOVUY21VkFVul2NaqvDAVXVmX1
NC6nycDi06J6a2zx9TbHXLNjS3EYtL71hhG5CFBytBVy7qp3aIqvzojInslmYiMU
rDyWRlmLaiBPdSOYVwSoaobT5ezilnC8z0CxpaiO9s+Tt68JarRxtQ7GcO75MEIi
QhbZb3i5gmFvA3BPCMcWeNrozHA+10W0o4d2QXi/yw8mxmCa5v1SymTCKP5QdvXt
bPDmcDAYbkVmXaAvkJYc+GjAX+lfDxffPYSJCujuTUpe82p7nS4jlytDVkJSivWD
WU+zFqEVGIlfZczpIO9pwCQRqvFdNgo0QR0O89IRy2OZgXQhN1a78NVb0ucnybIj
Q9lbD5YvY9SuZPFvtzuejobO5PN4fjJ/Ff1Mxo3OiX4Z5uimv39djMALdY1hWZaj
oNnaNHPPRZsddivi3tmEGobAG7avbK/vJoZL7evlPCf3M3uHQ0EIYc8BbJeT+orl
vsmMzhwz+at6o7L1i7a38Y/WPbq1Edgl62jMCAyypCfiyBzmGyMeiNdXEbe8EFPe
9ovizvd2kj4WpW/uFww5v8Mj+YCIvH7fD9L2eG9vdcxSTFqOAXBAVHdb3Y4ZOWTb
psWJd3p9Zcmdm/tXQvvQcEh9evvJ5ATrT2ZyJANhGux9iOFQst4Mcd+bNqdA0SWt
OAYl9mdzyJ3cnGXApBZBGNMCIVCogALok5eG/BVcId4OyICMeH0hEWt6FWzA+qjr
9Ih/903aMqdd3Wy8+fk2nLvD2J052QOzGYbobXeBY3PamPtRrrU/t4vindDiMORo
vYPjgdKEM9KVYazrIt/b7TgQqowOsqOFrRVXlvLsaDD4VLtoNe5lwgc7PDryW8UK
4E7n+Wy4Dw+sTC0YsJCRVWMs/rli5evGXkdL1InRBAl2gOM2GwE/UkhXNkevfFew
LGJwLX7maGzHchpXS9x4u6CNS+sbMWGD+750iZtxgtfnShJ04h4lweGbb1ZjtisU
cpxXynA4T3RwKiNy0UMQ7luUtGkefp44lfX0eM1Xafzx1adqqKb030NQ16QDBvhh
2zSCwfAy/BMShp5wI6fZlICe+5YahwbHtQdcS1LJKTUbISPxj5C81aB2dBIuICFn
WUldx87y+VhcLdvIO4srhOGfWHm1GHc9r95hk5iAlr7HjSJdX7KyBc7PHFO1cc7x
H0SXD/8AuxK6ecHKonvHQGhEIosWQzUoFUTIw8ZWjLBOnSM/16351wzv92S684k1
guScvUWA53moIKs3OvYFQSW4Zih51YKIzeeEZp7W5SwzWv33suiUCQtoqnaSDej9
Xpg+369EPAw2T2Omz6gtHvMUEVM2Rs0tHdKWCImxtF7hdOLUFTUFUxsa8yHr1nux
s9h5ptm9HaDQrZ2bTYGU8fU2R7qkEMI1dsbSGqi7iSX5ZMLQZS832opXS5r5IuIY
k07hM2sjpAwGxCBE1jWuKNuEUOXZ+toDcQQdfvhlGQTrkK6JPat60zDTOk4fQcFC
n+7ROpdDO1f5+uh4mQauA0t+I1vZWuvOW2T8z/a6NpuFr4HdXKzdwrNCim5WZVAu
p41QdNlxMziaUt5sZ+aoItZjLkaYt/kWYFBY9eYky9Wfr+UWIEUtqxPL5rrS5uVm
PftfQtkniFCmySGEpQXdLnFP+QvA172DNaY+hXJjpkCUOEYXwUC5azMK0MozZwE3
L5eKi720WSKVjKKXbCrDd4HbABNG2ZAxTxiwll7Mm2Vrz/d1pdJMbwPYYqu9yHiZ
xcDkL+zNhrMsEPW9CmhMfyIFhUE4Tnwuy1cqeVy+3lUL1qgA0ctZ2JwglWVlXfE4
RwO4VAgPEnJ9k3GnTJdv1lmcXve23+vKb5t8Ll8qXHPMM/AdbF+kyGsD2oOYri2t
xny6PNu5muQ/I3CMioFt3bH/J7yAUyRR5Pk1jb5TNbqDgd30QmUuJPFs+ZDLEpor
FpxVhisurGLpHIYehu/AwHiWHoeVzqQ15UvVG0wA8WYkPHiRNPkVdZ6wHOXQiZCF
ZNZCCwGoykNMflQ08zpCo1qD96YRvP/8+fXTr4Vh+bWejm7PVf6Omh/S2otdfmQB
IO8zxU+AWNBH9/8N+kN6nawwqzbs2+Zy3ru8LQhjfVMApBlafT9GgBYLwfF8eC+R
R3DAwW924itiWafv+wbqacHFoXLAXpJjTnF3aDTUSXqBvRKjOw6JAgsOZ/+cHA2C
1gxrty37kjrc40I5iZOtBNPiNxqflE4GCELymUEQpCWpfHKrn9QCdJ+Xmkqc8Fxl
ISylpMlCDCDTc04gE7d+1n2qESlPOUL00YVNMuzZajEbGkVk0WnjrdLvk+f5bGo9
SKyKU7mjqRhlPemTMrrvzT56vGOdDwNVq73NYtxvC6J/QkZwJVZXoPtnOgZhJspd
n0qhvBomH7g/oLg2PQPPQTzDtjGyff9rb2ZrcGqmdQ9H7y1jo6J7nr6i/8Kipgwl
cv/J2kDYFdQS2tEwG3yDSynzpUpZn5CO8X3DAqEdrMzUaFN3YCVQglxrStxJYe54
zlEIAOiQK+bvkNh0lgFCMfwdvedJbUlbzo2BZh3rNKEyeWIuYr4hlu7gtEBfFVD3
tsJUW/9qZVSuQgADQbVi2HLOvmPjZtX9kzpow013wF5/526IQrnuc4bS96qPw0yM
2u52Z375Ji/9fcQIenfjDyLa/rPnLKU9h1PiJ+ELjh0bUVU9hFYjfqJmjZfqvXIU
+MyakUueZj0cETA5pxzE4MoxMtnChXPn6OFIdYjTHqQQwsv65VczJivahQdNYtt9
XViEuHTK1exmLtPUQqd13vbaso9tBQx0OL6oiVQrDrt7PrMAuvdKM/+GUSM5LjHB
coF2wGkxHQL3/Biznk3dixMbUc+JRz9T55il8cDYZ11Pbfh3N/wZB2pb5LV6BoDE
5gV/OGCUweZYbuGreARaSjQRqeMxx5GegFDr4L11HQH5aqHVOEgS4BkFyd0rggDd
6yqYaW7ZRYU5L6vA7jBStiovSlB3haTGIje/yyCNcbNe3sgs+T+AUEC+nPKbtXpq
j0pPLyh0DBKUu01roUDjbJ6Fly6GpH7ulCNXHLxMDRVb7tKN8K3nqNkdGSozQiGR
saFfkDEVWKjwS7Ki50KIUnRmlpfvFRwSl83LQiwTu4iNk1ATS41S8DQgb8NTEgXz
t7R9L975hJBZ4pNHqd+ZpMv8bWPrjJUUGm7i9zehUETPBw1CxehZWJAE85UQs/4n
Arbo4IRiZ6OSajWyH4Se4kyAZTEHq7yirTUIVye/RIehW/iPcwnWu1kW3uT4h3mS
ONtRV6kMqsZc9ssB3yYzawKR6Hc/o3CSR6VFVXVBEX0RLv+R8pAks3biJPVQFH1k
IhoCgo8dGG7VqQcusx9YR0tbHd026qtqEOA0psXR+rF+fvx0FHu8Pm18mZYTkQmO
sprQ3MNqKbPI7uBooRwpdr4d61AHQD6Wcf16EGiRxsjQc8KyZjRIpdJs1L4fqcSz
X9UdFLkqmhOM3HTB2sR6v+q4+OyhqvpQoY74zzhHZ4BY+LHc4EH380yLgUkoBrV1
g15eLhdVf+O2yPnzDtZy/taqIrbNN6TmUV2bZ06fR14FjGgb3F8pJi+irL+XW0Pm
6RnFuZMPJWNK9axEyicF9WKEiBxrirePsz8y24/seA43I64EEwR9gL2NexOl4fOH
7ymBT8+NTDTtyVdGVBNYz4M1RGoFpJU0B6xDb5w55ihK7CRvDX44dD42GZds8OBq
PAyOxEBxCHobgDFzzAWWdLVAVY+xSrxHZDrDAddZmYBVyGapht57rSB2Il5k7ScR
/cjEfDuYl8eJqAB1k711m0ZA9z1wdAIN/bppWM+fhXtW7zwKxf8la7wOmBQHngfW
U4l4I+1uHjW1Eadh1vtJJZxuZEc3XcdUO6hm3wdy40yNEozYrKzMjdeZ0i91jszc
IIOPQGt7ZEjZSf51kxt+oBTL3bzJ5LpBetnOlAlxF2amzjIet32+6WAjB00bENCZ
so3dZXE6ooaGm6xB2YkoERh6jVDDHazI4TAsJZKnUlS8cZhs5chw4xCld9COXMcg
8rsZ3i7Ezqe7kjCgDI76iMMLjRioCxmPfQzqAMfRDWL4rkTZw7bwni1g2QzK9tR3
bW4rM3NPTFwnFjf19w3VP6L+dNRFWp6F9iNiLQt4dfg777pHIWyolIqyIaJiY7dh
wd4Oih4ppdmPEJ4lXqToeIOTHp6RLH2DkDCBBJiLksznp7twwJJnScsmYq4U+1Ej
EaBI8n8qokWBSeQ1WoABZXa+NNHnlbFJU6rEo+Qol2F/PBMSM5ZiiNAHixSw4Uuq
pEhowMCqcK607ykc0CeoeLX270T3DWkxsAcIU8+HOxMujVgw5Ywf59ssDfreszpK
ye9KMpqhiA2iARkT4N/0Z+ycBIKBkg4Yb/CCYhnq+xoKyO6nv7+Yt3aF3fS5GPP4
KCQAV9lvArTTuxxquZ0gUlo0RYONFezgNODZ4e5ydbq4scbr+fzWwYTRLyaeuq+5
AyNMRtl0JkkGVoPsonxwjtewlupUeN/UeyxMH1H1HBBlYaGkpBfOnr426Nfm7Rmv
DZawrRHcv05ZshCfH2hr0IP0mmCBaG+wMBcaj4mqUyXIBY/siRRF7C0X3cl4T2t4
ZNIsqjSw9YUpMnSrrzH75G6Bq0D+RliyhH4on3Flm1vd2LobeDXdT4CqmECHxiQ6
UomeLKOZluqYQl+L2GRYmUFbk6qVKtFIazFUp0UX6yvHWk/MUyciY5uSkwev8egl
tVotRcEoCCGqoTJ3nfQMvVSOOaAHYamYsE9UEbJslubChXO+ge0tGjWRBS0ho5PZ
s2C/wqEUI64N3R9Nm86GovMaX8z3HWM5bjfDBGAARNffA4f58aGvRnwZ4aKLzxVV
7m8NBAltM6YGj4y2pm9cLlT3EwxghcK11qrbqGrodxSacrYgOKnIgrOpreBonHc8
Kpt7g1/ZkBulLePPmGLatBXS9uWq1XQXe56chHoyJMaRX3Qc+pj6bsSNdOuZOipz
OLOrnZHWd5ORCKwXuS13YS/bCaWvqrlaNzqGIvtYKDA37AsacRl9dWPn6ZGFi66M
vhJRmVMebeXRVfKmZKt/cUe9lkIeqkJLfLoOyByqiSTEckVnivoaqkN8ITVEOPQQ
J5nQGyAJptxPw9zLHjToA2bO5NDpHirI6wiEOBBIhgSTUCrqW5+amG9POF7mgDWA
VLT15LHZg2V5qSvPf+bUBgMyv+1k+j6XSB3TcH9yVaoFW7YMOi6mDRCbURtKdy9Y
qR0q4e3IxQh+KanlC3xXmBoF0CcOC7nGJnuN8pS+ObzdI4MBceNtp7lzh8KFYNnz
aIe9YCjBZOl7KVeNuR9ivbyn1zLafs3Y4W965V7qYLlpXHfSdK26HufWfGLYwoO0
4HhSCIPdXzYfoF5Ings+gLGZObZ5sfMgHQay5UjY4SpvOROEGbTInv2rar3g8Hyx
xJYv4rsNHTqvqcG+syeagt2y4QgXdkJQ/wx1Ou+gwo47iO8w486/fgP7xtUih4oF
yf9n9O4gduwSa4P9uuItb+VTMn45qrjnVAr/hCMpMccapDqv9jTCiq1e1f4hWPG2
7p4hK2pIdqV1qFJMfr27KWK/zFOBtCMlkc8gRIXIvaPp12ID+RnErDkmKjRJ4q4L
micTW0K9s8pVfSM7f8CA+pgTt0PTwFe0mesA/sI4uJNIRcVPgen91anh3VTz1NKz
Lb6z27N5s+vYM8BUW3TaCnulZG47/EqVVes65a9V61bHdx/6VdPTKcvkhdK6az/l
9Zpq13E66NnVy6bzkls8EZFTQYkslsZsOPAcL1Mvg61Oa+O82DPWHMc4t+IfHQGN
Lop6lv0MGrYHS8n0QBuqfhcgPl9oj4yBc3FKOnXJQj/MtgK0gYyMM+cuFo7IEuU6
DKapPHatMKcIr1FTrc0Yd1ll7a2VFhkGaXQgTUZGl1a9wDBDdmzebFQhkHQnPlyV
np7O9kRaLD1QK9D5ArFbAorLClmdkYmGg+9KkOJOlc0kjt2hyOrKIni+8aqVYw/B
H+XPFfCp3Kj5aHHnIflsjnINn1anDEttZYYOxRjdasJLO6W9UICWkuZr1FmHoGtx
M/mlILcT5njpgyG3HXZAcl79yFUVONvNdiKShNqj7I7wTw+hd/iyYYOLR/b0+g52
hMLl/vBEr9dnm3HgjvOixXwE7HsEYyHqvro5Q4K332gmV3Lc9DkoUXnREl22OHy6
1IDN0kvi53pHqHSrScSwEjBygJeclCWq3cXlDzBz661ARBGUmkrquOdE4Gt9y6Xc
O/aInm5m1l6BunZ4tfHjHkbXJJMlY4Ug239JojoUGZtoSx1WDY9CY+mzFwqfp+qz
93EnV9BHD/N6nL3kjpoc/2s6v36QFdjThi/Se8mD1nmGGXd9pWOZK20XwZQpRY68
m2IUKiFe9csypBFOlbpbuF7TANmyCvWQR70m/i9mBapDV6tm/u/X0mNfv0Uod03V
yj361PLnWLkK72HOymqA21KP7+hC/+U7HDzqjL2r1dWXPKjkSWtbnZM/uyXkSem6
DlsYbOqUvLHV0ueqTvPZx25BZs9a3W1qUEt1t/M5tcVO3fvqMmvKrrbPBbi2A/jN
GDyQQFAR9q7xDfn2Nk04hl2t0EvYECSYwjyNP9Pc+ui50Ed4hHpkT/5B/KEtaQSx
ZQcFHcWPeeSjuDeNxrzcpuQ92507gjAoxjhA2AZfZddhhQ3vka1SCGS3mHVF0CKQ
NivYAicBb91T2bzf4QW9AH3bUAvNq144eTh59nQXOJw9aIGXZsGQrZ1C445FCJoM
vyTlq8kPQdFOBJcIgFBLKGrNuiQjj4Y2CsvauklF2abqo3GQdsX7dVQ1yPPywH16
dkV4hqZ/zj5dV59RJ/XhQRk0kIZCrPv3/bURBQsdiu95hIuvwYBnlql27vaM5g6Z
ziP0vPzb6+X+Y80Kew+OcYuDlpHvgS/oPcnaOIKSvRdbBLWpjdmsHEonR4etb1oU
6CSML81t7eKyu0M73ABMG5SLTh7N9zaMv+vxiXjC80Tx2NPHgUWgcCxfI5cmgXmO
BAxOjIXxxF9fuyE5h1RU+sKdyY5S1ixqKdWQgyh4pBLx8GIhxVWV10RU3EeoWHbJ
NSWHfjFqaWrEgqvNIL9mOZUZZSARbXXe0ihT2TK7AqxEF42iME7GXjLpJJQ7tR0E
llv5UtzahLWjfv4syOO2bXLduVF79lxKx9IWzMzvXE0H9hicIJie4mDrB28wQ5if
zhU4RGbOqqX12OdGWMut7s0I20eRVpbUzyAhm1srcb6Jlu2B5iAdPaPY3dvrCzgp
I2lcGiOsD085GxdcFboLSWml61JgFG/xfZgI+G1Dyq1ji/2iBKCqtTlaYm85Fvuj
ieSH3pAeV2CeIgQfrhTS0cKX4uDprQs8r5g5ls4K6U1CZl2puDKRaluTycGcZ9+z
LIjZc/NUhe+pUw+bWy1GtafuZaHuujDWL2/UbraRYYfAgdSJ3SO+Pt9IkQEx602a
Czyqx8hVqtD70KQyaF+/Q10isz8lyqXK2UZFRnaIC2X+RKPJgyqPI9rj03seq7I8
fVKe47UU9FwGmRd1YIYenWG3lyC4cgKeU4rEyCiGkVm6kTLG+i22TOCoQ2d+PM8o
JX4BUysD2Hbf4WSQKQIzFbLNaHmTaJBGJxLnQ2QbBUgjfR89tMBgnLVtEEPCatCN
fwLOLKfJYi+Mbr08QQHkOrM/MG9RFU/vuI4DhwVHRy98hGqa1ByaczgMUkwhhHUj
RB/hrhMGJ9GwQkAGe6uVz2TOHrtD+scDl6ZyhUt3jWY4RyUjiOKGxJ9p72ozrEi2
t7HNcxZHmzFK/42bIbm9KAHpzAXm29MvLe9urc6V03xCoqaoh0Z50vasI3RdjV0K
Uung2z5EYyyXN5eUGNlffLhxz3SIiJLOBpNawADiMAw+Pv63GiL52Qt0ALCqiGe6
ywypLeqFtZjvhTSiKl3PfBc5WE8NlEwrbh3FtZE7cZCijiRxySZEHxFq/2Jr6T1J
8h8DQhm6YS73CUGbqUBrtswhYw7qqJAy4+D8jjnqR65tZjHd485Opsnf7eRyt0I3
zuD+ooP0mIzRndMKo1HeKYf2CaqaQZ4l53dUSwowJtJUsD75pDXDbM97+OGdVZGT
w3vThGJyg3UKSD4HuZRAEpobZwLLcB7lIRYgkf1YjF2eqX7yRAVi3MqB1KZQ65kD
3gXm9CSEEgyJNV7WSIqg/62iaUkPLMrXgDCY6jExsn0AnIUrJ9UjZHiGWjT+CK2k
6VPG8BprAioJKdcd/o7Tw5avyYk8Q26bonQcn+xp2rKJGszvAefkFBfYrF6PZpit
4PiF8Pu2ySwcgL+W1CeiRx57Lv+j3P43saug2qRYpOrX6YwihsYN/CjmDJcJeOah
Y8von0cKhpS+Atz2DL9U4dwStabkvYn4WPBrmMyCLs3naeMIN/8gTXT4Ng5GUF41
+xCjWS5I2+CdGkamhBPQBgfFaBaIxDEGfAfkB7HzpTaXcVufdoS6tICugo8xFUPu
qrJT4pnhLtnHBAdIFsjtavmRqFRfbLceehX/bwIC4xOCcgo3Kr/1L9Uf4IkjJVnG
tOE6rWGiEQDogeZ0d5uPTtRmLobSQ3xasMmjbqNKCERDz5u0SS4SpgBwAQM8Dhb1
qmYy0dUfKa3jH2g1FAiDiRfgKw/hsn92kaeGOlpWMqfZhDI68SkGg2WPXwvSGbMh
Fn4uoT5fcpHZ7RYyztYZoMRq+8PMowfdx/UFeAJILAvHIX8CpBTSXm/xQwEZgUjM
HClykMUbCOVI4wcdD58efaVOjOEET1z1iAKptfghwax0UFlEN8c3CriPHwJ+nNnT
SqGm14UBJwxpSi063Oc5+16K0kRk/KgQHRXBITI2hdKYYwKPlR6g8u/rGL/jIU8v
19Lq9SPPVnLOrZQ4/gO3Dt0wkHNbUZyO6YvKNxjJpLGTENtTPrEbHMsWZpH7UWCq
Chb89Zd35H04WZc3126eZvdqBDz8lPPDhU8SnfXk8hOLkasmhdWI1ndBOiOxVlPy
M1JjuQclCjJd1lsHfsmYBLBYLHqgxNSV69jSm0MekC4m+3jlKYxrdHeglVO5e7cb
WQqLDgrcm1/gswRZXuSqQFgQ/FrAAevYExOji4G/TZP5+vnmsKXD6KqpJP+ty53J
UyqbyCaCm4rVKerr0RCotE3vYXLBdbhpShxEywBaG2cX3Ti4j2qcjV3o65gdIygY
NcmkVIJAO0OaidQxUhWFTobIosxYq3DSDYAhrda5GR8EHwd4uZiH9hPGPM1hInGA
G01rZxgDf9AEz0VIlT499BLob6siALtoHl/RhWW5HwGB/Kf5t3SE7rzOZRQAeuYm
RsAYK4Wy0iUo1DKEKRjDAY+x0Mw6k1YcVo1nrSFjyUII/Bcbf4MxpI5EqZLb5unw
j3joEqNefWiKGr3qJsG4vMy9e7DoGt9E6+06HyhSsXhV++783s/Nz83wXimbVDiB
YgprxJdiL8OkBaBGqto+GAtd0trJ0vd28EJyd8LuT7yZqq3gWm24n2f+ZB9gAbcB
6vuF5KljksS4zS1tL7PDFD83V1TwUkAWqFQrXe9i9fxtaysuS23GcJpNzRT7MZ1r
dgkd2T9WqdkmxuC9xONhVe0t3Calp7ISRW0Q5WNQ917TbEYtHJ8dVbZTSyCHVtxp
xaSf8wiM+Ws2gTVxQk0UvBg1T2k8KPhzo4lTIoxApfb3eTeaeysaYTEAYY7zCB+2
wFtHxK36RnypNlfo7glJQQ5WrVH9I2JFRFVoOeBSA0Ff+F3fpYCqEFiWDTvCemc1
eleBdW20MSYUf78fLPB/t7dMPRayepVP2XGa6XSotRkg+w+xftOjXCARd6M1HzZR
wbtW6tky1ni2NTYNpny4WfWfmXtMrph7MJu2Xira/jB/fO3iY2hbywNMiR+Uv3pM
jjdJPFDXvadzo7MryvXf60ZvpuOIeox7rROXMm7JPbP9vCqX4gyzvNP9Ht/PK3Jn
q+BKSF7ill+mwT9CQRKBB5w0jU9SvihSiNISlPQYITMtsRUyMr9SjAHmkjPVHmwp
K3wGjtnIRlnOJf6YWThLC0RsGBQNYMMkJJhkR/3iAMPc6OimUPy9Ht/3U+Tyfb4J
czeYy63K8IbAp9zVBnxqbTGVm4FD6vhmLxmAC2bsOPydVExgRiQZKuEI446EJVTu
HuvaCJk3UI5iImJus1/7mjJiEElq6cwNjz4vnovTiKVFVy8iMVi4GcpIWmXGSFLa
rKR9/0fHpSgT2AUfIfQoJITWDIyV5gxNp3znKsK5AVv5VxI6jPWzTkQ7ckp+UZp5
MuJ0jsMsLJCz4N7cVhbGsms4i8p9E/GuWwzFoN9KEvAgxd9Ec4TfCejILcZ/Q/pd
ndWHrYuVsaecFKTvvt7WBem2XFHynDOlabXHGLDvTN9fDQGWH9JLBfkBaUPDf8p2
AzvpgDAoOFnG9n+/d5spH493f7Z9FydvZKdmbc4ldM5JWYlqS6idkb6HqfVKWtek
VE+mulkBqWDM5qvOIS2Yza6WUSZg1OS8PLf4wxIi9opbaEmCM9SJOBljf3R/ZRC2
O9aWlztcxX+4C3+3ljokBMwPZ91TC+RoechynzzrB568CrbRTny7XIfFHkzq9T88
smqNLqkzlltkFzqfWXMNrremzDYbKl0b5e+7bU89NUvAGtDMms6k08uXOi0SYQJ7
QKaWS86kagPTsGQXBjdtwRmnppuNVQana7uzbtpncs2hsnMMSxR3uterRqtwnW7G
NIhLH/jll5Prfob339IxPgqFR+oqyuQ7+cj1wVvcCVha3AGm89/EOfWr8ZFWL6e3
/1onmK2uBO0ZEOoyeROF7dU2GLJMV0zWsxAGfss/eLQdayrH5zU6F7bFax7hfsbF
Vj4hXe20+PW0sYZ6YqP84mJUfuelT2yWSqpYsIL+3dVFrK7lci5mkvstV6uZvmv1
rI8eMAzL0YJgstfLDBg3bgZLAnZeuQ+lHMRh15uvM3TTfsdgeSLvfwsl4uS+LOIp
uCTjKPnK8bAIlrzAyK56InLRYDa4opAZMAYH0JCg03klL52irVuSthQjRdcmjyCP
9syPvziV1HO/puf3GNDVLISC32el87vAwgh+NDLZ5BfgSqvClEe1/2PnodKo4KYt
SPvqOe8kb37QutkWpRjjSSvObjU+G3VTOnGPtUwJ3Q5bG5+ruQh8tTdksBTTYQLv
iq0tD9cULQaYjxzmepU48ZbTX/Kn05eXJCdRTI2wX1uQA9BB6FVA5XvZRBxX79tA
1O7I6xskHN+ttVI37K0MMMCNY3DUbLlXN2iKwsI/JTz3XVfDvtaz9h34gwb2wg7X
6chRvDHcWX1f2yr9k/BHCVsItCc7g1z7ZsT689fQebK1V7Vosfhi6ojuK+qVP+oj
oGgsxj2h+EENM0BuEeGTo1MD7vgD/tS63tRfAHC51A+FA/NA/IEv94uS/mT+pcJF
O727SzQMvnsQHuRXojyA/zPilO/YcZzsw6eTTzUJ6dMtbsbnwflxZ6t0/Hmy8DWN
6pMRf2SvJnIXM41MIyu9hy+R7KTgHK9m0ViVqbqzVn+P7Xv85HLbdS3gvutdzLGv
MKIpaLAtSwSNJnxtiflR9hxUSppaVFDpZYDXfyxmuh9K6JA5X/Y2FJrGYC0bgAxP
/01MCIoBX1GoM08oy3IhnV7JDtaJzFy3GNrwEDqKJwSynojgQsRGLjTShp/J/3hk
oa3BEkx0OxCc3rBIwB8Y6Pug3EKOhaVGI6FXl9ItRTKoCmaLYPYVwONsjgDqJDPG
Kj2oej0nr5vzYY0aMrw4298Lv8RB1YUVBPNFp4D0WkC6pbjef6vai8KFtoNzHQYZ
481N55+dxh+38/oyjPv1PPrtnufPWGGKZSksaSUbOGwbtKAnjDVRwsxVo0I1+hPv
+5Jk29tGnxMyJIgWbEEGcSRL1LzTluaK68H/uUV04yvqmbQnWeEMbMA+A8wlL3sw
ITcYEmj/cLMSNudveCvau1lAuGdGVI7snqleHSR9OCN1MOhJjemlFznXLrlVnja4
vzwJe8g6zVkw6kQ4Ul/IiRjQnECV/ncepBVY1OhAzLoktM3MNmbcNa20AyN8LEw3
xSbADGTl8L+02Y+9Om2iZ86c5QFgVtGCyoClcx1zc0kYqIxJxY0PAxbWQsQ697S9
GOY0LkigEn1C3frSZdeXy/+xfUM/F7tyFtY9Gl4skYeJB6Ldny9QtrCWt+jvx/G3
r3wJWFe+s7N0fxB1AYBFbpHbN/x/s30beoZSL3SsM/eyaLPuTYdwdq13Q9lbHKbt
xGiOsk8hCacvZz48SVdH+geo+3m74BzcNYzWu15hDLN3B5zL17duBmDFHt6snX8M
vv/xFGGzRcuOmo2fFJFBDU2567G8wYzf7PFGn5KKXlfFQYEhT8G4yDiw25vgeoG0
yu6jD1uZSR+TLPdN+txt0gzrmeMRtxwOPw1t7EZPzNJgx53AvulUzzub1KJ2w3Ho
bMBJ3evRpz0mRQjDWJMYHNqNJk1vgkZ0RI+6IjQIjn66QWKM4cLSr7joKF2dkPXp
+M4qNUWeshylw3TqGvOpGCgoOojLVKWvAzTqSmbop5EzhvCmPG+nfw32zcqfS3LM
YNgvUpP/61OAL68TObdvHfGP1QgciBohfrPPRN+gdy7Nxq1+Vr2qU1Z0l1qlgD2g
rrS8AiMiK3vY9/a+7/AB916LuxsWUDZ830CNXLqMiHS5lmwUxVsF/foALUe/AWUj
uS4OCUIkjvA5mfmIBJlwaR8G4Ez3vvVy1wB/ys/tgNm6XNcSeYkugYSRzQ4JdiHW
mnVwgUMhstp0pz87tqWtIQMOWqff2rGc0dFP8gvNEmdZYOGfEPsONYOw7GQwHqjY
5Xsebj3kSTUufaSzv1mAwo0iQIbM57XgFgyUozHoECAC3tsS7WrwWEGRzpdG/ujc
aGMFYIGGozmS0yaC1BGc8oVn41keBZrOyAzHDhdGR74HOD2kWB9rhm+hvmK66gxy
CI3aXrqBWfChf2PJ5Q+coa2OgZdAE4WhZ7HUM1Rkl+Jymwkk8K/wpcQrb5SNYB5t
fcL3rMBBZjPZQ2eGC5TrssFrriI6Sn5ja2cA7n/iGkfqQrZ9mV3tCX0Zi5UdONJt
WCGghRp6pfB37HZm3ZYJzm+RdD/uqWvrWN88l3XKZ1eLfS41KWdXi3NZwLk6nGyg
0xztXOdC41nAB/Qzc8pfZV86WT8pCPPdrxO5bmSHS6D3axowGT7e9dGYQPwD0hTl
zV6t2vVsYaOjTTCZWmR4f/9+WOKHD4/rO64a94NUljiJcmm2/Oku2uSqEAWZnuP3
A9dA/et1XmpfeaKNP6nKmTsWQ87UthNLglXKnKbtWGKjbDFnVjrcipcZPuDKyYOc
sPvxYzEZM6q1YUJPN8nZMdcwW9Na3Qg1yUFd01jd8FJP5V1KL6qZguyUVVHMuDie
2C5LWiML0V3Q/KguV1nNUUDfBVik46z+qSEeful1oe914e99adC6nhQ2PBUjwF6o
GWLdzlZtu138u/0fKHVD3IBQ2oP+e51uV3yuaU6F6bCDOECP2mys7f6NZlaHOTVB
+dumM9oGabthXdSI2k8nNHztLs8fASUyhnnTBaJwphso4Wyvl3uiPnqODle2Wi1e
gm18I8Jbp+wM4+oYwK4Xip91+BLS9aSl3DUEPGHkCfdX79QVbsm69c4hSZzgRSKz
WwLZ8cRx3Ar8fp+EtMTCzZaoD/IM/PoXEtIs4i7E92Y88sBgMp7XPt3m3j0MeXss
WH0PWn0WbH7IzX3mzX33W3osW3rpr0TKSk5sE3WtIqRXgFckaqNQKtvbAsZYiGrH
gcPjgnNOdyllUFUKQoKkvQj9qevf/r89gD0kSgZMqo5jiHs0qeWlL6RN485Fz29c
lS5+E20tL6ma6y/GuncgnQb8hMeddrD9oicz+dTsL5n90tQ9YNuZN4yT6AfntMOv
M7sH/Gwo/zgNqlKo2v59yq4DyUXPJNdHZA3JJU9oC6Fu4swRtYHN/XV+jfn53GuY
qe2B7k34scYH3O7eEU+KV/Pf4YPyxx2TQ9O17++SD7x55YHx3+2m5CXCl2rLNEG5
YtDn/Vw8LKGvY3FtsFNZ0TRkXaOPbme8603ZYRw1OqtiRar7C5e7p0CLlPsv1UtX
Vx8BIszoU7eMlcbWRNFyGRIX4sJV0jmGemTTs9wUvAwFmxvjbZ3jYNU0InOLC9AK
Bg8KvWzhsjm+MMveV5ZOMLQUonudjdEQEqweW+i6AfC6BFDrvrneENko7UEsJXNS
5uqRlOqWAqCrhCOqKdsNuxgj62y0KITV3EZFxDPgOKYlwVzGediibx5sA5ujqx6A
YueVKlUvQA0N32mk0mKW90j1tLjTjY/rKa4VqfrdDmPYMVYTRveTiI3vTU+BZoRL
RMCnW7oD0lAdDVBXCGigB5feY2BZMqAEgKaWOtxKmTKtMAo2qs24OKPDSZJCou5v
QyCZTnCk6E4TJw6Te/CxYVHIqtnUZUL6TF7cT/tOwahIgD2l/fjAM+now7y8HSVf
ZoM1pd6vRBvCC9ymc6JtU2ftYgvzDpFthGDtvyky8gUkIBybE6UP187Re7TqJAEw
+/50+u64uhlNZAjDk12Pgy8lRAgxz53pD9tYzQJrdvVpZTrVw90ENcS+IjMnpf8C
907MR5rny+qUBMGEa045QpJCHgvzYbwnUqYBK5R/pKJUSrEwHRFO6D2BjjEL1kPd
SAxlVQZH/Qw9qJI84Buvz/04lAjrVPlV1r2wfIHr8unDfQqhc2JzjmzG6sh7YwPt
eCfciq5KEjDZBssbn3g6ZC8toxa1oYIhR/KCW/spupyH88yBri0DBew1w2Gy8tMm
Ke1C1vcGjbsa3IttAC3wT4425/gZiecMhxKuLBlA6T8m/XsUhht8JKGVisHXF83Q
pCOUOO4celBvnQthrILtbowM5cwKkHDxPdawrXgRCXXItJxpKTHtgdxu3eoryxqH
M9rFYRkV+Dm+dDLn/F2F3LiXUu1qqJqEPZRzYv15oVNk0sle5MOyaO0vgNnir68/
NBaWd4Kc0wan1k3mLpyL9sIkR7R8KGA8yjQ3Aivl2M7aBSY94ZxWnFrVvN/ubJEd
/53rbXmxelvV2mpsmoLl/pJYbISsMkTOIoWIST0xyvqNxheRpjT3vx95VsTFJv4H
f+L02mfyp4yNEV5L9ghGoAyfSBJJ3AhLOxwb+ewpIWROZuuSeAqL/kHzIxlMW/X2
3EVsZ3Vmks5ZJLQADI6+8sTJTpTTeTVg1NUXNOGskRu7fHqV7rZUgNdKLlAMVQfB
1zFEiCRDnogOPgdjgL07yNkqUA26jdnJMil4h4fZKWWtgO/H0DcqrHTk0IPehqFU
tBqhB1jhCyT/Tw+pVnUkdOk2VIZ2KgsX+9LGgV4zozrGZwjyk8s3Ys0JKkTFHhwM
5FIxUkIY7wucQZdzFnnte/ldR7yaZhSOGAwnhdoeo1fRyrObOZRfepSAsEIpogvz
DQ4eTv22DCA/o+ahNOInfJ3qgDVTZ3RvvvJ8wV1pUOo7Kc4zz/v5YkfO+3nhJ46v
Z84i4ye1HsHoc4/aKFFNsSb1MJtvsmwK0/hyVbsYO6I8BxDvN3PiXLlK0ivi1QTH
+AZa3FqYCdtx+Bn/IcSokfnlRhGlslU9e3SjQeGZrTUp+EhIFvAwvyk5SvguODf5
D/nEhDwcm8IJEEnE7UMbFzH6JTkYnangDHFFLmddYyVclPFJ3/nN0H04OPe5IMFv
Ggn/3pQ/daQ8A24uPxmgv7EkO6k+3UHD6BPe8BXvDf5aHUvOv+Jdyg3+bmSnqN3r
LXf5hFtoDCvi7EOppdIts00MPiJU7SkU/e6bKsMR3/RPBJ8mmydqgEMxg/vD9htd
Tpd8ox/FvTgMDWAwl5e6uJJ3HjwGtA4PUvnFOqeFltuaktvR5AW2QA8JPvAGEMJn
n1KgHckIGDSmtw1nd7BOPRK4MTa8i4ByT+ZwURCIEV1CxPK1GwHjiCDoUf/+lErZ
GcWXo7R4ojtNEn3gayRjDvNSXVufiICYx3BVtguXd89th+aGZL25zONlH5eLXac1
B8IWxBXDAKBYbRfEl0g65oNQ1d4bAQcVd3YHtU0BJAjByBf4shyb37QgEJAF4ICB
lZBHY/kAAohl/SQ+GOlZZd3aqcim3T7oh0SUBggXXLjeBq4sFxxoUn9L/Cfz72Jh
4l3GHqRmpE725qfck3z9otucwIQ1mjGiOazicoK5XeLsLDJ8mIZIyTkErGxqUEJx
vS8S3JdQfcXlj+Az5TYHwbTZnKvhxHjQauUe90WRKyQQuuf026wH/iOW7FutqG3T
bcvO+8ijI7cXmEB9KXSRjwjKbPR8lzdVpwf0lGm4AcMGLK7okBBokPGYg7lVTLUi
e2OmNqslhBaNkvMJvE2E2x7WOznV0Ekb+2x2F0kymdm4eUZsHg8Ho4MbVgLeEJQa
qwWW+W1kC1UGNCbTp5wjL+cveiCJ0spOpOqfCxDrI03TN8DAdY3xqYGd6jysXlTI
6VSLzYjt5K67FWs0dHEqy+5Azwh/ep4rCThQCojQjYPcl4NU8U66zs70ViUX8EAo
0cWdozpC/gf9ToIH4z5WWPNB0kKl+taxftJKUdHG4q32Mk7F3LDNFMXP1wE4swC+
BXZh624HddP83fB5bl1SaLY63aFS6+0bBHUEmhR3uuoUqJtZI2DTgcS9CapqM58z
ICwKS52P1gp13c+8S4qirLW34/u/uHBrVRJzKGppY8h+KMipOTkJ3uimpGn3HZpw
dz268E2C+9XX655KXcHQsgKNCFMH9w1kF01a+W7PLkVeNLCMz9kzl5UQfLZwLgb0
XzyPCVoZ5qvGghQZFKnRYtV5esqWlnJXpO4H8o7rFjFuViLztWJfpk7LtqVV88nJ
t8Gg8J51GRbNKdvIdic6snSaOQEkKKEL29qFFtuP2H/v0RFuAy86x+HGp0Joem3Y
qHNcbBMJh958O1euKGRV7Bat1Tkk46vT4z7eglds+40uQsjmgRMtxoiSMK+PRO3k
1dWAhhKV3e80m2wXl44Fqxlszo0U2ta3uyONl+kAIa5cdoD32r58fPaDvKx9SuM2
YegRpaX3xwPM7FnGyp2tGNNF+ZPSnvV01QbTl2+Dt2+TIZtAI/0YYfpTbbmUD0Ui
PYeIpsTmsBP0C62A/UJ+GeK2XnoKPVLlAbHvLCbIyBspP0L+HhmsSSvapFT2Cd2T
4FQBDnq8omccbeGi0Xk0UJiRopUrNfBioizl5k/Q/QZ/S17g4PGFJEaedFI/EdsC
rijIX7uR+pu7om98LfwxZMG8g14TW6VvA/3x/xoxkDH8UmBhRsiac/vMHTipVK00
NwhQgVuX1bHsIahN7tsNxyPft+g7XAS6+MKBWHDC4HE+vSu1AxFcYUjjBSs2etY6
uzwKHFCmvpddAvJ09ceR5B2JfgOyM8IG6MdLCAU3wvliOGKzYzBwGpXy2TgfPSsM
6JN9g3ifMoL9SaDUApmrNtdG85VarCEV5YR5of7J7hGVGSbF6zdhPcgx2JUgABPS
ocD59YHCj/JCA3nTkPKKpBxzJYizKIToxEQXrksPSo49kcmiMx6uDakkncwNnVgX
TBZqvxuwYUQMa2u3+i/UNTUGnJdL+lAKHqqruZLEufFscJqJB44+Twyn1RFyfSLk
hxNfgwy1xgz5nOLpGYkEtQrDzduJGyL0Y3CYQBtrmRj+XtrQEU0tAdQGLow4Q0+p
9tTTbN5guDnf9Jxl9DkbKrooVwSj/gsNMXo1qZd4IC2MvxhsBrn8xo3JIYTttLQ8
pzOYK4sF2hzt3eQe+P0JcP+Zs2uOcgAQtawx2cnbhG8bka+MyVDYgQtqg3Ii/Wyl
12oln7e7CJT8nskjXuKHuePMbsXfTqPVOS08wmjajXpKTramZinMCG9R6FBH0+il
wRRvAIeHTkrQUk7yR/rHjkbrK2tqdrhEgX9dzktC1GE/SRxGvowJlEj3icr8Rt4L
5wJPHMpAX74L/L1LB3j7cnhLnufI60sQO/LrNkMaj+6dlUtwpso3Mzr8oGUlyhh0
MF3pJ16rg1ZxkWMAJBGN99LLVwCrrfpBU5GsroXygQmObuB7mgyQyUDZp0dGQAxD
RLgWNjSEIngYxX7d1HjUaACwp+UW1Z90uFoz4HjrrrjLwVP4zXdeRXVPMpe9y9qy
dD38yuYixAzbfAZNO0sax4nWzIb2XCxpzlrY6gHoL/ySC7PBVYotfolNDG5kqzs8
ChuunhFsYRrUS8a2nQLhiltLML0Sc3kMfIPIr0wdbyKBNUIgyUOukJb+J4GEB5BP
VUMihTrUNK2gGOJeGWNr7Cg7GCllEvZd7Vg7vKzZnFsWz8ApXqzYxRolDpXrefYQ
RyY+uR9NBiOkP+55xD/6EAcJK8KdIKvClatEzvx6lWuW1BwclsC1ndJhVsQ6Qad8
5x9hces/oxyNrtsWY659E76AFoWlOA86ELRMVtsfW7GQEW68cQ4p+uwWxsmxK9y5
Dn1cS8HxUeeVR4AqRCdE0YtC471XU7vZaJucTLBBVISQ2cTBgPWwoh1PA86NzsDG
ZmLdBvb1mezU4jwfQcgxrBBBWxw/h3gUHYLl1hYbY/sAjtULwz6dBO8YWS1kjFUQ
rgAmWBuFm/KyAfvEjpj3gr9jSKbn1FAGs/u+mpTQ9g8HZ/taLYiZ3tJua1Rqcm7A
3QHh4abIhw0HKwyjIi+89uPJ1SAj0FDJtLWl00Mde+aVPxSwmZuh6YDDDK5psvNK
1StKFc1eHD7cpjHoaaL7azsGRmm789lf/DNPv0QwG9GVJiCBDAVTfn1gFGRJ0Ftg
EEfJ0Jkk/z4Ny9cgN9cJDTvlycR9Rl011mrSYiRCfINWR3SYNWlbdH4RhuNXAnaN
ca34UjCVw5Bqh0HOqq7s3vZTB5bAAwfXj2c/z1p76Jy+qzw27iyRc+0VrY7Mo7c1
dGe8bXJkX57j1lktcCAYvq8JeM6pYq5Cf53faYz6xrXL+ium3g4rRkyxdxZVUOMD
ztKrqKMfzRUhVuUselxWgolQlYUHlkl7eqnCNIsxYiBYWEKsiFQQp88CCSPcTWn6
USEGLqxdYoRBw6I0aA7px/awVRz4E97A+ATSEZ63MZR4j9grjQswOd+jIq5Jw8Ja
5Zpw+7JG6KEmhOyEyO7FGRznzVxQ3g3o6JzNXuJIsFfiTLm+JMr9/s07nL+zzZMh
TOc8iO6GXWKtPe95MKniptx8QjskKgoaUkSIJMqZqNfCny12leCU2rvX89Zh+24M
jgqTIqZcospjkETJ5kZHwDmMuwDuL5FoGq6AHTYrqb6ogcGzXjeJJ+xVwBr/jxon
UquaF6Pp7FWp/a5VPUhWZ3YHEw45VobqUFKNR5I0PDZCUnjFvq53eoaVJaLekqAg
oIvnzzdeJVdZ4yF04tC4dBAOYZwZyzq1NM0J7UETt6Ox+7F3Y35odIDla8s91Kfv
S++KrAE7mhfMLfmWYtI6FVGWzNkH9/UgL9+jpwX17AaliKsDxVTvh/uB/233E33w
ps6i0IuezeSIiHsJO9bGJS53/RBwGB/LCW+ztboZcKU6FD+Osv1EU0s9yR1zjS+/
Dn88/RS30Y4M20k9nSGiSxr9/oyZkJzAUAXc4AlPshYNMu7Ug2tTRFExS2r4sU0m
ouM4uUqdFppj2GOGRi13Uqjb/N7XK8B3OUR38KPaWj9PM9Egj0pCn7GJn/TUDcsL
JRTqLR5RIcn/iq5cVRC3TS1o2XTseCgMOCNKeKzQ+DcdjQwpR+90u0KtNq5FDGsz
oU1UtnOWQGBQ+ySxIQHWNtNYLdW4rKAsIKMStOVKdk21TnaDeo/BZg5zGyytMO7o
xFrM3X8Ekl4wK5rkvbF6WqGaIAtgAEtrTGT3R39kQ1hH7go+eu346jNt7XTK9meq
9uPR6Wdq7nSK/0rv16L3+Urv83Sq/tfEvDf6Uk/sdKr918S6l+ZKL3X1r/f3ZNr7
o/T3JOsFtcva0YNfl2iLVAdE8j+OyyG8DkYBorGdxrad3LCxnca2bdtWY9s2bszG
tm1b7//eYmY1+3NmfEoznhY1SWo+vHnbNTdTKXmkbchXBncH7eFq7eC9zTx+qi08
1h556/891dbNIserZcz8YKr1w8qh31Pj/7bsQzPxXtZos2bt4Jy8CcayYzC+lE2P
CQP2j9VbjL0yfzXS3jlTpL0V9c3xbF43npsdtRenxCyTMpu6p3bp7A+pZcNYyUAW
j1wY90SGpWgc7TDa76JZVqGqAJ4u78bKg6U7r9FMdwKi6PKrbA+YrKKH9CnUCaVG
lJf9WrNZXSEVNgI05KQ4M2MGnaL6+lC+kSpV3xO9tTG0kyeFkwagTvLIVeZu0VAh
vdlT3fAkgAEPWkd+a1S892jIp6ryva2SdUe+svA7MYpeskQORCjjTd7H8IsNY+3I
wBiPOvif7EPamcLTjIqJo7QeB5REhu4Dtb5OI2Y5S9ibQZX0tP70vdoGrFQqvdS6
m07tUWrlJykkhiVgNTa1852iGkn5M7WTGonOTcvKNQhXdePPgHxUKq2YBoV1RVKo
ahiDaljLFWlqrW1X3xkkxk5xGsPTtkMIZB3u2FKqF30kDG0uha118fx6/aDjxn+5
YqZ6aA3Onhy0OrNxXP+DPFy77yRPn0ptGALmtz/Or5P+e+acg1/NFqNgpql67GSf
HAnY9Tx4nx5kgUHFt3cYLubVmE2K1DRUphSpmJiNNxKi3AVeEoWXNtg1a6qmibtD
6CF0bHTBzsb1zUg45L1F/C33K7p5UrvgRxOtQybbNOUvLEWKjN25Z08ekzTlq1J9
HY0qgeshjCXqNqhjNEg+qx+0qaoDEnREy0PhPYTB4IRdrGDX4mKH5I/Oh3D8Otxq
qd60RdnGFdRQ7nReJPAnUF3u0UZ6KwVXpWyhLpZ+mKgZq9eOaduW6bsD+Jp3Nfz1
vG/ofVcO9NjU67Zh4rdm+jYT2QkixiPawUrBSnAFJcBCsQMtwUww42c4RtUnbDlK
VOf/TVFHtuyx3fNYCWy3YJq2c0kSFLnSP10+fEhGPFEo9xKporS49KE5TmwfDxGg
PRgenwT0kFeDq2wr27dKBV4r5mL7ah1wXmhOVNrFvg7E7BPx3J3kvO6s/Ug+2w9C
/VPuMQwNWVvvBfltp8G7d/DM9Ohm85qgZ9eOPx52QIGwiJyYBCTqP+qzj29XLbPE
AvJ4xJLbFUHMBRREeLE2BQRI6e2uEbVEaTBFthWOLDQIv74+3+VaQ9aRcIQuEb6B
ak1TALioJOW6Ra4Af/Y79IO/BWUb4u6y8aEX9BHTF8xOR6FWkRdFusGfPBJjRx+Z
Y9JsulhnN+lpxwW7sOL1o0wThrgWDNB5z6Ozv5K+6UyoPO+O2cOPDERghm9qJHNi
JiXF1Nu4uNs92sqhMnZMFYKM9oWEtJ6/5v3zwUpiHadvbc4WU3mzgbLbnMulbf+N
/piW7P31xbiiipZmb5Sg7KfNphIlNt8cWTrx7Vv/HvR+ecfP1Nrx+z48+no6JMCH
F25caXrFsW7r1whDR+pkZB/RqOb0aOtu7gGTAWngDwyUyrksCTvRjhQl/AIP+wNr
W/m78Q69i2vy4eH1TiGe0P+HNfV8ekj7dOdwE2x6eLgSStpaJMPjL5MxU/J8QGd8
9lJdOQaiRAVuJITLP3Px+fJrq2yp7hjbNjs1Xj1/fanPDFIJB35o4g/hjYjfCSRJ
+Bs13F0Jq//Y7KZtx4xtbWGKCtie4tRJCCgL9RiFl6xaNXBuLeQxufVriAg3NgIU
a8Dyl38t4YuHlQXBBjRjlfI/dZKZfYfYfhi4rAfu/LjQsMAep+0FAdHFvtfBjQYp
qPPh6ccnUYBedAIjHXObdmiBdQMBp65/CC80IbOalvn4rRv8T8Zfu44UYJsig4yM
6erSJvS48YqFlMKlvSmeyaYcKTi8ofu3Yu72vjbH1nU3lWb8nN8KrbfI3IpUUSzD
j7PN5jtwS3nnAAZIFZ8o2WSg5pd8ie8wY5G+T8ctGC4UblMja1RUon73m6twfFmR
o462OI299bdLFPVASEKYEZieXEIzAOEqUu18ZKE8fMgInWZ9sFws3T98an4Wl1DF
FV6NDQe67+QQbhVGRYyHdQAOMH0/EDvYyDS/6EDFJHqZTqMK5wliFK1dflgwvl88
oMLirwMmlRhrcOj6qkNzyWTlouQ1ziRKOzGa9hN5Fl2wJAdqaw+7GjpFlxGyLH7S
kkVNbuT09eLITtGaBQypMsE3ybeVy7UGTEhiKROsAAUBNhG+tR9YaIumzXgOqsok
2krOipSF/wQNHOBR6+KPj32HcldDzQK7355OycXZCTN78vWuFYdTJ8tRQwKS65mo
ZcEB20P4OLoDH9wv6cpYPRLmOmogB0wrZm/HY7REqUfzbfSM7J3mHpZ6aTucFZPs
3f7Q6Rpw2nLNEQV2bZirFSNodhSwXWcdv0guKkty3RDrOd5gjRFYJw4PjC5khXt2
P34zN8umc02NsBg0jWC9oVJHraGc24eI0RUopiXDpn7VLBiLEouEAKU7tBliJZEz
IsOOZEmEIHxTQiyPS3Nmac4v6JmvJjeqD42Pq46jotRPoYPPTtZp8J7W0UxXCBnE
y+wGGRs0mzcDjmPSQczx1VcAoCrLzJJKBB85T9ZEh0B42TK0jH5bG1GF1S1WPkfV
cAgWYSRIMQeZ8EzAInaruEpkMMF362RSB7Z0igdX4itdahvJaPQ6G6+Rl3ZSLg83
KDlQRsSr9Y8Qi2BTJgaISY+z4FEWWpMKZpA40KMbdUBRjKrMH0RIXJOUkZJUmY5S
AAs6a1ZfE5iGHhfZCMAHykzTVC2xXU1YhPsgcyEm7VhDWG9jrKUN1f8EreaOFwq+
kGCjBkBDd72JEvuRTiY9MulJfC9YsDpTSyH69bCjGgCzsyLnYJmmJmMPIokVr4Y5
FWWSWQ9OkwojWLlJybNqV+VH9w+HJUBOBJNp+mXTr4IowDF7NjFP53IGlpXCvQ1X
+a72x0trzLwdEaPnEovpzao0SbXPobIOkR2iFxS9CwmT1wZWwOLReaspjHMrXvs1
JeASwdI61nAbEvHNjyKmpr6CWQKpHVmXl1I+rgwhJHahwm/sYerKcEgc++zKXVEa
56COduiHQMvFHNGzSbFMVksqlP9m/qpAZNjqy+8+G/ltQuVHbmSOpAI2KQVTOjac
oPcrM8YAN4yUiZ32KqC2Fot/LbNg5Ihmjw8AjYOQTMPT8U5YH6G/sUYMJu3rEdz8
i4QUpCy6IxoEJOo5xGoPxlJ4Cpy+in8suDKqBmTqQ1P+sYxFDaop0PB7Fh/972kM
8YhKg+zUN4kRSZ4le60XGwAsjd2Xfd6hcG2i7KI/qzl9tBlpIX7XH4u3u1On+JL1
jOq9wJc+8UARplj7N3a/My0RYJrz1FA+nv1SAvV+4nURUt44phZR7Ii+o71DNDFj
iHIW+xdVkMmvAg8lrn/MgVF3XfdgWAdOjYrUPlAYONbbWEMnd145ioFh1+ZNZl4x
KEaqTewDszB3qFxHsaJtObK7EAc2Vr+UMz5V0bC5VthVI4ZLCmmQTs3JaPoLy6WB
OrKL+EuDxRqJY5Dsvsk88STvHeMK1xRLVqWL92XCDznFofZ/x5QLvK8hSO7OjoJy
TA0QxqVaKcywyRDB8N745FEvkt3Ec6VwTAOyro3KHD4bSHNKzevDmwm5nIQ/8Zca
LZ2pjITHG2MjD29Z7ypBRJxJpvZ4he19+ItHDw5DCBxsBGWSiaKXVmA+ZW0+Q7at
RoCZtRJd8H/wXHc3ocoSxrrNKRGLb01OEs7aGEUcCPCKMfCDNP6obJgYghxgdZBY
o90hwIjvxmo4vaLwQ6YbZ/EuI76odxdye/W+Zz3ubyxLIbEl78Y76Bf77sDPLzhz
jkxwTPq61N4FgVIlMGSFR54Ey5mjOFBtCsiau5kJtF7CUaH8IfNYS4vD/oLEEh5M
zSK3JV2tNKV25qYn7+tJa6HrXqrT3+C4utZCmjkBLtUpZWMLDUmrVRJg5XaKCs43
qfB1vKU21CsZ747S7Hza/SrVZSVnNBnGRT4rhNtmp/sG+er7PU9pjPthhpvtm+st
noqSPPZPbKBoIaWa1DhyXV9zrpyeKg9mDNoObo3cySXl8AT+foUuSEyLp30r9S0b
fLTCXedIzA7t3lvztCpv9miccd9RWGFxU0yJyoo8sGGaXu2tjYYA17AweTRGtDxp
MWr0D98jWENRow8eTGKTMtWbCvQCC0+QF61Hm0QmWnuR3wxYVOpniHH68DQ/Ptp4
aOx+2d9EPEP0AciFDFQUD8vB2Qo9PakyqDTsRNJjDH9Vv7488jIO8pgVVa04Z5sL
Ed+bvhC3XHlbpPn8wZxXPJBynKXkVg/jENCBhuyVYA9OwFCiIl5qqUjlvo0otQaB
NuRDY5XjNAlqM1Fy7nWrRgZppbdb6vWd8lAgmxhlcv/AQCcLL5bi4JTD5ZyLHqMy
hhhyRPHq3MmOLfoHqTq/3GysjsUvvl6StXeGxUzwJjnp32pGAxMmCIZ5hKhzgSzB
i3qovvQf4+nImXnI0E3FPBRhobamFM6jCCaqdd72rTECoqVT7V3fs0xfDjWByt6i
IOCuw78pR/GTZ+Zpbq9kW2iArXre/U3V3ePkzLUYj8idL+JsF7xWIcqyUFLd6iJq
kpPqTCA2h73rX4QSIRwzCHwfNW0Plhuysg45rjBxbUhv1MKRk549dXqD9b4NgZyH
qhBT1Ifm1dJCAGmiYAwC3uWoPnvJOkcJg327m5606TBdJibec1kOmYSAHu2GLhAI
AYB8mmQkcJu+6c+D6sFX2ROixr9kWSz60bbAcR87qYFf5TjqIpj16wkzhePOe7Q+
uuQieyqr5/N2mXClj6pacHKl9oICz2RdiycxF4tE2Q3XTtyj/sg3W+huBv6KR/B7
5K/uCVlKjh7v7l73fNKPm01Xf4cuNYIyyqYjlrUc+bh5x79pV1lpH+e7eRiV4lLJ
AO0SmtiO4/sGLkzcD7ETUUBBxQGCs3YCPEKMHh40lgzQE64MFNdeScxbA/YBxOTP
j+RrIDzm/SX1rIaMJ8CS4c++Ol0aOyRuXEmCA3v/yacqmN+CLNbCYoI2P11/k15x
GGjQWFa9bGAAuCXrCTqT7x5czNj8XNK4KLUoQkOYRQRsBAYJRboKppcUQKU5NxvN
3SuVp9I8c1qBlvTNA5svGqOYL0yNR7MRX45AEfHKoGjrlMZgyVJR/2soa7CedSXi
+vi2CRnINrWB8xB5Wkunyiojz2Uyk22hTtL0F3WwVMiR+SXZLbMjm1JPC68g1N44
jeeu92rUf1fPC352GG2TGU872pQr7/rgOz4FRXkf0KISWryAkYc8IYLh0iYDu7/b
3ybucjyY9IT+BAOtzDeZ1OHRFwh9D9udy76aKEqrFAZG1wEc60c3X63+vQUWEl/c
NV1owjZFCQgiaInN3TcqYL8g+ev9smt3s63b+80l0h7zfB7+SZwplOkx25Aj06oG
uucysoRhJCQf2r+j9az8t2ozkVoj8n58NM3squSZBtZk2gUQfq/eDEi6A9mTpPaW
Zy6yqLu5JcKaSYJvPT5FntQPSlZVysymWFPZL2EhsruOjTEWwbQ8xoNlp1rzTH0n
j3mB6I98kuSbOJZJlNH8nO73TNfmmMl1oBZfJXbse4uAKcF/wYlp5nWf/Ix1psxT
axkNOOjB14CH72liP/62ZCXauBVRKTkZ4toirnjFsccAkjyCpSc+XhheqPtBHNOM
lCk7OMQ7fRBzlwC7sUb4R6izZItSDuLE9RTdZ1oyOdOnA8gsM2zZPjYidez0mQKu
POMoykpkamNUXbYQrLPaCb5RW+vqVE9vRD7awlZPlupbZqMW7uE64n0N6CAxTEOH
AkHqfGVECk609Cw3MSa12dUyUX7DNdHcDOmTF3HqnbclTCuyVu8PKXy+N3SsSxr1
j4lPYJJ+iZYc3KZyt7kmRledpfbAb++Vl5+T/x5PttRnqtN0b2f+bWuyfJubXryo
vByMfJ1XNgifDyj2/yuAcQpZW430ma70DDYMJdLst4X8n2OIZLd+GRKcOLDib1Dd
UXv2zN6yZioTpPpe/hupJhw9G9JSa4aKZRhr1D6kDTK0EHwjeFrTFNEc2VWe0Zku
2rXKJL9thpTI2/jQgQ8wXFkAXyD7m2BjWN9fa9y09Lt3ea9US+KCABw9CGc5FTde
KK4KsgjrFczIhTRK9hT+iFXFU5UUN1o02ygr2y5hEy3luENfOOXE81I4PI6rI0Yf
tGFLjuCjSnNU7cFfiYPMmDOSG7XJkBuLVB/B6w1eEquzlGq/K3gp2jLUrN5zNbL3
1MELxF7DQun44DJI4slPkNuzunRVi/armjwSsbpKx9WUMzYwhlTN7dDd6zZxU9gv
zaHwdfKcomW7dNoGU5rJJ2AFx2DntLjS59DokgivpQi2pJ+9Z96ph6lhGdy7HLnC
olksP/kE4wekpeTO2LjwBxJT1An0AJf8D5tmgCX+lXNLnG0igGUt7uzklJ0ACJqV
KwehePJGhMSV2pD28KEWL+Yc2cMovJwRQJ8gv5JCkJ00rFl6JpuNHLJa5Y371IN4
OfZs7Nc65YfyrByxFKaNlpZJdUw0Ub2H+y+0NMjRwFKFlWg5t0YYiIZV2/aeZ+su
oK2/8mYDHP6wy2LbpSQaeMLg99QmeG99vxDbAD7Z7Qu76yJ3XngN6V5NuLXkrT91
z9Re+Lj9LmskxrFNxK0yQicA2fQP3JVTxs7OoLbP7vwjItlX2ODdkrXtqntbe8Li
rovVduE5KSaE/WgC80mhR8Krdiu26j20iFPNjDlpwHIe01G4gu9lXGg16f8BDTOl
QR7CJrAf4npsiZGXL4O+5jkeeNRSWvFAXIuSPbO3W8xO3S0S+imc6fSlrG/TEvH0
biWasgIrDWBFTO0lz2W0OMoS8r9TZbwr9CjsN7oUnRI5VBjLA2Y1Cczl19miczzg
n5w8+K3aHMgS5RxzVyHFQq71cPMAxuq/0fsDnUL6Olw3hDFvHfQT2imwib7qJyCr
6vo2rMIB/WR+0U5b4A09kNhNOkTfCe490M7hqCsO+qTjpeHA76M0/XyiKChPkub9
cjWjZQbv3iPj163QErFMZf9bAfxVF79viCDBL7wPDHDcLNVk3bLJa5gZ9n1wOmMR
/VAqZa3KS9+bMpy6VpFSDWSvhZXWqSeBbRfniyZYN3fj0ZUdXW7iVJPWK6a5lRsC
gxxUc9u8zfBjQq+d9VauT58FObtp6tVjhhxovC3isDX8b0ukcb6iwTRm6KFs1M+Z
MtXfByoMHd3dOtCH9Bj1QTIKdwFTrolSQZAoCxOrPrO3AtdqUFvp9Adh2PqWHeQQ
huITJ1PnfBqINHj8CYlONm//+o00SThCNNsgRE8ysaH9WeaPmE2q1leSeT6IPcXl
159TBTylmJmVSZVjLHSNCTNWIjSJ42SP3UMkW6WPV5txcP2q2Ue8aEJ26ZMN2dSf
dm7bc9ej+iE7VH9H6E5WrMMtXwLQmel5e3rF4AO7FCe+35drNon3DfrjMFzTMoTg
3WkBSQ3YoTORpwzzsHhJE5pNczk9W77IJWVF9VFFIu9PK6VKjsa6FdOZ2u4yCLkP
tZE0Ti9DdIYwK2UFnkqT0EBqwjBEXisdjIc925soKg2YmwmRh6GlYgTbNDHQKXbQ
Yg68rVck27DTKfAvXANE2C2OtDe93S2CcQzFm98/2vn85OCtIr4Hd2q6PyzFqZaB
DHvEE/hr87+F1HKsdqyZkTZDFrQ97KP/Y6aeTcHLwKspiGfDUAoLw+cT0AssYXtQ
EtF2jIUTXD7FMBzJCrou/6OxxEtjbtNJJJ+9ruOr8IXP4/Bii+O688NlaqPH2MQn
TFU0xhUbRLfTW17570EwLAq9O+MSat2iARWAhHqb2pYiczNoKpHHQDJCQQmZFffU
Y8eDx3W2Cjad9dhE8SwG17sCUqPoZ/2lMBDqFNvn5Tyaz79p29ZlgCjWlTybSKaB
l/2b11LpMBRLPKGKLMog08EDYQ1mrhfcg2SNLedGamApPPu4Qtnbd60RVbvZ/oQV
KVkknv2zMb3P+CU/Vv2rUZpnitKtOiiU138q1j12Ce7i0PKdOaRMzT9gsHqpwG/a
OEa+SWUqlOj2LiO4CZEfy1r3mVDsFJT7Y4I+J06OOr2ztgagyHn/GeZtDQ9oy8G6
IeStX64z6wbtdWa6su+PnW3Cmy77vQ3+nhJXJ9oDalwP+bWcEXIF0x5aXYdOuF1P
aFaoj0QxjpzHfsOhmEhMbIhnUwX1b66CpWctxGwfSomkE62UCsD3WW60HYVZiSrQ
npwlLDb+3hL0u7vN9WM64U+ZjG2mi9rulU0h5hQme6S4d0BNbCtHuWrNXGaWfA8N
b8S6WWfi7ucVcZGQMVDgdHX+6SMgAVP6Go4Ltl6abg8V3xvIRSwAyPHRLZ6bX8Kc
D46qR8VXqnRTuUGuyQr2YpIEIpbpOyKQ/HsejIcm2hRi/+d76N2+R4w7X9Tak0m9
xo99Eat+GiVj0bx2TCjd33Lb8F3ze/MVjDF8ZXS2X/DHEKYLCXQvHBMBXzCAdG+w
KsEBBjR2H5E6XeCnUrEeQ6jHXrL92+Bnb6wDCeNJoYaaJwAhuATRwkZ8nsSm2Wc1
opLBB6bVLvvGW3R14keFyxtvfTuoYyPhRSlLsYvEY2dWne6+B9e/TXepdWOdSxFA
2cUozCGwswcFncbl90LjcPDDJdqLuGIv9GKL/VMuN7ShGGN7ak03shP3uIPoYhcU
uEP3CrNvmREEWWY9vS8wOFH/5bj6zt/MjyrxRFWo+9bW0EuXG3FMd0cn8OtHyD7U
Xt4l9ZcmWEUaDOpwaGuUwC7ZVx+5NNDEWwQr74cri7gSsave0qQubnHBYx6mPGI3
bJBVIqJ5JkGDO2vQfGbMw6aZzZakQ2FRyjHJPkl+AbVWt4bOZCGL1t6QhhPQETW7
tnyL+xKQ1fWs/ddqT1A9ShygsiM/ZW/ncjShqD0mTuDFJaqMfzjE6Mchw/rKYWvY
dF/6bpjs9YqFPni02a7HEeCW7b5qmm9wQZJa7GwqSmZ8ob5klTfBUETnvLEZEOcL
wluv6FRfv4I44D11K4sz+hsW1pwDfFn8VUAR8bLE+yBmOIqS965BKJ1ZIwwym6VR
GGHYnIlocBz0HCYkxtzYc5qzDs+sOqfGt0udtCEv0ftUyMQp+flZ5Xe+LwasBMEx
QgB+PQlNKU41/qo18naDJcsE7UbudyAdGnRxfepyBGKSAndnxqdzOxYyOXNEf5mm
5XwBnBkHD2aF6T3JcKRAQhn6JKyEfp/tCRsLYzEDNikNgM9JNrro9/N1GI376BRi
P48Fe0isxLzas6sbixQ5S7fN369wWunOB5ti9ORmaqlQc3DDzf3XrL8VxaTc3FKj
52glK6sCuje4b8PX+0vScrfExuEq8HMjf7G9Mw6CQxybZirCrNDbUg1ehnmHQu0v
dni5uCykRM+fS2c0Tbb212mxmlZH0LT++zSb4b5iyMhIPiLPx6UeJXYKA8KlgptO
Pwt1bqN6p3H+WUvtS9/LbV0dFBygFXOTq2GxlfxzR1b29iitFQfOyZdywoeRlnYG
+1Z1lM0hY4BDMFhnGDK3sMv6kzpY80JEjioNtSuhuoiQBWckWToS6aEtdUdQIO0j
x4EOfjcY0i8OEfZ6gmkFKsfRV2C/psMs/u+ojYk/+2XTC8khBwrYo2C58Rog+5dW
Sm2nEYPE2scO9gTSAQyVfbDucmp2B/oqumianlXhIJlJsA9znMi9P1FWG4qN1hlt
PaBJGv0GjkgjRXNNQ7G236iNedH6v6GTRSLo8/duYpG7PV254fNKYY+piZ7KAuXN
B+RbHk28WMityoe7SrvFqmIdSQ+WvnVhf5lpG0wLNzk0PtKAEgPxLgNPl/6NHkBq
L65R1hsX/3nKRWUTu0CPXOVnTmlo0XbPTR3kVdv5uCHy093wtSvPs3BW7we3WwWX
V2byOu3hdFF0D9xnbUklN5sYkF6cdF12110yZ/WvQ7esaLYkbcUs8/X+vJ2gUuj1
A/0388ngl3/xHjJ6cDGtgfxZyd2mZp3hCtwu9Yx+oJrZsGtsC6t7vV5a3sWBypFv
F74FGvKLQtZgWJuJTU9LnrPWfvG3f6A53xdbxz7LdVNPu+9C77LvRcPB3lM/f4bN
XmZ6U4KvscPshX2MQ2+S/ZvT5eBCl9lJZcO62Hp1blSgl3DnPqSW1XLsc97LkmmL
RRW4rmjdeuUbbXnpeMYdxcs9IOZC9FYd7RxkBIzRd+CX+mUdff7FEnw16IedZafv
Rswx0XsgwEOSYc7zuKAwhFCpMzwkKCMkIzsfqfCYJV2M+Zz6E1NasPnd0xJ4gEVy
Og2qaTucTYV87VdAkE3ganpg3wLgNDCkVsAyibWYJnthm+dDRUcPrPmuwGxyUFq7
QkqraWR2J1sK19dsH9vhtqlNGOEnjdjBovBwdrpdZy9IIVt7WaKH+jUWNiw6QsPD
L5yEylfB+AcEGklDapelsxiP//F0ECc8NkhxImsWuO6DkP75rN3dgGlv0Z10pbtj
44+TXZ9q+0qwUxe8jfcEMHZXCV2B2OeNZ+dCbrRxDc7X5QeaypY1V8u7hLZEHp97
sqd9lMPSxTAPJnyiTKIVXm/zzC/27v/Fa8SkXbdtdl4L0ufKEPfldix/fko9xOJU
U7UXge86qZn4oZfpcm3jlkLlm3jvbLsGpGG7NTUEOxQwWCOK8n5Xf9RM2Fcxwtet
qHvN3VlNme50rvDcrK93tV23MP7g8ipuQHSbJAmFF6F87hd7dBPkK4ChDfsBdYrv
bN+fEh9fE6+8Z0xs7iuVsaRHNlPVZfZVlafIZF5dGBK8lVszNPEhD8oU2sDQ90Ds
nrqDHXVAwm9mDdylIZfO4YV2nbouNlpYldD0IRKnyYtZILTfQpKT0jVCW7UZHykN
LBgWdtjS18wYFcvFfxvlxpHBmaKjt4Yak47nftzhTenpRlske2lbtu7EOW1E+ktF
aqJ06LQ3q91fjZFthdivFH0Gjw0hcI8WYN6FfUB+lLLWsBPv6kAk0hINZ3IJGUX4
pEyxUedj4gop/iGxyt4Ho0pZb7/BNYAuMOIoiI7oAB9WXjnpbcnmlH5IbMEghSrS
g5GElUX0q5RrXzigFMi2llwwpoNCaS1Hx7WPBkjx7H9z89AmNhknirpEvJvUIZKd
GsB/m9JYXltIGHQyTW1gC2mh73ryyJWhrdeMrLqWnKmL8Xuj9E5G7+08GMVFhD/Q
DIn6l88nP2LveRNjei0wpG2xfvElbVo+9bdzZU3NO6YSg2OQkrHvx0pSOOb+qhg8
CdNh+RPh170DT5OU8+r5Hk9hMsY+Y3L9CIefG7ZCjPrIPZIRa1hKc64nMH/n3t8J
9HOM+itdK3vwsJ9eikuMGv5v/8xEsithkk7jhZg2f6leR/iRAnzFAmu5E7Cfzlz+
qkSF9xPgsBewwG4N8Z3pJUiqyUMu2bdICXhAhyN8FVD/yv1x3hJAQDN/9AaKIwu8
CKSS45tmjgj8ZG8fKf4QkZOyf37cs3PrmTzeXB9xXeSqqqq3ZkU6iHMOdlfea9qK
CRyLOeLMcGleouTvDlClyB+RyF1VTsrsB+216Kk6z+NXq2zxfiqGb0luL5ahKV8A
2Cm9mweUTpdNCg/GQCE5N99jgaIx6T5GgmbAJpIycNdpoEcDMAQ2PTM9R/aCrzh6
eJss16YAwUyV0TxCyLtmnIWLs9SszCLCvuEJFCfkvSc6u0bNfZI5heDjgjPxMeTW
X2q/UqPUi4PboyFyAEu0NU6HmcqwsbsgWlOfCirjXBYuHL3OgWsuBFG5rj5bizg7
o1e4RV0f+y+PzRvLgEZZk2Bxq7lBP2tPCCVKWU4L/33mdEAESWFYhDT5uceVOmxN
fouRxnAb8J63UwzCXFt/oqprY/OgRvuF07WzZKctwJob35k5piX9GAnEs6kwGAY9
xDI4uGXcvMijAzW/ogpngfwP0NVpYsCEGyIwtXAvQGM+AnxpaQOCpKMkt2JgYfa0
Sm0D9R84L8e81H6gVCGGyoJJHz4wL9d2EzGLJmmpPR/N46SbQkuJmCjBkHW0gwFM
iFsuTFQ4yCtEEHrtJuQnJXvf7NmvChuTHUXdQBamios1HwJrkRiRxO+23I+Ud+l5
dGkPJ+D86RityXKW60T6vvhhU3ZbL5aWwRC8InEdzgPaPNgFm+/PDoG3uEtQDtdV
rsvByvLVW4EJruIHkXXb7bsFJ77UA4gMgrFbffIsd0WIlZEo4O9lQGYhgq8WOFp/
KC9jETCIbq7eZp/dER6nhCKbYgLOhVbovvFwEogEe6NRjhIvP9Q/pSw/Ln1zh9Aq
DsE828L5GoViu4yfg6owETZ6HGX2jH/OakeHvk1cCQqe9zepu9uWkovrVUl0B1Jx
nOJoty/Jsw3cfagY21kUxVV5URZhE7lxxQIqQnCoSgqJa5D1htdCdgp106DaS29X
khFzGQJh+uTOVZ0hk+nYKL2RhUTOENAvWKOmL2KBdDbLKJc0J1rkilubietyU9IU
l/aBock+Qqw3zMra87VFWPnUnhrpWbf7IGnEjXXnzhyZxZvrBv2GdGmD4BKxrl6f
lBcXVhTgtF5iwgcwvLF5tOCfnOmW7nvuc05zvRc0ypIR3SG+PQTtzdwiPMFvgBP5
MhM55m0wiG1FObMOmPbK5nS46teNvU4AYMK2GGYMtggFogmMw7LymUAFLnO5h8Wg
HC4qnW25GhyeuaMAAE1IJq5um0f1/Owh0gd8zMUqQn984V6slDUA5kpso+zooL44
qyJvD5ZZaHMwuI2ddodnITpPZ1v28nW+YXiUb/PF0nAuZ4yQNeNDRRrgZnkwuPR7
IZ2EWmQBzFLYm3lfrxYsUezQtZ5i7AHRWApt0RDiVl8gRSWKP6Pqq3Czsh4yMlSi
gDYCB34J7henC8k+i2MFXsoX5NvORaF/5BSfFVk2QWCTxoky53Mzp28Z1ut6ZFY3
uPBRt5iw9gasiQRrsibAhDGxwujrOSWNsf7arvCXcxbnA2bVtDm1+3zCq+32mO3f
m5Z/YsRxySPnzwf/IQxqfrwVgM/CoVtl2ldSsHQ29IBHnFaOv0tJ64if1wR3zjw5
Iu/47laNbvN9zmkjzdy33gal43eTSaU9ZkwhGe2/WftxogIobLDK3/h1UksQ1AUf
IqTZw7JvF4yUHLKZZ75RyNNEC+PdyDuyDlMlLx9Okc31dg2IwSwlQzik9IbWCCdR
zjwEBkuJP/WUrot2vhx7BGaqvqTUrk4evkzy2ATngBI0MM++s5CP31cO7OEUl0eo
Zry8B+2/UvnFRO1EE1/7jha0p0vH55Puj1HW5ZWvg+WKh6upR6tcz4j/VQYENLDs
8uGV5A50x8jWHqvaNu7X42ASAKZ/INGRw7ZYyNeudA71Qryif4ucpMsSVGYlJEQ/
R2pIueGarKLmtKfhpPXHHwxE+M2FZT/l3u86x+IkCXarxYBs+xP0PGiBc2X/6Ejk
sjS4m6I8byxW0MQDlu6Ll84+6emcxknnE68mfpmnVcjEXFCciEL9iswB88u/t5Am
Zw2myG1gzmBup8HQdaMgZYOzaRMWmg7140/TKc8WLArflHJJSYNEiDbHPxErPSTN
/ZudLXNq3dDAtTJDU6alUrlQvIGDXCaldPiqvc8szZKufpM8Md1Er8Ayo/W0h0aj
r8OBZF3t2m2FDw71VJiTcngT42ZV4fL59kjwJEWHdfURHnzSB6ZzIlIgiue7SNlb
kKfZSF3lo0z0LbyxEZ98/2ij7NwFemV7dq3rgLHRk+EnlUSbESLdhrXVFQ7dB58p
aVnHUkoobCxpYdH520gHynzYyarJ0EWgR6JdVaP4muqFi+O55XtPloDlDhrL7N7I
dLBxZ6kTncia3ebzLEjrIE209tgpLgyodkkqJ2DCchp+wVwMoELgF8Glg+WILtHR
gWfOdGzJ8m1xx+gTx3bduAg66LA7H4COZwZ7dfUuB49kBsFrdLki9bb3A+UO0mO4
0LHrOClyaaWEylPQsbS3CiITjBWpnAO6x+dRF+5K2B//WwO3kE6ZqIfj7vnqXDWd
AYVR5ZCDmLjhvbtwSVtQqmcNNQWXvONpi1Q4Bdr+49YIl7yFwcw51pMn1/r796VT
JS6t0G3wV9ojHj7tDaZyCaNthI1Q9Pee3gu6XgNf/CI85Zs9AFlGO1mkSZ/37uFo
8bRco8wacmlbbGH9Gb1Ow45Un38Br+45gvKgKvZT8y5jjX1rfgPno7TgyPCFsTWe
cxmjWo5o8tJ/iCbn85nHbMJnefvUjhdAb3d1T40b7d65z1WwtC4591gpY/mA5iOb
BkJyfNUP90dIvsOuTQYYSC31JobKOfSH1AVznBttY9SBaBzeiKJANPhaYAkhxOWO
aGj0klxZ6D7kJZ3XAdlu9Li1cbAPMqEkUV9Qy2/yLitezIVCSmSoGkk1XldCF32d
AwhDLcQEhHr03FY4fejOu/gu0H8b/E78eXr56vqe0f768DM9fevOq3vPexX4Wbsh
aMg8yhviNa3YcSjb6brw2/l9/gKyQawBpPclUqx4aSL6/ny5PSEayMt7mJn1Zp8v
hsvhJ+OBQqN5K/s7axirTKMpNe4i2VUtZk1D211Y+yv2QdpvJ3HHQ1n2121ls6t0
1qs5LQ5qgi1r1oyh9QzFlH/dl4lQkmjg2I4QIIMFP6tWY3s1FTivduozdvy8uXZ3
7lGjHQjNV2MSdt+Wap1o9ekyeKhO2cs6FVCrbQ54Yfk6DfcJuEvOMjsa2Kb/PHX6
6/ZXenpOsGSq4oi9Zp3Z+DtAlTDBQePl19T1Sfj2Qo+cjuAFvVwb6otP7vGEUzwH
LTLFCy8rxR1eLTvKYz/F7HUIWfkDX00GtJ+0LWYntMAH9FbXGt89WuVi6ejL10le
LzpLhRnVLmq6zRxXxG4oOUGcx8cwv/XsEl9DdpwWRF/1m5qS7ShFtlIBo2vheCwT
5BrudZS4LrEMpHnO0YM0pY/OTiDe4WYU6ddTOkSydzr6b4w3j3FS6ym2lH43tHew
Se2YnM9JRXZnpQZeMxc7hia6O/BFDvIkQiiqGhY654YquFbhwfh1X15zAniFTTPw
EVkWAsPYzb9ykMnGGYN8wnBtuIeDj0knSuuzJqadCWg/dPm/zYYwD4WOcM/a2ZHX
FD2Ij5JcA8N+jmQDjYIHQYoq8aZtijx19k4hwSamSWJET2OX43OoVV7yrhf/Yo5E
zstIslJ0UBPL/mGAyj/Kz4662xFllLwq0wjEE5zbZL/yHTk6sklVg2wUWpdMZYz+
jSQ7WSm/cAYmQ3jiVJWYuTBmfIl68xAITWxQ8+MWlH3GLBosbkSj7tCnQ8PxywL9
oztpatEj7/lFbnd9LFMOtoE2o0mO0cgzZql7BrFmjre+xSwm5eENgXOmTYO9jbG2
qybUtjATOQt9Zpttfu09ELUS+g0OBDYtbrXnm88xJtjzmhlXkDJXNhmdp5Yq+RV8
fRaZJ6p4wcrEiQeuR0WnIrVFjzOzIkL3cPudSNZW1DwRHUmWaMg4QVeMpxJNLSHH
f2gGv7v/wYgxCPVZjL3z2QKkY9DgL0aR5XreP39v6NxqIjGMVaTeGOiQI1nFobrm
LqI+D5G3CTpNdulSp2m3fP6ZyK4vUXOzPnMVOViL4pgH6CvCxzj2lsdvX9KqSJ7S
Hxis1vRGtVehzY9TFFechiy/qJR/E4q9y0XOD3iAcF6EMLanVteTxuNZQhZ9A26y
rsR1L+YWtc5C0PKAPq4fN8ntjamk4shmwhVJL1pyzwY8z3R1ThxPj6nEcDyJ7TuY
oN1Z+CdgCN+YfDwodi62KwfMBl2kXb/XriTWVyae/G4JGRLDMS+6F68a9nRjB28m
55v8inYrqHFW9TyuZhZT9i3zZg2mf9yzmZht8hTJI7C6KfZYJ9i1N8/DyYovcFe6
n4a0yCnbTBpJ94CIvqtofB+uh+UkhFO5h3PlIpAGRohW9qO9YsN6B9lV7vr55Wrj
+Nrff/di4O/Ud5QifVYOWX9TUgBz3F/qxThyjF8bT4H5YZZLXKNLuzalgyiTlxL+
2wgSAHW+ryt/C8AS7/anQ6dp3zrkOpIOKTozWhDDUi1LPidzoP7O4L56a7uVT1vG
1IePK94PCL6obm9w/d2jWeyUJW8E0E9bif6K9x7y9aohfrf2ckB9t2cDB2GebpcB
hU0XMlXsQt4Gd7CbWwlYqJ3ntcvMUFv6AACWQi0Z7mbg1ZSPyDIX1yLKUlwyskVJ
TfrS/YhzBXyxCtVEAcUkVxu2jg7K/AFuEgMqZRHbReiSFGrxYyajaTaebJrf9/DV
Osg4BPC9gBAOF029KDsfQw8yie8yAzGSHtybql74geuPAgsEzkfKnDQjt2E1eR18
mj9FYcQKKUwl36GLk/LHzK+E8slveGYbGnSwreH+ikDKUSoVm7EDMaT3GqIqLL4R
zJKmZi6pkyKZIvIjJjeeWSyy42/N3Ng16mDEYe4WdjxRgo0PA7YcqEdXSKqoBZt0
HFLcxMBZ5oqQNZQHeZP4iyjjydAdvTOrH5Knbvd+HQg02AONYSjmSbzHDVqDjxI0
FPA+aT+xK6a4jOCpvSdWaGZYrPYMbeNBDJYmOdUta246CALuiSTcslbtkeZBjPbR
V5NO2ZdqgmwYzEP+AO+wJnknKXBFCft5FT6fVYJxQi9Xq71tY+J+ZrQPc2vDdItR
SgUsPfvBEltDFLF9VFAtcRnNZgtRa3B3xLW6FY+BWqkqhzf5qNYFQUr5COWVn4+I
/s2a0cnepwMHLsDJLo8f2LoGpDg4UIY4sPrQhFggAxaHIRpMHZoekYd7PFxEuKWH
OSTjZhTlLSPdiILPHqSFdC6jHcUw5sDkASxfKVo+dW4Uvy3hbZG7l9JJEY1Pock2
khEXJqVNwqZZFe3IxDE3H+Fbb4QyuvYz6YpcKAIXtEjsX8FZkCrrJXYJ0cr9jEjM
IdEGU/9z18FRJG4VuCQdpzuGX4+dvyvXHW+y/YZ3UPYykaZxVsaxfMDwIp3MZaqz
2vDdt6NYOYIv+MmfAUilDfPMX+h2SiDJNhE+9H1mO+jE8vFMp4T6q7atRXo68Pe2
T2q37qqT/7SsIp+u4WtLlhEmdRx4rYNJTnGXRawk571aDDSE2iSP4nwE+ECrVBve
3el6dFW9n+DNnj88ZGWyKNPyIkFV/+BqItIVamxS5rKfjl8XADqXoay2lq+scxLT
kT3QWX+fZq+LSfKwWerkaVzBFnao4J1ULcOry714sOqmllUfdtua09q+QHR3BJ2T
TF3KZrln5hN4XOBvBWTifRBI/Do5biVBlLheQB3xo78uqM1Kv9wSSO3AXWzcF8cA
8fOpf21Nz0bzwlrgxfx8b9oQUSNfN9cUPqPTv/TbcAwZcOU1sNioktK2r5U+qvXJ
bRMH1OkODN8GY+B6fx+70rYSIgXnkfnJnGkm/tVQTJ3MYGSBCG/oh9/pln22a0OJ
9keNvgAYQ6+tv4pdSyrt6OgP3bpGFW1wgBoTdtkiSu3j2tQvXU1rJ7fYK8zrSc21
ird0RD1ybIrB3+HpFfMEWts+WpxNeI73HErvwgwYLMqdUO+s3aeUb8ZFNcGkw8lL
Q6W9Kepyh3Rlkb71ezRS8bD7wdkasL8jq9+SFfq+tRNGT0sTV/DsbmI3/OcG1XmP
VfO+dMDKa/MfQoPVOjhevYMVws/LYG2EyqDDQgW9q/xiZMu8vBn83BdnKeYeYwRo
6OaUS7s+IsOn6XMdFtnuqXSR28cbwyVtxnmlVOw2rtMU66tIhLxZvbQ4e5StrLRa
JCPA3GF9rfy6IwiBsYpDV90On/oJMLVxJ4u17kpf+/xr6i830DpHvjWxAlY+veAP
eV9TcD3ngUtnqNKA7Bs46J2tayhH7wvpEMmTGmYTrwi0iqzSsFapLKOFQUhFjvoa
+/cX+QwqKgS1Yyu1mXf6JdbQOxO8KyIYIpOXOKLNXj/X9fDFRhcuE+vYK1UP3KUt
g13K5XM+2/gu70ag65wLH30SfMGjkB6rNmaZT+6dqZajeFc2+k5OU2ZaykkEHryR
cozZkD7+eyFsnqtvVrDigMtkZ6weSU7TZYl+MlIKg+j2K8eZypr4oVzx+QEKmrqb
VDmCYn+pl3u+P4gEr52lVa2L1puR3qmJuPKbcimzCzjyCiGLGRp/JjrHi2hp0ONA
M4Ns8neu0OQITS9DA9+wVg+puI6geZ121hpf2dmOhZfd0sPAXZSVpGz881UccHVk
EsciEnT8spjHthVXMz9a44lIvNnMHj4cdB/ysPlMsIIZwdwVU/eGAwNhkUMnNTl1
V9Tt/M0JuJBkA2edZuw8GDOtwM1Omz4lQzWXXJZIOxbYPj4+RsfWdBHDJCexYNTa
2OBfrH9Z4ADqsgNxpSpcghoIfQ1BTApoZU8Bt7FjZXDey9zT+RsQm49zdN446YX3
JFrL0IzX4YGPWeiN9h2tjo4+rYP8r2LD1CdRseC4y4Sx7qQeBgs4UxWW9I4fgpS2
IAJvs6SEmgj2dQX8WhAdgqLX51aIcqzYGE6bGei/QbUdzEsFNXs/vmrY3Z1awQmI
zSaKD0V4cpNE5hccmotzNFZfdMeLLz1zVSCYKsUnG3pz2O3COsPLaS+TtTFj4Cv1
uuIOYAQbvTd9p9tp7B3PCq+S8VaUv9TVsHbpt3w1nPHZda2F6lWXh2zLPkeUA/Zm
eoldDe4sn+MPkaMtgRxzznTNKpcgFgjTmbDUUoqkRKhOzwmRuk6KjH5qh7fg4s/T
coXHYavNWT/0q69/ghtLVrBFLRHYUX1rbU0kmv82/XV0qnyZLxHauPcHjpscrxWb
fsgH5gkeV2dKPWeEE07XEJlCXEqwzbKITJ8Ov5XHypZjJqWVzUrCGmZLvchA6ZKT
mv0ulVvHe4cACL0h1GBXa51kPJPlrm8sHDsEqSmcwIJkDsssr9p1Zntaar5yqFTB
20ok6A3QZyVSdlIcQuP/fWfo0ydatq6/Eqlzpukmgs8Ti6jhKGxrzxuwm498awla
fdmg4VRtIxdL2GqEt9dQ0lxUZ63JIGGPP6I+4+YYxKVIJ3FUSFfwQ1VvfHArzS9B
UGMQNZOo59ILY1mGNW3Mm4GIqrvBPCeNyQKG1b6XNWTya5EqKZjbKetabIzleQ+v
l0As2CjqcKv1YMktPdA9P6k9UnyZJoMQHRIOHsxJpk71KHgsWqY08J98+Dg2Idg9
r9URJp47sYpfCJH6kLOjrPRAp4V9y4N+liApqNOcBy8UAVOUj4lo9qlKNx5BkqWI
GsY80yQFsU4OlKuk5W0697iaybMQq/l7qvljf6t8ezz89WH5spQI7oxi0qJa6rtH
O9kIuuHN/fhgtk3DWJZhUMyiKcADI8c332mq05g+n8TO28YJHCIKQg23ga250unU
NLm1McNUlT4y5KjNLqnhJyLwpxqtXYGJ1fa04g+qghLDXfXuhrwRQ1L57NR8BVFw
uA/xv1lI4Cz+5jQWTOCNXYrd4qur94Hw3AhiwDrWA+8xR89OE8Ip0heI5m1nL56u
Nc21j7mlq5bAgbb7gWq0xbXAhdC2kdA/OSRnMQcf+J6iH5zpx8wFYJee92gqU2a4
28W2f4dxl9iqw7DAzX3gZffwiINK/A/PiYf9VRn9II2TitMgNJuColmTTeYvyqiz
QkmJitKHXWVFoIxpMGKcMyUg/aZtHzMiCVKAy/zALoF+iqfIv2+ZZtBSyy+/0Oo6
NVTgMWrDQn17UJDhO80b77uKD3qulFvCVQotDuKrrlLspFpjAz20waOkoS7CAxvN
RidomTnWo8u8Ym6cGVQZLQ1JLQdW9/v95YgLz1EHk6eBJc+L1RRbxV2DDd9l7G0T
mXI5aLR8MRgz7ugN6XYAVLUuCHuuTgeSTct6Q2Tx+zmEljJu4f07oNyQavF1E7Aw
5m0yvYnoHhKY0eLvQOk0Iy0C0taty5srjxOov4bwyuFxaoVa1yNbGULWW3OQkvsL
fdmzYzuUIx5/4jO24dwAFORpaHLB2rJhoyGz5+HvKIpwj4E3wOhcz3rFwp7XnCaX
U5+DcJzW0Kw0JHJNS5KFeCsaq/mkOt7AXXBy51q8t9WaXsQH9EyVkTBvfxYExniD
Jq6wvEP42Mm+2iM4lMgIFvKh5LCxCMxx7IHKIU+G6bRnocUHeO7W1fyLdD/Z86Ja
DorDUrZLECT4UczOP5tEqD7/9WpG91wNfo86vYDdJIaem5XEdD7OcTljQ3F9N2TG
4nigJ6IrRtxj76pTBL6zqC+fKoZeevzTSYHTto293yMQ9n5RhHeewJ3ctkR5moFD
jssE/yHU5uRoEKoZ50CnWN2maDHxOoeGur8SHo0jEBEhvEsplpZ2rZrl+W+scRF5
xjzzJOUlz2g6TxBHTuWEBrHhQWN0dt/vGVCzJ86dwRpB81iGdtfyQI1DesP8Y4up
1LZvfyunBwGB0I7Acp9+A+kQUAYVBipRnpO1Czduj/lf3JK/jrK9fxGaF7pcre4l
POEsFh0zHYCI1PbGWSqVehwNUo6osVrK7sH6q8O2nXRS+WYyirY1SErPEkidTcWY
VT9T7q3WMoq4c/5BVvTcWvxamBOFmBT4+dz6Bxr3ARjn1uCc+pPTHKxw6YBYlq8V
/wibM9JO2jLtRgpI2Z0+/ZAXTYC/7MA0jfwWHmzh+dx7ijCXYWpMPh007u+1YRDG
C6WvMaVGYerqKWqVzgOjAXak0uKx2mWuinAR0jiegm0Jy05/KTIJ3B5kppA26KQr
G7QQ/ihWaODiQsKr9+v8c9pDmXSaRnSMt+b5FoL9fEuXOA1AHsgKyHg37LeYrntx
j53HJ939J9o+FIlL0L4KXz4XJtqTojebwBz50X8nUvoFzpOXk3rf9aJChlnpoXqQ
ghnawKg5HT7+a8X/8qzPEdNO3XEWBF4yErRAiDK8fIuesv6wkb/McCSn017i1XW0
7P4WyVOi/kHbtl1Qqdwd07wirCTCE8rPHuGP6pdYGSZ7PBSGOcZufp2VBIfB9Zhi
GMQQfavCkgdElSOf0xuRM9rtBIqUpxbkC2oP0vO70ysKKmg03NRpLsUL5Y6dT94k
KoVbKZKzYux1E6YbI13zCX9GHS6YYKqywvH9m/A3GfvQun15FB+WG+7hqRWrfp1H
m9yl4M0RKw9Xv0MSqJAB0mPYcI9rmBrEwRCgft+dlYVSnQ1XQE2GXMK2bgpz1uzp
w4wt5n10lLMqv0D6RLXnGn5gxY/MfsnW+rq/QF2YwQFFuDwxpjGwJoLTBiZx1ixK
uvrU9LB97cbT/LFRhEd0VsjHF/TIBYMIPbJtoGo5kmqBbw7svXvb2iAqdWqBSa8E
/sa+K83Pq5BFg1+F2GvLlGT/t9TQ2caQeLW7iXy+mg8q3/LFcz/9EwOPlZxVs2l9
tIa+8xGig3DN7jemRHyvyy9FprCf19tBZEcZK8G9ojP9g2mHnwePJ1vx07/LBuH+
0BprIYaHRVXHAcPhKVMbwRpdE5WLu/ujGl4SunxDU31QCqDGli4Nk6Gm6JDwolKO
5oQxzhcJIxqBamzG0rSUwJPsxXjlrXdiQCbanqVyErQgQcD7nKsgMNBw8B5+0EPZ
3naXcHp4oNsfPu5T28F9gQGGEbSFJMltgoOrc5wjAqwIT/4qUgUpjaDlnqTP9+tD
N2g92cYkRuovIQ2e3Q5AlieagOhro1cqwEztIFghvNX3Acjr8iI/f9ey1d518zVC
wlrkXdpz8EtKniktRuuWPuV8FP7L/iCn0bR3RGQ4+fNJnybBfXu5WxFvtA7GYFNY
qcI0WtGGXz9dALfrEM4/1vae6vPielmGSjQxMsWxwaSqb8JnnBFXmpW1zocGNcXp
ZNR6wbEfV67pDDA2VavwoRux1Tl6jG/NjeBzYj7Ojm6t0xkAcKtTrLFFTFPngKhu
az1E1s5ihWluTWHSxruYWFzf9OlqDD5KRQLUbuZDewEeGiRBuL//R4E9BNbBKFEA
TmM0tm3buWka27Zt27btJk0a27Zt2zbuff9bzWo2M5vvnD/viczGKDCPk2/8NQ0j
l12zPMQ4DjwwOx7KvwwSqVPqAayIEbcCeWy7pb6kf7AfiNuZaowK45B26f0JJ47r
wuS1j8eMP925Lx27H06645v/3fmHpSrZcSMqF+UldiMgkj7cQweLCXVYY9/MUoG/
RDs0kHLvIGj1x7kbuWLVErEWCujAOp0GIX2H8SjZU6puRmTMaxHq+7az3C6eydLp
jwUkD/yIa9L/7M6Zre50VQ/t5LCCwL844EMpYTcY3ZAphb+6zkkr8oDCsd1Cl9dj
lz4E/GvY0vl5UWO9QbyD6suCyTRFjJg57p/TbVm194H/0IBKRgANyegQp4+C6O8y
aDG6J9D0PC/DjyX2/tL6+2QB6HvWWk2IQtHKJf6+Eu67VS13PEk1hPy4bMIb45G+
Yg3osQjjhD3yVT+HUCp0VrVuIWr2h2pB5d/tbY5cZceqJ9sJvLKAu6TK2tQZW7w6
FqQ/kLgQ7qOJ95sXmHa/NBOkL30SAS62lVmIdR7RdxVoyPS48gfHnJjf1CExDmwt
9d2Zq3H3Ja0jlLFGliHOhlqW2QEZVW/VIsNg9WNQLzOP6gibF9Bvqp2eIQjonsUe
av2WexQ/CnfTOCrwEJrNbr2KgLK17eoCgguNqCWhyslxpxXE3d7YO7vcGJVuB2La
uVQxbIkpLBm6UVFBCURY+kOyCtaF3tb1AuqzguOIZenWXT7bHw9fKXse17GYFerq
q85IxrEvLwPsxCS75N73j0WW6mh6MsxcxpBQLXhVYXvCLCDOTxGnNR7U+nmefsGM
6GpPaaF2aSSmbI0d5pe7dPnNsQT3mtZxRKnx2pbO1RM7J0Z7SbM9LjqPmJUepcNw
ic+qtoPu3bctB/9rQdXmqK6Kmn5je4J1/66OGDtB3V9VsXnh7SJzOxGyxBgVKJgH
13CEejBs67T4tbGNcATGwhENgTMLtPlQyX+wwovdWpjNZzulYjQ9s1yCTbOjTyjm
bSm2C3vVpuukapLa+hFCbGLNvv41Wgbc/BuezvfRkn9s7iUKXPzKJOkhTdSI4cPV
syMp+Sdn2oRN82PdEzVeC3kmIbOv4OWaWm57sh8sER9T33ASQf56xmzdNFHO8NDt
l5z0THHU1VyTJQZOgYDwXA4vTGZd3EyKcX48/jSPIl0PCrUtgYEstPvfomZ8MDmu
iB+ToY88LD+qFNJoYfrOd3u/HhAWEhYAHjdVIdofxytGpytKpyvb/B66ldcYAmXv
z6GVPoB6CHp1ApKZFMj+RU0fSO1LN+roc6kweqtxpDV/xOyMHhLH1xLeuo9h6BtJ
PIu+dse3bRiDRHySxJGqo9NUr2UArOgrr9iq9zP2u8OdlZPIca5zDLpCGPGkl5gB
Z0SpKslIYPsXS/VpLWvVhcuVJJXeZS1r+rnOQ6O3TekjGI/7WeJx74GgdKIpusaq
fDijeWzYpuZMlB0NingQ/+e4Avs4WJE0XnkrRyouyc8R3X0U9XYTlrrd8W25PDCG
88/uEY9FBNYwmfh3IErQE8dS2nX2It/PdTH39HmmdhLrLvY2TW9k6XaKrqXeCcSS
AGCZR5X6+/DKhLaHjIaurb316Ur3TPVnwL9RvQavrIX6qnp//lstdAcV5MmRSvxX
zWrDdcpWC13nkJlvPJhmvDKdikHSI971hjgzXJfIhJN+MjK2zCcrrglDVAanNdk+
grubL7a65yzoXK/7N0ouS4CW+tCtxrqlAXPDFiZ29EjMSch+gGKjNXcLwhN2BkgT
3MmlKlb1AW1z6EHDNs/UKn44upI1u8x8OTaEOCv0QkBtpnj6C/PEKKdlmrqFEMuK
LW7Q/ojW6PJwipKuoXzuM3fGcBTh7Ss0jBnWvAiY49xnWx3q6mULoXZ5Y+6DegOt
MCKUm1RwcC7hxbA9gUc/gH3r97zAbZeJutx9x3Lq3X0INfpMHXZfsP7GEJDRFRQj
E6NDUKoreFZmt9cn567A86P1vbYgXodMwvFv7fFXaqMmq0g6sWChPv2F8yLdcN2O
JpyjQjaqiO30qBYvnbK7/j5GsYhZFG0Ogkkq1SMbi/pJfB9FY72/IL90MaGkuys3
rjtLH/pMtu0PWid1I0nxbEdFNbVKIHgKBf3ZyCAap2Yy3grfYrey7bKZF4Fchj5i
S1q5hcmAFYnVYyDvF8dVc2d+rmIB4b1Tq2AaGIct6Vglhxl9zAReVXSzfdr4u88r
LXDLmPOV6y6MIhX04UbI5+6hBSUNy2QnVoFF43GgcX8dFSPddHqsvyL7gJd7n5Z3
ZKzFMERrViy1fuhZfq4qOIEQaMFkBKF6wmpxid4VeUFqaGfcjE9PqJUubKy/wWas
zGGjrcVIjZ4fz41pNxvDeb9/FmvtpT2N9zYRbHwuCYmDuHyUbvLBuusmvOruRKbR
lA+3QgZBFfGTDuXw5K32OeRDx8IQ/Gz4uT07BLo7TJS/xULRyDk+Eh3dUUo6HjdZ
EpzO0DQeN0m2/E9dEjQc+6tRlczgfhzhOTgeFxwHqXvBCkI+BE6q6wwBOw8zyml/
bx7TNsd0JJQ2AZ0Vy3i5FhL5nqOwNnxERtFkEx4Lt2lm0XKfaPhhje3NI6dFMQuB
ezXaXyDmi301CpV9vur9PDdyAcD36eH+Efv+RuwHukmFLIq5ikYDFHdKxx22iK0e
unvWyRBkYemWVKTWLuemnoILNq7+WA72bQhuOjscfZLT5RyClYWmfmbtpF0qZyQF
25kSzP3YQ9pVXdFLWCI1D2VsmeSgv/KMoRnCBg9G/XAEIrdf3uM4raUQGl7IuIQw
jR34KVb+KcsqCr5DXARFRWDICrNpVfqKHjDnstX96CO4fBzRexHQ3H39meft1Ntl
T61lC7R4bUnj3OhqR27uyJqsyVxe1Cwr8erR3vUt2PzwQsb3F2vl3n7Hd/PII+dh
9UVy69kQO2ALebsjIHZDTpxPC/EPecs8HUFOQq8IJkjinzdSrRw/5WHgfi5OJpab
nik9YuqMtVF98+UTZ/AI0bTsi1/oOiQIpusJnYIKvryj6s/gorc7E0JfSu+V9r/s
cXqE6GTfLQ9zJX/ss8l8ahf7uUZV+wnz8FFVr+WPxe1vlS/0dXPv/XwQUdvj/bCY
3ZisnSSlEgkOkFJUYxD7JeOmE/xInDJ/EMdyWuFufJ6msmH9RYqePRVpwAKlFmxr
PuX/cBjoPYWNjOis3Br3t+4ouUKU1ZaTKvEhNIAn01m9GjnjsR/IQ3jlkoMME5Z6
gbBzRF3VNwuIJ9ZNHVb8idPbs7x53eJoX9RUMzJsicFTK6LG0H1rDp9gHVJh6chr
EbVjwUBh9swRWgbmWSbfeYkYGyxBIhTk8XdzVHcNS36h/HPVGy99u81NUiAB4U0P
7TpdD5bec7z+ucMI0i4qdMoJeGrxju91X3gzMcQ8EhDSKe7Nah5EQfMTGhvfxFUD
EeqShaIfXKcMscOYOvn1lbf7xvkbfeXSgtLnNbOfv55nHs3gjmMV9ns9NEiXDh8e
VjX4j6mIV3Te2SyA2EeleRgU0TIAMtHZnwUArJmBDd1vTj73GtfDBq3YAYvqXwHW
tZ92Oveg9uo70IL6W4Ad/VdvMyZwdxMeRGwXBpr9b1dDZx/UWX0XYEP/BWrCBAbk
hEW8brae114Ph7wc9DZjg7b0vyqr2zBvupA0PSGytNoFeJMiCwmYVaptQyu+1+pe
0ELURf7LsC7eGkt0A+tRin+k5c/ypjpoLT4fNL0o/NM96bYc7cEzLHLH0n4rMmDH
dCmKZe3BScHJ2eZOvsP3eIujMzSCSxuHbuthaU79jPWheGCqhx5A/zW793D09ANw
aS/UnGlIR1oYcWtx0zdpipgGz4zHtDkJJUOAIwe73GcUUy+HzNBYj4AP/sTGgUae
OjTYLGlYmj4Ox2AJN1U7rETVzS+DoLq1P8wUCbNzkeirc0fEsIYXFKB3hHYu8dAT
mBESbakF98vF3/t9lMd/yuusTl8Qho/6b3jcl3x8Fuh5IZSXVX39ESNc0zENlSmb
sV4aObHvYr6J2NFFSdnxxyVZQDpiMGo08TlheI9DoLMfPSJpjRknl458Da1SqUJ6
XKBbA7t74H+33pzzptap3YGxC6tevfn/C+bU37x09iPswlo34ANuDY5XQwJc9rEo
aSCuyYgeOyVAAS9Av96oqzX8iNfem1kXVMHwITTJBgpiMB/DzTXoXJxNwOZP9lkW
VLsKO/oxazFGI4HQU/vdT89LHbXLuep05L5EUwdJ6KXtyy7r5UqX5S7rGAR/xhae
8ciQhbp5X007JsZ6tZgJ6a5ZSY7C1PjQKjuBMvigNPOXZFNDlbIseTulTTcus2Lf
48TeeFdjLDHA95quNlK7ncwsSxB50RcuHeOrUPia5UzbOP2pPhqFoxLWWF0PlAOH
fiQWu4iNvhhSfvJTezCpCga2yOcWbgHyQfwYMfVgDgLRJVLcUGgKufevAcYZEjxO
oIRnqzfbTYwqhPSnwsG1MEKxPWwA+pWr4bgwzRxFVMvPWJpMfWaEHwIBpQng22SZ
V8U5+XDFQ+etQBH/p6rDoy8cWBHjAYxxMRGprTOw+8ND8ZP3xUPzk3cFsTn+17Z8
r5ebX2VPaAeIVqj4+zm91KOxtFYEZPxxUYvWnqVX+O4e4kaUZ7z9KjX55O2MzQ5w
Nwys+QQ5zHTqyK/QHRjfbwNJf4tCi/s7HsEcVbTEkkW5zA+S76lnI9KXJXuILMJP
Jz80EbNjLZmN4znMF+DmLJ/cAEo6R4mK5thS7A1R43rZ5bp93iK3kEK5uUEpzr23
8Yme5PuimhA4UdJI8csogWP3mDw0XE74SrU+8DsRReACMG86niTKv4BUqYImJvH+
DiZ6nvdsdbI4WDA6SaSSsOnyjAxSjgtEvrtnZ6OD9joDRaK5s1ey48hIowEEFt8E
dubuK3Z1HgRv6j2FuXsJcO9N6ur0YJ1YBKWjG4ZqObbFxyt8R33PudqjtpNnyvIQ
S4QcBSn1DGSy5D83YwQMOeX0EytO2XImRvths9JK+0x0MO75YlUwaNrFQ0poqtE9
1dKIm6vJllPVBFnVBvrN5ebcVORx/ur2uTlkowBqnnGvtHRjOnWFAro+uVFZ2hYK
bry1VFs+0aT1DBWiWa6O0FfnvuXRsZ8Fyu2Jo/PFFKsowWxFXcRGstzNXjjJmbVk
FDgSkx0fFGnG3s4nJZKChZHyIsfGfYBP5jsaOYSSrn/sC9Kh2+9R4vJS2M2L3pwD
Ta/IU35XW2oe9kiVHqajlBiFFh8HgL5fhRd2rdikSSt17+jBQR71OMET9miZjsAt
yP52IOsNkpw6Lz+kuvo+nwn/02MmFkoh64vwMEVFdNgK4ARfoYrDm4ArynFbyxO3
MTv2NlQtw70YrcZNIVEzcdtNrQWzoS4hgZ9JX/JyvSsWVqMsWQH2F+5xG344nGi/
yvFTVtUa/7m/Igb6F21nl/fznG/lssd8nQYc/uT30XeJWXp1OyzHzodIK9g3ZW9J
AVMj079oympXY3dViPY1Std3yaHi3oGkNo56mFaj0RNTdqlOQaKH7QK1brGiacyT
U+mjJ5vEnqKAFdeNOHar1Qb1Pw8Drld+iX9NYIsKJFteGufxdY3rasE0RF1TpObo
lWdIJQob8I0vCySIeYwGcmb6uPocEbA9NuzZE5szmCGY3V5zdld/Tm3Okezwz5tZ
7PrReFuZyDj5Pjo5mBqsuXyQTRALqi1Upq/k/Wah8YU/7+R4mOdPIgImk68RkaXl
qalIOyaZoDsxLuaoKejoNdRGJlueTbVJL4hfMci36M8SyT4XjqtTsun131Km8/2C
XzCtjyOXjOUqz752k8hKWvoptO93EHFvKRDLe4+OmNxTHWc7wPmBaODfofJE0HVO
zWbJVPVe3LaxsTEmCf/dSp7e3qguv6n7O2cD79Dmffy1tNoKIQFlvYLU4JkSBKQJ
LBsPPy/7fqLWxX6/RFYqVLUskFKWv/QrN0L/G/4iyB9bbIQ0P4uLJ9jsdrtA8x1W
QCVNS5T5mTu3qKWxIWNy363RBu6Pb2PI2C62oNafysBPOZEg+YCmEtItgymcSgm+
a/BpMnBNZ9/sbmTetrA2qv29PzAQLOUUNR/Dy5xEZ9fncP0D/m33veni9M6k+v1v
/ddeyjQtbkJk36jvOoaiSrdE9xS4EFLcaiD9nt8UYn1hWLB7nlvG79/WJ3+mSmi+
1qVx70NMs6FU/FMurR4SKDxpNeN81dD9XK4LuC71So1jTbDNM9lxKscjpDSixEWL
yVxpzuQ+howYtNam40wfU0Qh+OYk96cE1gX56l9V0/yLsVulFZXnyvfb58bGvJ2T
LIl+5Bzh2lGR+l09HdW4DVQIL26IE3qii6FRxeGHBHm1yvEsIf4RtWM9dyZC3P2D
tPprA9q9j4Lyxk3FouPAGeJQkpZydLzCDNwMYQr0RfP2NP0picYH5uQkoovOnsGy
p8V2BUQq0mE2PURuF49ljBweLyZP01mPR6B0HIvkLaTOCFrbpR6EPJ8o8iKMD9Y/
edFAL6dRdVR9kIk7YzXKAYxdSm7ONzZb/4mnwqIl9oR5r4MNNpRLUUc0EREjXK6r
o5d0Q5uY1pze+7et5JufnTuQdTT9s97pdAnvX+XlohEaD3kfd7c+ByzuftCM2XOu
x7oSulpfhvn6XH9RPObJWoBWPKqRjXBxONnLJTqiVKSXJqthnPkuF3QJr40ojYS+
gjc0FCue5U9xdMH3SvLfEQlMxscjTtaIO6clFt7JqoS5vbPYmFJ/1YgEYCjN0Lvh
ncXhMujDQ65RbWAWhf+M89C3p57lTkRqETkO+AL5nHKYbuMrTONGvaVEqBm9qI8O
z35yg9NAIM2dWcC4jUaOih++v408RYf9fpBLQrL8oCR3CY4WxH6Yo0P2chv5PX41
De52oiQmTCYVZT0S/QuSKY8J1azh9MoZbLUx4bqf+hPao6FL8By72w/A4M1PZ7u/
bTa/2V+x/u/3b2z8oEDHnXhprLzvwQ3lN1JbjqlYS5HktWOntliUPxaiBMFD/gQr
2TLZtMmL3bKKWftHOaNGJnBeJN/cKUsVcjwdhsH7qHdhp9tCAwdFHZ3RAC4sa7mr
P2YDaZYW7xbV6+Ku2JpluVJe3RGs8FZe8y1bqemb7clyKs6kGsl2NA1hxHLx2GYQ
pdrov6InzR+JxmSXikaYirG6vArkDAYlpsYK8kfHEx37F52kh5gM4Fi6cNz5s+lh
4Zx/lIw7CmtCVN9P5qLrdXILzfRkN91GwglHJtkZoK3E/QpDNeeP8YGY3VONBQqw
I1Gd2JuNoXZ0hrCj1+sy8f4QLNwWz4ufL7mHKsMjnMcZ/l5EZRzKOimLak6kioe5
nXK0kYSVgt9QQwKPhSr3GUrPmswSBoXAvFlbJBvEgpukAPpDghrbnAetNgTN3CaO
RAa26TqatNwfdwHW0nQmtUNVv3viRvnY7UsRuCwafv4CGEdHd8O7rx5rZOigS6wR
+ukHwxATza+vLq3ljuYPo3pu69L5RC3PT0goAN0eH48vtt4KvdTs/Q9Ur+we7D7g
/PbfFXUS+96EiIwYDs6VBASU7VDwnKZxr0xhtsZ+LhpOUp7/3u0Z3RxFtl5vZfJb
DvHedjg0/fq8TWi8bkDXC0htkBVOOVphp2zA9aDueef1z/AUD5iYuviPIvv1IUy3
KYp4CWZE78+UN6k/IBC+176/FFXFj3lUop0urHq3JPxE+xWCOMV1YuST7x1RECns
Gtb20L3X8H6/yNNY+rEe1VLp1TICWWn0v8b/FEAmCEDysDg4NhxM6UfIIGhJLwWv
+KTQTINp3ZX/vBMo0/GteEkUFqPlzp6CKsVFnGnNpe+YYjHbcV6Rey/9zMxQ7kQj
cHBvaPlp4NFR9+Kjgc/xiwUzvOw3CiylaHHRMGbwQf1RsvmKxi6ONjmNpWfDcJ+h
0e9JXHCiVPKS5VTaDpYtD8/amEJTV8paR1Yrx7RGXl8cp4h/+z64Q9ae5v5nbb8f
qzo1U1A1o5yPvMVSLt4Q7FtM0DKqLjCpM3BLX3KL9BuG48RZfmlk8GZq0tvRCvyg
T7PcqUDID7DIqnNGgr3lAEfevOM5P3ZG0f8RV4O4DVuKAOvi6FF+ri8HrueJ/heh
POS/0dYJ7qEX1DFV/vNvmAfWdgaD7oBOQtAkj1ZLGm4U0/pTSftb0a+z1HY8+RGw
duddCsVmT1jliKAG6iXtx/n3dlJ913+cSqaPpD1PKS4nlZortQZYG6dCfJeot8B+
aSch+U6VBqpk4HSxAbx9v22esauFTBbjhGORrD/z57Cz4Wd9+93e19fi6IgyIYhh
Kf074A5baPOCd2r27E56iPlcQVOJ7ChXh6cLeKYH1z+0RvRDCOCnmx7wk+jjiRWC
4ykzCAP3P72KaApIsMirmZKJQp8yOWORGT8UHmixVhmaRd3tQXGxQ6nzQGFZQblz
QqlzQnFxQmFx3iz7fU784bmhODwkKhKwFLMAvBuIbxMxPoEmu2wkRAv9v3RO8h4T
39cmfFkaKg8t3+4LspgFD5KEgJlebtK2cNVno9RZrWCrCa9551UbUx1VpwQadA+6
bT8lo9phIA1L0DuU9rrIyexRh9cx1KeiCPFxtcQwvSuDU7GOflQ7jqhZja5rFYht
G2X4rFAVKXMQMUoiqZj4Nb85ykDjQbwfJNAGVyFhJA2EdOPON1PMe7Md78vacSSq
34LTQ2yx4ieHeeD0lHYTvWg9DCOJ87kmTX8RIe8TDk2wp6fjpJcMSQezX5zkUWUl
yeI3MVoNBFkuxSFioS+Vn+hOPIEJqfjKcOahqmdL+psSjwooTqiM4ZEqvIaWC+JJ
mVK5wYoaSYn++3gRQsdNnJNxji2Da7dlzKzDyIbtA5RkEzgg8rqIikMjYLIaoDEL
rN2RqqA17P2hS0vHmC1khk1BZiZNKf4jFyesmyztNBcpsy2XQ575knBKx/ASRYXL
RU/mjT5mP0vCgnF2ACvRFa5JIzkR+wnVmePFQxmjOlQtW08OekF+kogVVa6ZXcbO
iXwQSe2qPsGcPqCsXQZlWJXeG+LG7f0QXNAkRl+ZMGapfdhtYks7bPsppP4Y3SzE
h5MpTOegfSfLT0CMfB6J96ea6pfv7FlmUvAOSnVCPqSg72O8vEh1DwG6QHeG7Zr8
qrJO4aqI3hLefcQVGCgLdw/gElN3xggu+mIlPXlngkXssxywdEGTWeHFh6c8TK1V
da3mW4xZQbD6iNKucdED6BiGonun/sdqK1QnBhrif2g1AOz4LZ6Ln8IlVR7enNWk
McUX0XCMMzuvKCfI7blKBlEwYV66bnspRuwk2CcmbJMQ+rytEV82hPY3qHVZYQpH
v22IGl0f+ZrG3cWvd+K0/hoGPJBVYw2HwUH3Fd8QUehRCYVBMyzSJny6HmqBPMeL
iipSKb2g//VQQCBLUJy+RcZ6DMHhmbXd5GTW9Ez+lw0ZwrXID8AJS1YbDFJM6Cbi
tgTbl5Tapoz8fm424hh/J5yiJFe/zRuI9dOmiIpCD60SNd7dTbN0BH46bMQsNCIT
586rE2ys7nzDW/VWZr7pP5dKxqI1VKO69sIBn+r7mu4VbFiUtSaxQG/i3brfq65Q
WW1ctsV0aD6RmClfe+x3ryMiM6YaxKsk8565l0JLO3HQqz+F0ymmq+HAH6OTkEYz
BqyXfDeG3aATZ+NUXXhRg34M9447hxhsA0t1tWSd64eaCm0ExF368JGJVn8zP/9p
mF0OgBSjJ1X1lPibcdMuWlC//yyTDBkB/yJL1u7boXmUHfYijhFPpVV9lBXhd6M9
sp2V4fVyvwFZgZv5nNDtdpABmk01f0gx+J7uMr5IMWieop8VxL8FWe34NFEHvM37
giGdcCtM4f8ReD/2e0QLpbZDVZAadfkXdSy8t+tobX2/Y9zkZnCf2LqIWcw9AzOe
CJuy84eYrQXRvZ76pMzGFfyKAg68gefcO9VusFhTbECHU0v9e4tAx6PgFx8g8Zdl
pI46/SjL0IFnCgOEwXPDpFpTM68JMwLmzNz8giTYPXUmdfs8SAo1zGaZeHx0Sheg
pCXu27W7fzi3MlD6+sEEx7RJ12aYc7C4ECIXLDqFkRIW5bVqmGxiB+IxHdnkJq7W
YtdG4XevJ4rFsFnyFZKa2rca4XBeHlEv3MUpsJFE8lj3TB8va+RNuW6VEHTtX6uT
KxgbXxA1Foe9OVMgiz6g1zzgNEyj6EsVL2KjM62KqCwS3lFbru2rcDUN+Yp7a4Nm
TNhk7yT2ougZga6xuUnXXWTd1LBhfEQaHRRtM9cW2K9D3mMORWxiKj694HTOHxcZ
eVHd37jLXWnO0C1kVTL8c1iEIJnRLinXoGDZvGRQQmzgSJIBu/D35b1OCXlL81Yo
ffAEEaSQUgsUeL+I7yE7gg4PPkWvIk0Y0ebfkjLUMR6srtkjPKJTSxFxb0ObAV4j
fs9vWmFRtnzkpe319oDeiV+p7fNLQ4ycs9V9tg+bNv4yMkx5JL8ICBK+7rjxN89H
zGe8KDksXcbExIDUapkZmAGaL8BjQIzM5DSoEqCp/5c7AwsrA/vv18PCw0JA2LND
PZhJ7gTLV+38MY1cDY3H9itoDmBeMEjn4y1NVJfE2XuJAoF0iklDaedMy/rbOMfa
3WRO1UehpGmT6giplsmpHLM1LXWDqF4U0ZgF56ui6Xc0Ehnsr4/QqGALgm1qs1l2
JuSozXMWPosDUrMM9C10AegWJB5i9ArOOgjKpryfEKhGvO8Em2DZwWz2mVets0sP
uy/FrqLlCJ1/d8z6vpyWQuRL4jBknIu6b8WNpFJmtZUydJvKYre8Omvd3c/ylR+z
2OQcw1c7KKGOb0d1bTkzz9HcmAoUokSPEv4AHgELyrxfrFUZIVlZ7z4TQj/FaEmw
4647i/XRr1Lc0Pqf7nZ8UdpC8662bhUku77oZY0cYZHey9qzOke2kXbmxtgWK6Bq
PU8jTZr3TNAySw/IzLcISynXdB2N5cfkfg3itZGVRci1lTkI4KtO3LCnDRotCwOe
bDcMK/8hwfRTBIrK01L4qafSScujKCDKHOd6a21sWWicg2U05IB31VYQO6Qz6FyR
3BHRw14VyjKTGYjK8kjGxf34ObvRp2FOnbib/ZtHWqERErLxHQh+EAHlvN4x6t6f
yBLAFvstxt2fJrwB048QCo+BrdVoAYoLRJ5S01Vfa2JWn7VsxloeXvk1yQDRmQ0b
/6ApUtzmJ0xf1iGN+2ZCyxhztcShgRCfrNg3vktmBzddZ5g1Eq4SUqJUHM2w7EXQ
oVJ8K+0t28SXUKnLFEF83GS4XMVQcGq0URzCyk7OaqCtKbQolTVDrhQJHusekBxE
E8Y4XibYwFpVpYcx0xGWtezIlgaGH/3aGMtntly3iddPLASs9wJIh5IISoVLm6Ht
SnJ4Gh7Oivp5YMkN4QWNNpaWb5wb5YIf1mtQ3BaY5t3mQ1KzHDFF2EsWFytGaB6r
Lf1O7jzKM9NdEbznok9sHwTlkRMVa9kgMXkSf8La//zR+efp0NE9H5ojYCUKr7Fv
+eV55mOxOm90kAJ3nKzflQmeUqAZAHUiZUkSQgE1SXZi4kRic7RyqJsmtKbmppM/
fXXHkAc/22vgbLM5GSNu966m9XpEAfEXNSeTz1GdJK1BKFJ5HKu3WRgvb+LZUNwZ
s1DaB92QDoVJuMPvYP0Yb6qYIcyDHWc6jEyd13SEs2Y7psSfxbzaEa97Vp+OclJh
w59izGMJ+oCjBtLc2xGN79BQw2rml2ZILrrOTy8wcs3QzjnWf/Lwjyo7zUN2emPb
v69wyHkcLTkKS7fN7lZ9Aoj2ebrw01kS9Iu+uBnV6hi3CA3YMd1N9xiwsRzjmTn/
dR1oIL9vDB+OgGMtBIf4I0vBGvO5/OgIXXNPoLL36qvxCGBjWA0OCPgAHY/s3DRe
nzbbgy6fnDi/d0kqA+CeQAchxzBxHwMQdL2izL2LoN2D2by7imdPUozRp8KbAJS9
jz/swx96Xzy+9cMY119OrYCCfKj+kZ3J75DqwcGVlVmJJ+DT693bK9U3NnA3cCwf
B7WBKMLmwYYRzNmhfXXnEG/+ymnz80TQWrDlCGfD++Hv7sLWKMdjGtgmiCbBJuif
ibTP9BqWrpkKsmaIP0lK0hdbSJtsFCVPkkI7t41oVouPicj4QrqPNkKhZ3LrQ8wu
x9HydnIX/ewhoRADhq9mX0QEFDER2y/bz6MCd/AiQIjhtePl32fn71qdJx+f1ztL
P4vy5oC61y/Db0r4E/3qdbacS4lL/x8CtVD4+J6t9fVYAn7N3Y3ryRaPPoxrW97u
kdxvGdKATa2AmdmHmJ2r206PDx9G4c+Wq+3kd8WyXUtYUA/flnV3iwP3VW1BAtKK
zsm9HIvKdo8OHmXIyn3b5uWd8/xL+Ikdn+2mh4cM/2Znrb+93a39VdfGFl1E/0wZ
YQ4wtaj9VVXCPyMEQr8HQrs+T6+mPsaAsUIOVAPFHDBwmwEwWmEz+Hg+ON6hAuzB
cAYERjxDfDx/1H49PhusBg8yMv0GVUF96sDwZNm8eTDyaO5ur/tPCD4y0/m41k1P
PyLjDVIluICWf8hFeVh/7y33dOkCaCJ+05FaCp/Q9sLx3EB6iKQwbz0OFr0umPR3
HEwW1Uy+qPinldk8oVuaIBrAJTS1ICGxiUVS2KAW5NC2Lm/NpkblhFy9FiRkzzYI
DhOLuw6bSXd7N3dn0bITefC3QDLO74wYnHMYboukBnQ8rupCUbHp5uTofK5yyaw9
Wn5b+pSoteHc5GC4z2owTj9piyG4iZ1XTHJ1y9/buhy72Jz3yOss+AY0NbRescHC
Sghu7qxvMOhbgf6p3u3qNm9orDJo39tYy+o9/7vEZB4Uzdva+Nwtrwaa9jYBC+ab
DeGmOxNlSDfk7MpKlJKfFuq0PhXhAKGA8Dgz1U0K2Q9Xn9f7Lx7CGQ9vwTm8/rze
Lu92hYzZlcbrgu2M3oRZmEeNFze2eQ0T3C0GCb7C6Kz/oCIKKHSdQ3ZDryF3Bhhs
TTQJtw6d63Jw+Jbeog/EGQ7zGsN2Dg82mH4VRXtyLiVaQS2lm0aQEtH+B886nIGi
P1e9eKb2BaM2WRJ6Z893kE7Ve/7sF/EjaAe6jNqGG79FMS5NjLa3Mgwl0lgEY4xk
VoncYRK/nXwH+fv3/5VHSDCSfI56icpfv5y0J+D9xaPt8Hu6sLRBO+9sMHoO7ekw
nwSrWEG8NKeHXpSpgWS/ljeS2afrhtZTSX9OwvQhjMqgcSYu/zox3MKW27Xq1Os2
jJHhAkSJ2Cu03SNUn1xx/bUmeRo5zMqiE2EOW55eAe7sv8xWD3ZrwODrGLmheJCB
J3GdIdE94cVpGLAj6GGWCf2xCC/x1IwLP5OKQWvkqwRC4EI+ccMUFEfMs7AxwZcx
ZFsnVEIKloQOdinWPzKVxz0bWJ8LRfRVDRQZrUnM2xd0v1TmdPpA6kOa61Rb1Lpz
I52reGORrmqjZDZXvBwiaD+gMWeStxPN7jDS3nPiC8FpzS0Sv3of170fzcbdFZBe
KeMQ+ZLFeMy3TCXDBquu4roNfd9h92r53SJLu2eoEL16k0GbLypg0ZDuQXPlIH09
hvhtMBN4eq/5dF8SRW5teAs0NjWJYtyE04sj1+AISrIaW/8ibmN+2ruYC6F/cd6+
TCXSJfR2HD4SSJCAi8+EPBRW7+T/QYy/p9HHVndd9KdZwNqNCJrYVhjrVb5vPmLt
lj4aFa8aPo2/ecxpY59Mg3tIgKz6CVMMFpaSUheYa1yzvYhnt2GZW3OUnZhgMhAK
JeHLWWVmE7F8wXJSL+teYmvXA0F9DVtLoOkEUm4f5n/QzJlAtnam0cSOqTlU925R
rnPMAschir/JQHIq3r+Eyfn9RS92uuoH1IaY5uTnlYXQwEnYloGwgcqx4pKAjjg0
jVd+j+HOb7uZVDeHXEx3A68qH+Cf7r/UAkQEANkR1N6hzU37qfQv/K8PY7K7dOCu
I8+4BNd4GE4/SoxFiZcCsxuJ9/gdWWOhm38lhG1GnmGrf+5XtbDj10hramvNxcU5
a/rB3cw7n5ttHgOON4pGq6cfjjD34oIm+wv+4kW4nFe2tj5t+vDk0dNctI4PszOX
qTt92tN71cJXdlcojUchPwYg3HZ7ubze+FrMyOF8eXp9TCz4leE3R+NdvdQ14A0w
6r46DGO0+aO/eR8HbcHd7vYS2+MFfMrcj1nI/PLNqt3q3pyfB/Ecv32hCykYLT8x
hRVgYNfML08elqO2zMIYceZ5U5UvzQws9E8+pIlNS0udZwDSHJYJUU/+raodx8P3
Oi6nMMUN7FbxU8lLiQd+EFuDXOqae96d/43cfJUAdIEKBmLA3qX/XIx9GZMIYmZm
9M0ABcQAkhPaEE721xzjCciJ9gcgwWM/I6AwjUk3byNBWmIsAJ2toUoVerK1P+nK
Jwz0pEOQmErR6XIPXWNQE3w9P0URNxU+DKWy1SBfTL71OYTDJ8eGPpQWNVSWh4rF
ugkd10iXVgg6WWWZVZDIhr15lFxFhFHa9otOHre7M3SoBHyNm/bKeK5ysh+fVoPv
LrZMwRZCM2t51DDZImKc/h3WmldKKYsJ2kMMbTRg3zuBhW8dEZ4N/LQ+seXAq5qa
3TRu5sBF3qzbFYyDY4/TzBo/aWriHD1UQQ/cNPiS5hFus3HCjtwouYssc02dQZXh
h8fJXBW3OAR24nFOKFW/qS3hF6zOdJZob+Gu9uD7Am+bQKYLn/Qvv9Z6gXv9Cxxf
CYBoUMYFMg6ImYmJEajR9kQIAl2+AC6ere9h0lWA/a+AlpzrgIwMq82MIpCBvj1H
7+7/XbF4c1brFIuDgFvJbAhNg4M0Y9N9xMGzsbmFAD0uJvA1msmT2CcsngbFF2Ka
j3Xvq/jHp2Pjek/LX01itFv785PzocATKJh+mlAGysiZXAFawHn8MvGqeN/7fAdR
vQCGOojiEzWt1u5pv4xETv1jQ+UY5NDEMxlN3la19yDxPC/zV4ILXlYT9I9i8ILg
B5RXwJPS5x0Cs+sp76ckCxkBayiorfv9alg4kDbM1awi1Xoy6iQZXGWUx3UbM5OF
/j//SXlqYAxWlSuJoehw90OD105K/lSkVOQRP4oRbpIuZqukXCcq9TLZDxoR0zGD
h9GX6XFc8PnmDJ0u5nayk5cksNgYQ0bdASXmZQMlNdhqLRbYQbxXQ6PbfwH3HX//
7uD8oLf05CbpNSItYLrO4X8d8GlOBcqc9dJ0vYJQCgTKdpfEr59er8BQnQs9aKsr
zKzB8ukeR56NIVXzcxer3lCnnMrgg0ia25VlxXfV+uhucsty7+JZnFrq6Zc31sy1
lr4GSV1Xv1awZe7/eFEremrRBt4HQHzV/n6HfimQkZEbC8DKCf3GR3iGPgIgp/ds
BvinAB5fg+/yi2vcNavVG80hrWOEzRSvEu9zo6aHsn4DWW9advW0PQiVsmvN8KSU
OA2pS/lHHvZHXZfOqZobqXf+efJcneor0YJPXnU6FTj+ojZAsn666uSCgS7XeLqB
rNfUrwI1LXv3uDW1Bix572MKxMFNx7exRbhi5vHw80W8nslwCOhxMvM+LIHBcalX
uPYuCsKdNaBI0Oa7INBOMBnNMT8b7fdaE63ZFuTD0239folc3lu0NnJ5PTIaUtIi
inBjgur0JlJcOm9qEx5/1oLrZprsHy2Wt7iRCjzl65r9KMkyEig+eEI5U/hogXpf
k/GmFpMRC6GPOL1KUBaxbTkqLZRtr0KyB8yR+67Jo/PgiG3nN+n6FdcI8kGsHliu
xXxSvqS07d7pJNGF2eFSx9LGjScf6SyGTXBJcG6ETCZf16Dh3ZKAYrzHNct/0saj
hCb8djhUpG+MU7VPy8AjemmCO3MVGwk1M65F8XNszDOCQXm1XmY2pd5PaxhsuB1y
GnK1df9OCasoFhT6BVuf/joR0ky7h7lzCAfNntiYDun/dbz3HvGww5SVw6n+5quY
bObxiEgMwOIew0VyycuCf5V4RCl96frU/33aeNidsfgDACNF15+g2iEYy4uK6Iwp
NQbOUZQ0veeGPZgtu8W7lvS7Sw0a5XthUxTc7vEV75BPT0aLkgd8fGlx8vGwVONA
1+EjSUXeUVU6FHc5hL7ltqOhhpLQDIH8q3ne9y1nmPH6V9gcJFU05SlxU42/F5TH
4sNULAY1/Fm9e2ulvSxH7J3U3/J1h2Jdu+Jipla+mvzRUx74LU3KpXVFdGfZs+Pa
p7ucgyzDcC6L8PSXyBRLH404OCmSodQyR85zRvkBg8tlictlEL5agMO3+iFWi1v3
pwu5E3+DqSakKGONScNOV4mujX5/fdzeUoOuZudynWBbwO6PXWRKb1whL4IZMZe5
9sNzCe8PPyS6N+HUnpo577I5ECOT6iyGN4dWJIlPDaeG+d4MUz3E/ZX7W3k6oe20
RjuKDC5YSkTbLivg8x4qzQQH/YnZDRf2nFk45DV+VaaufqnEadxGcVdt3TOsXpZT
sBaSamxYaWFe8c9nXLRVcj4GeaM65+4IcgIrCd1ecwj0l4ja1yqNyyQmw77oIvxf
PrAsMcqn7ExdhVlV6K4gJhr/h4Z9p5MdsGkWKttxhQu0XvXavmhtzgAhK3zX4+dM
W6cVOiEkm9mXl4fUNGGOZ7HNQCUlfGwLQ3XpJ/m+9ViZl1o/LoZ7ktOVk6vt+xDa
w321N/IbqmTdiG9kpTv9c6CfTvp+mva+vmcXO849gtzW4Ecp5zIlqtm7qME5Pm1c
+HV8dvo/xHYLM05BtMDOtO7ceamc1Vf8L7SJGvuCKAaCbNxtOG6PVXvzH026J/pO
c9NyqnYG/2LBt0f6H2kT9vQAvrkXNf+mfqQ3T8qbTYgGzlA77BPwZTqppnP4DRQl
Cqe4RfbUhDbWfhRHN2WJaAy0A/64OHw0pqFgmlNpL+1nubURYzFyzq8ZCdKc3Qpn
I7gVzWXgLGbrY0ItEPdadD8g3hc3uftXVCIGMGOc31deWrpMG9I+G15TYRvv2pDz
RtL/K41CuPUvXXw5l5lZ3WYWMgh9PhGa2SYQv9Jq6/VGPAv4CC8s0IqcBfP3BoK/
gbjDt0+qjbg9eJ3AJtNhv7VR6NJIcCm0t7flAtcNcp7FZGhmYIvG6O2M3mEospjy
/pLzFR1yEKUppqFoDM8F+Z6vUwoV2Sk0xxoUouXfDfehyrCRDGNDhsJyLP6Q6DkI
TOCxzSbPpLFwoabxGnGkz5vz5uexRm6zo8rOrGKodDytfHDnyFWbp0g/wSnEUwtb
McdwwWPip5PgbSi862nP8TxxlcYjIf91yVpZuLtcGUxKbE95fxYA+rKwzN+JPfG0
Be5lwh5kuD8LZfHSYbHpRGiLqrmrENEShflD8nZaG8XDbn3lUi7EHDFzPB4qOSMO
mrzDDKvuCl1DWEkB5aSiEuFZled+2q9bIV5D+D9CTg8pQ6gKom1XnQzFbmt70VdM
z2ljcNwPLnH9FFcMZfGxHBduZ1x3HdPP8VWvmAWNGNDvXyWAAakbgfMeZHiMtshN
d5UwdJBzY0sXuBhWxr8ptiiJylnf09p1TuwE8tFzKQhpRZDrC6EKNinknyGnAl+j
Zw6kCpyg70anuktXrfJU3/wuh/YQvb0EhFB1B4YaX0PxYtUT120TU6ig2LeI6riT
a9JcwRoHtegD98GJTKKqD2fsKImMW9Cwx9QbYKtJR+MjwrhwtMZ/MnQkS4hoLvAX
hkU4TE4S2Hl5MTxuNXfhduX2E7d1EHnSC6cgULvEd1uHwpbi+VcMDcaq8E9xaxZY
JgIDBrQ0ZdzpPmwj+Ggvs+CCwQKDbTMp08mQFDbD2bskkG/Lt8jWNl8qgzAdlQNp
fbrvXqxV/0UPpGMfRdP1JkSMws7aQ4J3WPxpQUEfu9JK7jfEaDqnpr+1mJRFsrsW
TDmWPMc7OWp8GGtxdKF2ofdt+kRa0fS22R8h+OypOZ8KhLCyYqVlRQ84i5eeMPE1
RjM+yL5+OW6safBq8iEb9GIenD+H53M346BbkyZNApa7Un41T2ghV6i0NLwxfqWB
nEL51E9XPxyOyTz7BMTkCYFj/P+KEVs5dHWiv06waDqFOgT8lc6ndcgZknwPcf3h
n28uovsKB9mCKiDY5g48iqiTdhVQ952bH77LRtXh0HIGnrpiZ/dTxhffSSnKOhCc
DONWGhyF6LbUSsnzqi8+LU2TUGOH/vyIBD38vRjQUfrI11PGtfu12+BvbmcKd+y5
3lyJQMzOnlKya7mZC2bD5xe+zUgx99CAxDSbQSNiYqOTOV6Z4Az5hghMqu1a77J2
F8j6lKwF04JMEFkoIdOob/eJkkq+Yk670yNAFs7+pq2+Z3XkZ2cP/zzgd9DrDsvd
eRlhwTLZH4pUL+cAHCX6p6Dc05Ln/IsBOweM71lVArltqu8kNkAMc8T1ICsGRu7L
OpDPXBV3z2VAb9T3LDJVJjJD0FrmL9+BbwwBSIS6ylWS8J7GQNaNthIskQSEqxAi
i6qQO3zm3YG+YT9NRBjsvNYfBLDarqrEvXGbFlJtLcu+7mPiFNUFLUhIra/uq7H4
rAL1J/9qW19PT0+f4O5Lt1XcAk6XSQWtS7DmiHuH2RufPNxYHCCaLXwFAHzEU5e/
Ue4Eb+L2j3du5mM4aSh5rpcNUOidPaVojgXOATXcwVnLasA7BiGiD4Psl0kZSGz2
WuyrSzcRScFH73l6uxzNBmYQW/id1g6Tj4NPyxXE6s1b6t5mV4DlLvFIiJKvPwHy
dLnEy6K+T2obclzHd11O1+s/ji1X7kP3kxhZbvkSroB0s65NWN5G879lYqpt6P0Q
biitxLPeMV+TKx/92tdMzaqPO/Y1oAYu/KkjjyERqFzK2x8EQDiaNg1z+EucwlQ6
hm3OOswVm2dop0tRl4i8Fx06L886p7pWjyfPFaPBzrIXPx3k6kUfdks8xDKpbvC5
CZVs1rRbbNWumngsDtwVz18WidVA1hyjc2rW3uIW+Gzj3JvW0eZlQxn8whagV23b
h6jcIjMyJU8A8Yp1Twa83AxgsV3hF63P0alNs6NacezONNH8nRxt1QOcn8stqL9v
RmAp2eg11e/1ajKuAImdMvx+d7vxURAk0YKlE26Gd+PGNlt+GuUjtLXGM7WCHV2q
gim/1VOz7eXCvBi70dpNK+NWxj+BFDZd9hgwOe0HrLEfEjCm2eJsG1PX/N6sZKzn
kxl60tOb7lwjNckkFLq/wGL+usu1e2pi9J6/jFh+GmIH59ydUNHuG9ayi1hurPsg
slMbvJht0dDAVymnLQDuEIYuS2Sm+s8vt8+/TQS2nNepgUXuTs/0RgJ/c5CJ5BgM
gt/hfdS2r2mOrYMYuXs/A3xlPgGd69ZnEbBLTqGuZ4OLrDlDluYeACV1yiOfZn6R
YpGoXKYJ9qa6do/IuaU8d46r0rqXNJJaThMpz3ViMWJ12dH92uWgjcIvLDaif1Gi
j9Ih/fZs0/Asht+w2ubh7GqswagOpAQMyYxYEz2aGPf4oQakMsqdbZTHKc3JcL/x
K53d0wv6jYsxRcbkHJvasqjdaiPxmtD0OW1QpSLFo7ImoPOFihDSzTxIlSmu1tRY
4f1FSuPwGKz3WIRPIVA3XEk3KpDMJ83+kF3VvT9+f27vlrJPm80CtiulrJIGlXTM
8ivQW/2T3ZCoVtaXUsrRtSb1gwNlqM8Uqsm02z5Rgxs44RX4yFtncmeGhYqPf3Hw
fTa3N33hI/8QxkfD6I4/DR+7EGcfoNwI4qSDwQDcxPN4Y/06iR9Z4JKCabOb55ci
Z+pFOEUOFheJXnr7FPieNk5XlmqYqsuOepalTnO095enSCGT7//YZh8+2enKOtyv
5BmfgqBj8ypwmMUSXm4Io2eyCIwmJrGefFKzoGElQ4YWarR+3vVkeOaFkUz893jg
gmMydTjbBKz5TReoC7GRjJr+RfutQveBtL2T8rN04+T74R3PHo6vJPvCFtGytiab
iBWaiJgB3IqDT0gqkESxUvnf15v9AnE47sSXmLWb84Bzzu1rQNB3r+jTu8k3gLgO
dHrwAOGtZ6Af/lWuZAD0/38fcVkL4mNnNzkcP+AeTdnms7azJ95T8p9f/f0o7q+U
VWUIaeZSnEwyuWIhzVJALFv3wA615efY9h3Q+pLf7P7iXvBowBG+lSOblTXl8Wnl
8zrmVwTzuX83vBP0GkVsl2s65aldavHBgXr+XoO9uuHLnVR1m73KzkXDRTYqeWM2
tpLMlaKTJDcZ3RqgMCJ5ZLRAkts7WFQdWuJk4L9H1znoq/O5rWsdIgAdsL71AWcd
PMsHwp/av6EoD2gDIX8HkJ6CQHlAkHpAdhPu8odx8/qeAJ4UTBkhARXFF6tJrZTo
888rDIq/ks5o9lq8PwKpYEv/hFm77Iszmj0jpM3FcCsqZaV76cN5HCJwehey/0D/
85c4L5sBk2s8NEnln1ov898yvpHb+pHfdur4cdbf89hyHefNT3cx2taZ6RfLYcyb
kXytoRVqOTFZ6fario9JVmdG/pI1pPjCJxdlRBdXFzJNqoVrTd4bCdDNuvi4DSaU
ureuAwThZuSMxOPZK9gPnY6TuAAWxKJq5pz7hlaEZ2Yb63FONQd/LZWYpNZyA54q
sVVVEytplbu+swTAnH2+wfZasNXVr+b3vbK4YxIxh/krRGsyDb9EVc0XqjBlncZO
xcYSmb+uU810r3/bXs8wddgPdWZMWmczbRc5X47pV1niGNVyDLYyhwnRV/unW3/A
rEwyKOgFwhspi2N5zhis8fYfy9Ysiaz6HbYo7m2JicKq6sMVuAGOtowSF9QaH/ok
R8dKOVaNLrTARFV0UzjgNqambu9ZggbHaQX/rY3H9ijZMcj/3kcfnB0V1C+aDmKG
9OWT87Uwre81jVnSfbPKFCM3oT9lKk4fML+eV64+Tzjic+Vf7223thNm+weVDjZ1
+IvnZjPVS3N0XxOdxAgWbSdb4z34Dzts+UhSNe8eB5L2BFy+Z6IbwftIMPdYDrjN
YZKVIWtC9WkNTAZmuuOCfUIis6LJkFS2tZQocbSU5nXVARt4w3T654gjA5VM00Gc
RAJREIqlQIc1mz9GYHKclWJL54x1xRiCeWERvKffr8G+rRST/nbJR//T51mt8Yiy
IO/m9i9eRIE2K4iXuhPZuCtwyQ1vcJZw3pzSthO3ua9cVCYbiMCWitQNFkJUiKW/
26GalgztWJcI3DvO+dzTL7SjqRl1pMmImwgs4CHVQsk18ZFZEA28MT6SIxYuRdJf
os9uop4oi7DlqfE8jP3QJm2PP54FfvIfFhk2v7BILVZ2neIvVNl+0xm/qSM0jjGi
qc1NGTgUbB4MWLRa7jPeliinx8AL/enN+nJD6StxeMEfvmgXPW3rdtYIblJZLELF
VHXwnZkzJZgaJvDIQsOlzF8kHTAQzxXOXeSc+q0u97sRJiRaRCol3AMAz/g1Dob8
ObgAQh1XnmtdMcM4OPWHZU7e5zf4zX6s3qp3hM1g0lcbJb2cPWe6JLbrXk3ky6ho
k42FXbOXXaPtF+CdtT0c7jNer7/wr3duW2KsG2j5p71JpArTG9hFCEA5LNHSTDBm
tFiX9lkxG99uCyB+5z8kRSELFoMhDSKn+ObMXPCWs/MTdl1iisQpjWAZR+0s93sp
T7LJ2uyiXk+s+JN4D57nLzOnGGD51sn21fm1Ow6yvn4NJA++BmiDFBKmu4ABTkb3
nV+3Ol+sR1J7Zi9Jb5a7syMg7+8C9H5g0WmAU5H9YS8XtiOQmIHh/0VsCoAJeIlI
3lN5f+bGaiAWHV6nNd2G7npweH8uhZfrsegeSIBlJQwp//qaOTiK3Dmqulsqicjx
RMK2PDQd9PUJFEgjziVh1gzoeL3429Hp8lfJRg5W6pH5AU+qjMor1ofaU2BtY10b
sFV5c0NoRwg9o1+XkQ/Dq7MMej4FMON+DDz2NnEIArnzPre+QYH+vgDQ7kHCPWhv
yhZdiEQUlwXipwZHDk4ClD934h2p49XX7sb1/ygux+BMmCUKx7Zt27bxxrZt2zY3
trmxbb0xNjY3drLR/e6vPvOc6qpTNVPVPc794j/97MKKz9LUpN+YHsv3xskI0gd6
7SgjRm4Re0Nu/dfPp2K/egqoCc2NiEvu/t0ceHaC9l93bsmKb6EhX3EQxQ64SQig
yn1sPHJFr/7jd+mvnnZRSWXR2bZ6h5E7yzXOtiYebQJq/oM6mnXKKq/xNbh7s36b
Cpb6Frqp3x9rDwflrCaRHLYSqrIl89fr4Z4o/3mx43ncEmRE8097vD0fahD7YTZy
+WHmjvh24sIiEtDWN/0X9O73Oe9k/WOmli+FfbuCMFkEaQU7GrFksoW76Tfw5krE
S15sB195UfaV7EKRw4IfKlQ6qA6To+l9AtiEFgTmgDNaAoKx3DyFFeZXJuS6Tpdb
rHH8sPizFgc2dc+2tn/w/T4G7G+FfmwD9GV/uHOQ/8p74P/kC5H+TCwden3/5H4e
bBk+8mrgBKZkbM54YmzaS2Mm8rgSeRyy+BJ7+PkjjX8h5Wut+PV/0G0TE792XztH
gQwUih1+hPJEv943ojkuc87khdsaS7Ii+9llVMys1i4SvZuuKLW12EfSMvLCMwt3
WiOP6IiBtCzRwfcp5MbcTrsTQK8RyNhgqJSK/mBTfe1aMCK8SgL90Sb6UJpUN54x
p9Ojb76HKNtwsq4Urr1IDyasJx98z62qgFONcTLRI535gzMoZsUHpPW/9BR0R9Lx
DxDUFhtzx2mf7TNhH3M8Wv6+8MsEYlbufkaSISJnwV2I9ICXkOHmucXjIGFZe0Hz
2ARY/YzxUSNBKGBFRsEO9Je9Q0/C16VMk4fPY1gM8/J72c97rCfyEeGV86qZLRqj
LIcUY8Zr62Cbf4agivBBga9GTKvThePnrob1ZeL61RFTuGGJ9ZkNrY8cH5fVrn7W
s21lz5Ri6meSx1l2M14MUGZn0ojwSHbgS1EOrpxCtKYGAk80rFgVzWzAs6dMUQLq
cgmWDpedmeaYVLyRfrPcHpKkijjyYbJb6nArZxiEx1xbvQ47iFvKvPcarFjRmo2p
Zxj0Bz8V5JTPMYEjlEzoLB57yknUgncTllINmjyTWHuuHCTVrYIJKkE4CVAstY37
ldxJMgzielRweYH5xlLjIOc9HSIrk6oDMjyEaCGQqQ58CBZrvFBzaPaz4NlxDWJ6
bRk0jKRG6ADQYUX/NL4h8NIQz8/f127Whv4pdv78vZh7kZL5cbgmcuwqchC+EOKk
v9JAzFckhxlG5LsaubnYoGFwSL84GZHG/MYQAlflAShKYWuHWIGMybzY9+z9jrEa
Xiq9oxGqFKRwR2uz8UHaoLYwKf5viKJ1lj7NPLPUceMvrDOvEIcf1I48k2wPS4FB
NS3cJ3P5lXliDwquu3gxNF5MrDzzCqHZIo0uxdi+QDzrbkqobjX10JlpR0oLZUwa
BQty0wJeYZvnk1IKs1d1Kyg3AoWqqrN5J8pjf+2FcCUrrUm60+4jbG/I8uAIoKug
HSVcx4zpXV1Qir+yyEm7nt1ZNt1bKt0mi9yiIGAjaBu1ZVUeWcsIaAOlPXAMVzH7
IS2BqzVDIBfro7NsyxcVoTezIeeJ6+cWWba+UST8HG59so7DWaVSD/+q2nSg5MCg
Kd2qO0IDChRWKvUi2In5ToTEyCWPFnXYABs7v+HXWFEghRsML1C8ZWoUwiaBx29C
qRxxlk1ePAr7FjwWlu5bieefa9Mmb/CEDvuGgBe29KG7pcto0U0qWUTlRzxcfVhG
1O+kXRc29fi5+LJQJVRy2W61NyzpIo+NQTjj1N/kfwstO6VnsZMY8oMFg5Rg+xYX
QlvO+64aoQl3N1LI2Vn7G8sa2QUslGHeBETh4dkMU7YluQXptey14u9CXtNzrKkl
CFAxTIYUzbg42DF1nFkeakrixWyh8Kr5QI1kzOxnaBZliIdczXstd7QgowFut/+m
Ihw60qz5ZKQ+aW/nVND+ejBLR7HqT/ekdpGSjhcHoDgIcTOr/goOxjyHjcN9fa+y
o15Co06hSFbcm6JeZ0WIYk2jITDOl78nTDv1KybPf+EZhCnu8YZxRaaEemryqzuu
7GLyoA8dJnzWSq0WNwjMwAT196Fd73sWh2BwaGgYPh3tHWbgTXUf5/Ecoq0D+oyb
4olRmEn+C9FA2gtHU+vfKa8oisGu5enR1NYiKEVp1E1TG/dw2wdoML0HazBU+exL
GoEjP1Tle4DB8iORmTONtqiEkEbW4+OLjmeCsTzV8iMA1/YRJiSVycTqFyGvL2iI
yugJTBocGqauasKGGDlnSM4Pi0NjvNhj3tHWaE6S+t7SE3n3vKuVFVxPND4JK7jO
3vEOHZ4+jlQaXlV1i9Ev24DnbkyIAf+w1nyPikEECqXA7+CcAXCRTV0R2e2RvQ1m
MU6U4B+wDKwu8AZ8SzRuG9rdrGGRGoZTazkk0wvw/PZSeIFZQiF8ndHgY1jVyKIc
+jtsyi5QPDjBwPw5dQYHWBeqPrhnUrVhSnF4Ua0P3r3ykTJ2xxmWNzTZCCoJ8PAc
v3Xf5xcuB0hf4tkhCU+B5g3vC4oDt9vm4fy3c1hxvHzSXk0ECQfzyiIV5usaCHB/
ooOCAEJ2Rw8pFgZjUE/1lzAmFnCkTtwLZ6nm85dTDLye5YC968YhyywCdrIURQbB
MBhrE0DjxulyhadbO+6/zN/F3hIdZgopVEMSRlnMUESGLpZhF1zhnhLSMvJF6M3j
PptW0iJqonaKU4jGPi/yRF2uqOiWnOJhiI0/L8dyVdv9k78giQ+LFhDoNqoAPCFg
Dg7kuYf2GkM/XQU8FQ3SetDMyCPPOwoUBFvbQpu7W4IIhdeE4XQ4NeG5W1HS0FtK
Rgfo2P5dHV1f9n5mhMwsb74KTzCQZamh5MxcsyLnOJYyEOw4noXedLp42332I7N3
dKQwCJu88r6d+kvnqrJ6CgjXTUlD67vCzZGRikxUzLbNVy0fbP06ZS1FEbUQgJb1
g8e2/VnQUq01/ryT6mj+biLyZV1nomVB7HGDguZXSIciAzzb1751J1d6Nm/uA0P3
JjScCjRs+/A0K4Q374143Ko9V5jnmFiJaAhYd5CMqEGEbs3ikql2xOk2L/YyKoGg
3aYiaSs3oOWHyQWkiZQYBDV5NAsAUjEogw8SuhtEePMSTRY/+8ra0mpYZ+BVR7lA
T+TElw1nTDIfCRUyx9c24yZRh4/mMnx3Dz4k+bw7tDHHk4ktzdwULbyyNBmSD4NA
E3KMTYOLqNxA6EE5kRIcnG5/IS3NmOdGiaGPzEL8YjSHLRL10lvCWx342EsXIl0n
TkVJa6G6q9cPjpNQY2HNA2odctElYa2ctsqqJYYDH8afGCNkNSr5yIDj0oXViwU2
IcckNdIk658ZyfCygHFaQW99gWPAaSs2KpHJbaKNWF8xCywXIgy7fo6xS55N5l6E
5a3UM/ZHgv4JX/C/OjeSgV0W7RBUHLdR8qXOG+nMM87cRXBeuAgtlmVJKAp7koe8
KaM9XZRt9VN5zdOMgHJw/NZAkoohB4VR/suUbFvd1aTtmWEuMu0caPqQO964OmYg
5daiAE1DHio9Q+wbLuJ5kefMtqyE0vRP7ZxLK6d9+ibVmQ/Qq3sytn/FVj6yqNaZ
MWK/znkhC9Mr70CpyoeaiBJvwmIlT+TzhM20gxzJzi3BLq64LJq45LVdArTVRmCB
MqOzhIdoUYlh3Ys7Y9uuruos8aoerFayZrOdJxOTvDMZ0nCtSrODWGTN3wLrpFgg
Cf0QSISUMcci21n286c0HlJR9wSI8ONVDotq56j0GoniLW8+DIvJbXEn58jZJ6dI
sHsIVITTPoZFviLacDYHU5fbsiUexbiw2JuC2rfs+g4lSClmNLfjHd+GMll9T0Os
O5s3eARmTmtU2t6GJvwaJFpUnro5LiN7mSEqD78KW5IP12C5i6ePVTLzWm+qBwmu
UAFT1AlZum4m3bleyo0zBJtEoSOtaU/LUZYhKwitBJmt9KpOo5aQh1k7grWgBS39
TGFXUtmCgj+SAHmi+PzvEmMkNOKi423WUftGJEfjiyWEh2oWK1CKIYKxvP++prkY
oedMUTLgIvnHY2OZ9kbjL2Av+xSiWeseGtFFgrXcFVeKjJvQp+cPhpbb+R8KNhuS
7Na102QsiH0PnnPivfqefou5kbL3yL714xsdO5N1HNL0Lq1FeQLPbcfOi69+Ccod
7cak8OYIFjXJ7suZpZiSimIZlUF8AVO1IGIsWJKzZyki7pJcvGjIcGxY/2jXA9J7
UnKddVhvsbPzdqmwDLuUvASycBG7iyDP+WuhOfjrC0Ab0/QlHXwqCGfh9uRrolA5
YdrGS/STpcQrUAh3QoZtAJXIzpFIquWvczYJe2HI+PkugUJeUBZWovd3qPUiieV8
1OzzFJIMo+33nMVQrjAxJ4QqOZd4Ymf3k5owriJRGHCOGiXqysiPWaGmdexlQdUQ
7/IWZAK/DXWXIk3g2jKGxEQ9ISVArkZJh89gUY2jD9SbHXHEyAbXkNrwxc0TKXNR
48STb2CBlQA7nEIpcZ7eh2+18juwP60wE4lVpmNq6MZlDEHEOuE2rvgt8jSoUgWf
SbCr7hhvJeSlcd04YqVDsng2jWQwRa61pNdLuOxIv+ktnULfxAUwXv7AzElwQaBK
NTg3CULR4aLx/gnjGGlUsyGlFXHbvdHz2oIzWEWZLyww/QVomX6cFGikk0SE9NGN
Qy3zRlCqlJj2Thx+lXVCKP6Gdem7oMEVm6Hi2ZlVsjaKikiMgvrxKXX7532qCufU
FVEr+/yJ8VAKDU+bWU0alGOxrTLFenVeh5Dn2SBIhMv55DP0hU+Qg/5nn5VDvKKk
AlUlHIGEbZmdkgxRF1RauL5jo6V63hauB9/7T9z7b/xYQDbzsBsfroSohku2WbKY
CC9VWepjy5PH0jKtaJdd8/IB4tqsnZrdlA/HFdpnUoLxJCysywUMZ7ucvHYTxsYx
kMyvIOv4d/RWifLaJDleUznksZn1IVtiZF2Viz0kukw8ChO9XDI95OqfOnOgTItY
Eiz5qjMuEmiHkQBHa7uH3AvmRoqBnyPpwOEuYf5eHlCo6giPaT/3eujpOTPbf5yo
tVJUqyOJEgVwcF8HKPw7BsSn8ApSROa0mC5S0fbFeuZxhDRjoTRTd6A/BIW1Wz97
0hFfVwTE8sfjgGYWjP5dvn9vXXuOyjyzg12ZFCNcd9XNLM7pI1NKPQw30wkgM1iv
GbS6VSJQRY3Jio9YDW0mPHs5VRePEKFs05mzL1uULmRd3kfWpXB9OZe/BX1lMsAL
AI52ngt6DHsiG0y0DdKZ5bFZoZXbLN3gheAQgppHP4oZshSWn0Aix+XWR6rAAL9O
fEzgN8BhfRoy4fVNLY/xYUPa4VcmoQBtKC2/Yt7fJiI0/E2rGQ2xODDn6cKd/Cht
v2wpG6/JmFYybBJGH2gHhX7tyPIkfc9hDPKKcqhVUh4FJY4SjgRuoy9RQOIxXyKA
d5dGDrfWdOHCZwd7tzxCV0rU8t2w7wybtRtAyrVL+4rpLOQZCHYfK1FVQTZ4JGvv
wga3S52YI5xHa4nWT6SSpd5jqU2k1JTg4kGZ3g6p11djhupTr8SrnOJlBQuJO7Kz
0sVAb42CBc8phZE1s4VRmsl6zrZzI3V4aZgxic09grIqFKjE/JFR1D9mhGqFMuk8
t4YSSYEJldAfOej2jQx8rs5AYESFKQPzPUIGh3HNDlmq3S1yS1IP4UIHq0BVXYUE
HOmzcGYBrgN9bwcLF+irrzHcJbkcccQFHVOYuNhKXxlwMlpsOOAR0HJ+iWF1xQJj
sUeqNnz8XMRx4GbTYHW/cpv0z5Hy3xMIcYgJdytkCH7A2UEOoYvP/w57FFFnlf9J
iPYxd3WSbZ9r9BLqgE0miHcVyIJAYZm2gSI8umJ5WESJNoVyOWdRGjqMW+eqndZI
MWRDqLBHOBYt5Wj4QNnCd+5NOZiOrCvjvyTKTebuOx+2vf2lkpeX1MoebkIye/2m
imGWmfM0QVibd9dfBjZeLfbSDOMVH1EhkvBEXK3M3TJBTmVcXBE5upiFuyPVRE3e
PoLsGpdl5rKyYtJF5YuhfUgb4opZHTQbzy6F2AVeNoiMtZEnFbYEViqzxmxKSxbF
Qy//hPFpqe/ejYudUDSXWEkjngAbUVLJtINA1yWAi6xj9IuVR4UICLt6JjZjT+eq
ATHorCDvMk73WzdZUNa2uCSjndV6qP0NJRu9io4SmfBRwJVgI0y3M4AMmz9OzZjO
gQO8EyLa7uej040uZT1b5r5TbZEXWiLmcDxGoRh9R6lU2LhlNdU6l9IWY1Qh5WHr
gkdx5tdgmBhVpA8hLgoIP2Vb0FCZubrEO6uk2FXzxbrJ3+auyo8rxFUi2nKnnsn8
lNiqrWOGo+7gO/SvzVoXXwOrm63IY/v0lAtquYTKxk3SO7mesyMiwmXtdMmSwSL+
Y/ULuahncCOHI53LsdZMhsDXmotV4aYYkj5EY0Vev5qXwlZALPBG9xK3XUFKzZQc
DylN3hSdqdZedZ/QMUmRpQ/lAb2Z24Q9b5RuXX2MjLTcN5OsvUNpVIpNQ/QxmRbK
lHHHjLS1jjdpmuGWlREt2gpV4v2VAJsfii1cKiBafiY2zDutAad/wblgyUqMRFJ4
/pCIxsYk0kT2T6Y4rt8c3DYEkpnfdhzMsmfU9b3PtLYey7bLihuNwEvuK4MKOKoc
XoDcX+B5ApDFqqsGKj0AtHjwFgtv5Tp+0oGFiA2KPrlrcS7+OfCUmve54Fn2L5CO
5JxauU/9AjfuMr64YPqvhHPwpHgJIpx2DiOlVkt+oeT0orHnLkxChhKjzbqRaxUj
Hjtgwtiqfd1bEufddgHyHDxtElMY5REB/Asca6pjw+qQ8tYsb3BlM+cYggAsI9Gj
KvHEbIaWjR8W8zvZI7nxJhdHdRsWoZX9r2pBeD0qZuEIJqiMsMXolCejQ5JVXLT2
oVwtnQQhcl13ZkLVKb+sEVeReIdSFKP8xgqcSrYy6CiJ0S2uSQhhLW6huBSfDKtw
0wtaLNQzFYaEf4Z7NpXAdD4eMYCTUGy4T6R7HkoRe5qCaJlt9PYEhGAirePXds2F
teoNDNWhySzNnwfXWJ8231kTBk8v1lN0ZWKcI2XL+EgR3el8ME2CJ2IjvtmM+Ur4
RM/jyXBG1EayFkMbS4I0exCzp6pl1K4wCRM4JTMM4rwmKEF2yflzSTBaGNDMsqZc
ubHxSqD6bCd4NE/lvMQgbxNYiB6MKOGROn80fyfaR0me2GarHBY2ekrhAmxkrIRA
ai/pEi91FQeYlIYwEXX+jJjLQyme3jCAU3JCDvcyzuSzf2ZTb8MVh7O2BYB3vqvE
KouNB6LOkIj+KTd8h+L2uLU/Aj5Yht+/hc5d7r5A2LzRjcpeXhCX2CltHJ5qhY/J
xxqinaTSi0Pggr0WqrpCcJcFuml5uPn2sTAs0r+pxUy+ecSqgOe9mH6edLD390oc
0Qm4lId+uuZmQY0DK/qrQDR/t7VFZJdlBS8Hy5I+Me6Ifmvdmuegi1pkFm1lXAZo
DVOvtbOgjWjezYZ/BXwCQRIF5QEAd2g5zFGZ4jJIKil6WrkYYoofFTDvKsZKaR+m
UJbLfWdRksahVvkJAfSA9cJGxrx9oz04To0vg1OIs2hb5lL+RO28PmKwtmLo9xse
G0rEa0bj5xShnB7LE7cdBf6G2qth0EpWPnObwdcQTDY+KxaP5UHK8cs5NgQ+H4gH
Qm6srPhCKpUkpVeR0E3cRvTmYOU5baCPn6ASzGBDfJTSuJOUrtwc+kzLyKO0Pf5+
QPWf6Hoy0QM/tA1loJHX6/CfS2joyx7pgbtvbtuD5fqEZ60ovYPFuHoUxVPoS+aR
a3EzzB5cIf71TbjXggh85jXkAicN5RtjeMrPdmPyS06R8pc3n8uz0vqdUuegy/2T
l0XUtpenTOeAoEI8o6DuFsybuoGK1e1/PmZ2PzT+X6Z23Ovijw0dNgJR0pdVjX34
/ULr/32MA+YQh1FejT/e40rvxnbnTtdA9S7n1G71WbeNhHk2d/kQrAmEHZwsqTl7
AmVGChCNnIj71v08zKGTpupvv9G+Pfy8WtAcHdzE9YRvie0Jlz7Bbf0+KBO844Qc
bx2vejfNxfcrV4ZvdlHr0Wfjx31aJ+TNpnPWbFhWAu9cL4PXnF6tvy5e5rg8YGcO
rLake1Ygt7AbZia5Da/rlikMCa9uCR1FA8Moy6Ssh5DbkX/wfhNDdTf+7NV6bKHU
M7XduwZ4hXHTdaRkOb7N7NJv43Hc5itgwABAGVY0O7ue7e2OrD+oNw3pZHcI+n27
yi8DvEfhW1vQbxwdFrz/IAfCIncgBW7uDvJBQOt9XG61fjamCPGI0Pv1hOrlcNoT
iU6tKQWHaPXwZ10Prf28xp6qgcBam33xiuJjLW+97j9zeSQSTjsFRtQuQHe8D6Dg
XEcw/wlCHbkywhCwzlpz5YfHhMBA4vtTeGOCWLDk3e6jzYHCANNu7fZ18u+xfkTO
OCS4R9PsQc67c6CtKYH4KV8k6cVXWjNCcfHnFa5Hhrk1xTm/HV0NnOBvxgEC2Jon
Yrzy3rubjmvA2T6yc1OLF4xxqWLimjgR69eHO3w5crunTd8bT72TfS9fUWkEWpVo
Ka+/ZJSDXyY35aD/O4cTsX3O4+glgZDe3q6PBwuo2cojESNpjrl2C75p8FWjvgkO
TEehihY+s/vrMLD6i9JfVO/ePS623um7FRFI/gXhjoXU4aHw0gppMJFz71OuRnYC
j/Bm8pFExjwKsM3vUklpJLr/UmIOAh2WBHHuO1EVadyN/2uhmNmiKj6XuPTopEYv
2MegtPFDLtnaqD5qfrSyKzy8STuBmAE6DJEhWxgy1ohqj6i0RAi50SNyI3LZCD5S
Fu+87AbZNm1KLsRB5CJFwY8nWePqWpbCeargb0F7ju3yN1GRhTN+fU2IO2KjP8kD
8GZqiug+xpmL+D4KLmkPFSPiTWxUMxcb7YU+MIiL3wKLnHPItSKeD8tfem2FF7iW
Ct6SV6KSPSw6TICSe9hISazkziAH/eIIGGsyTCAJGvV1DTBj3WccJEC1W1CWXZ4Y
9csLdz+RNgVQhICt033CdvzyqPhGzYBRqoJ2BOsQQhdUKjOClTrwHgAGNujejgOZ
4J8v80ZGQ13V7W90jm2uGFqWEXas658r0OXmUsS2JxWo+RVxx+vTmzWXTmT/dWn2
gnRlYVp/IGgKUpGEkXafay96ao7qh+PguXWBw2bDB676GlfVJI/1CLbjcFDlS1i7
7d5vCyrE+YXZ/WOx5IGtC1vEkErsiO3zHrIq53s20j+OqGNinF6PAThpz5ILcFbo
zWjctUBcaqUMpnYJni0bvdsHfZMEq5HFwfjjo0YvQoDnviEF25ZkmGXVIKYJKch8
gqI+fOVhyRwX4LolxPvYjhVJH2mgmRBGrZVgF5NKZMyuJaknpqjRMWHiimvxiTbl
qAneokd8Gcr4ge/NJNF1HcUvE0RutAio9Cn0hvsm/xYW3N4i3TQ7wy50NLTIUnaG
kc6E2Hfa8Ho2/X2aKElE3NkTxRzWGRXY2Mj7NMhYRf3rFxFupP3q7W/BM+Qyqkh6
q0zwRp+6E1euPUt/ASg9vYM/bzuW/vJs+sfqty196Jp1VUyjzxOxRxhsc/LR3EUu
y+awJWHP+oVwURUFALLKs8cgAugzWE4dh2WY3SbtI4GbJJuhw8dWXUgqK00+Qi/J
BjvB79UoCeqZCh9nqVMyHtopi3iJtmllPTPz+gAi5JliWP/U0JDbmIpS5pcrZc6R
hLmY0zzwubpHNdYn6VeKximZojxN/mcYTQx3a62xSDl2chQCNu+fVH2qfHkk1xEr
Aq/D+/JrmtVGGksQqs5i0aFNXs6ntbBH3qqJddPkRDM6pD6bKk86ljDZGc0yqfwv
yFJYI4lrr/tklf0kUxmwP06hqaXyfLayP7KU9ij1XFcvPEiw0VjvyqK9ia12Ar2B
ZDCqXTcYrXblDDXcrmhIg0kDAwxbMALC2viug3QbkUJMh0CYEQg8W2N8JAYTSY6Q
JiSrH0BRQFet9jsNOalYmEPPJ5Fgl69tvSqYw3Z0MgStPg65ytHKDmno3Ns8xmg3
TKyZAUY014ClCB7R5Msy+F2CES3D7CzYkkztj4+KTSCnjJF/ZiQBTSw5uscnihFZ
1xri7h7rik9RyQiOZdFE030/rBK6G6YCisNaC9Ts54sTEZb06mMhJg71jFSAoTGB
DmJHC2a5X0Msndp9xBoBHxAS7hF4/hvRRu2+5AxinBWMsJYxA1tYWsNeXfNl4PRw
g0ZksD0dG8h1L1gw++rNtcdToMDCCZIQtdsvxpMLsBvPkDbdgDDCmoGqDZQzjs32
l+XB31Pdyn4KFnPGKGtRnUXDP5/3JtKdceI0b7tp6arGSahVnkg5f/+41c5AB7yM
kCIBVlBAX1bKxdGOsW0QZFACFh7Y1t7rOgWKsTOhaSBGA5emdPTf1mrsi1gpZZSS
82ESztpZfUNDcQQPfrH6IvRpopRMwJ+mxiw/SkeeTaUkOc70+zgXDNYUIoIEaiYX
DDqxMyAtPQb126QTWQUXNunNSkh3S5YRtVs1HviCxUgVMUnrQGN55nt8hmHH0BIP
U3fyhSt5t6AIDSmIvfVC+MCQzS0izKHnlsb4qktTKRtFkiFWwPfFn6xIpvPRgZH/
qurDXUsQx7U8b7skB7W05nJDEzSdTRzIKIdmzQ1iiTNp25mLXZ6L03TFtGPAlhhO
fAYiRJP2FNHKzshSoyClWmZK/F28hr9E0e6IoeEEdFOe+RVUx45y/wL5DQeZ8ogx
h5sbo5c1IOuqTzZe7i7he1TMafnXdvIbHiQChNOs4cjbfchEy7/WzTsXrgtno1Pt
Cg885MrifMx3W2WXx+tdcpeTSWxnkE0NV2C+RCxbcjpt2p3VhXJBVSqcLnVZYjtK
wTuUBllJAH7+ZZZWus4PBFROQmsrajHLbd2TY0Hv7yAyN+NQ8lnkMubWxuORoxHh
ho1+yO2qX+pQ6caiVVenKek9zGSiQc9KTOjBYbVrdKTR2NohiS+/3v0aw56sMsmh
p8jyRezQ78p7FXAoaUpo2xHlJiBdS0aNO/g/7nqcqcigB0M3IsKElrJjHNC9hQ4B
XqupkGstBSoYAWm6oGZ87hs/Li8pnjSRwN0GSxrPtrPr0bBi1ZgQCM99C3NuTzXV
a/5Emz7FbiK6yY1gHtKkf842dSBhBr/h9XLaFjTeUzuiI1qUb5KNfN+yUOyQPQXX
LClHtFpk0o4Us1hSAv2IiI9ViAzQcWW8vexMzN35eYTK/zR59IgSYdYyKbdVObuo
1Bh+VpeLVcewixVSbXbKaDOkpk0TRvjV43t7SKPNwFmtlhHL5vPJn1c0kyiviXj0
JR+DGp2j3WXz7NMQWpSm6q2tDF0RY+wzIbyaYK6Z4YJQ1I9b6y60bks4RP0qLSLR
zz1M3wCIcKO3U8xioJ6RvYSnL1OROo5+sBFLjRz1dueIlkSJIm3UsKP85Ku40tnr
FLzvU24pSCm+Q8fkLdbCX1qe66gMK5VTxSInhZugEIbGhFnmAS5KuIbAnUgmP83E
YH7rEafps4jKa+VcyMPp9uBzJ5Bb159GJN98E3lp27n5WIQP0R/C3VtXMHrFYFLX
TGY/U863nGya3/UUsbwRNmkc1EVoPdsjKWzDpyRvnric6fJymguChorHHiQ+ppos
XKAPIaxVeNn8tiEVoLr95FDug06mUcPD+rLyPb6Zjifd3792DIhCtPSYtd8eayS5
ORz1rL3VIykFQQaG3MC9Tm4G3U0rdHdfm/9Zgl/tPPLNxathnYy0RXDCqll04v2/
EmZXNxNRS2JB0v0LD+HXBYRwQnDC6WXt5PM24+H0Judyf1mYQrH6ISkMilJz+/1d
7PaMLLS1Kuz++3vorPNfFOR/lUPrJ77ueI+uovxIkACy94iCWpKVqe8tQ5Qr0vMt
m5RJoY5y2UVotDwSdCaFIbXCPH2BCKSoKBBTAgnD70g7s4K1Stnn5wqbvZrBYz8z
Cu2mpdTMVtzNRhlmtwMhDTe6ctcqYgrhNyKeVxhL9gtFoGwWkMQO42yGGB7c5JQM
HwfBCJ0/mBkhAhcHPZ0ZPgLXmQb447alndVFf9HexOLlv/u+x4h1uighwY81aVP2
3yudQQdTA9fuPs9sH3NCkWkx4EFKiLvYcX/vzMCJ4WDBXXjIGGLgJwCmDvLZxj2N
S6WuWLCgHKfoMH1QiFPhi8pFp6NX7Lv3ykxvqPl0WUJPLUYg0erKy7EnxgbVh6SN
13tMZ4BKrQW6VHDFViSue4RqBRT2jgiysw395JXQwimlhUfHwEQJCvEe1BXLytCb
cihjIjbStrffmiW0nScIpXm2VnJUdlA5StJl39ukUsdYodslyyUkU0rRHWZTeA7Z
lufocuvCHqSwTYkle7HdXBBlsG0KOvm92T7yCOmj+tv+sFrWu6dGS8mUOuckAh2s
vn4zHxo2TEsoMAWXTpt1dusV2QsgMu+rtZiJxZUxEQX+dl0NTUC2ADMCcOCajgWO
n043cX3bqcxHXvfa7nXbipPOkDY1WMs2M15WYDLmQ/3+hx2xzdH57jc5+0THdics
cGx5N8BwXFHa189yXJFSr02abQH/G66rOuJ7jJQ7bWgyIizrTsm5JoJetQRTj2H6
mRFpsn/qM1HDr2VEniQGcDVLC9XMTT1rYIprSdHHppW4q9GR4fVrsFA2NelM1XSz
nNjImwkLwHqs8BqK7z7jSjplkE1KFKy3esszycOXW+wTqYoS7ATni+E6EmnMoukf
gKhSVkvD8WU4UL8LqMiSyjzC377OHALdIV1ZFadfR1RvSUS7SPjDS055/Qx2/Hgq
gkg+IsnykR7XTQm+bCfj5zEeOL3hrmY2aucEboY56GzF0iWjw98km/c3yzVyBSHf
+kqYffTz8DnE9ivslpIP9zQ9sgjKkbiFq9MneRHMcmIUHlGIHM9BlGJzPyPFGr6k
CKojQUxPDXpQYGmAStM0C9EDZ5tP05QHl561k0mzRIKYrYlYsATxVbfg7U0qBZ3y
364v1kq9aUlhuA5NPoyj+RhmydxlBa6aStfRo9Y+KwcGFYwOdljF8v7MnY5iOt6q
eFOo3QRtJ8+kFEY0GxEWts2SGrmbn/Xj0t3VLDnprVSkHUlG9R/5+qf7v3HLtuV+
a2iHNfeKDNILWMQr+v7aYW4lzkudgyUYVtw36bLdgj64gK7UxUJMJLZJW0Q3T2RH
nwoYRzsqfc9O4EPMugSywJQaoxR5vlZTo+Aj5+WE09xBDkxfIZG+UpP9stK7jJB4
wkfn0OSSRDB5d0u8oDRo6/GcmeYxLcrZGa0qNeik49AqX5prHnqG/rNDt8tiPwv3
SSEMDRfbMoq4nh64gXX4xsIGitg9/FYXxl9xKxuaQ1R2Is9OVEJuvS74TMYmekRX
zgtyATWNDaiMpNcYGcJmAjTgKq8BYfTxbA3/5oNLLmGk7yJlYtqkG64HlTimaNlZ
3Vn05gjFs6H7x90tYl7kbwgp0NusWmPNCCR+0qPlFO3oWoFx9OaZYHAiFivy11UQ
nwzpF3kagnaI0LcN/oB4Ywr+qIjNugoEiGhovTqPKULpMKaxUeUsP+Pc7Z0BBrwa
QfSqxtS9G/qF0Ef76R1atYNvOJ0LV0aR+C3vzfT6PJDQ5ZIYdbCWZttI61/8cHtc
sXujgqQkjBR/2QxUY8k4F+KKzxk5i8UM6K8sr9u2WU5DuxgdM/yp7c9rsOOFP2iz
2tlkIf/S4drOMjTLzPGe6hjiXHOJ24c3j1PwCpYtOADYxlg0FZlG/SQQ+kSrxQmc
5aSlJ3HuSQWJCpt5d8tQdqqJ6kICDOEY5U8wWHB9mhRJ7tydAaMxnGUeJXfYm5Pe
3uvZ9FSTrAae+nRS9Jo1POi2hm9z2ufcUGZY47JMJe5iGsfsBTX6p12AqnRg9xYu
ySaufA4PgC48g8zZ7Bv9X7GIiGAaukyI9zTGKMVOovSDPIQmI2k/leQF5ZWhvvga
dqXg5GVxS10KKzIXmlkpnLF4fZw3ztZseymNQVp1aC6NJfx0nWTuaBCuqaxyjHn7
NOGB3BAaALBOCnk/NkcOtatCHFAjKB4p9yrACaA/5D18x3/bn8POuD+9u4vH3HSl
32Vw08T1IYSFp6AoKe0kopCVxsT3XfeWSL7WmUCJ0eZn0/nIOxGpkaPYkJxVOtnR
zzOX28kZKgux57upTmgd6uaF7ZxiYU3hm7vUvOnTl0th4DDK1g6n95uSfIiRZJCn
qkxqAYOhrfblRHSbuLu8QMooje0yjlVNyfK4uUy1pULLDAxHblcCt2ruwpyOwlxq
MDNYnFZ/0VDv1WquZ6vfPr4uwWBtVvR6Rcc0nXwBjT/RFsyrn6FlZVNNcxxzT0XI
VxcDirYF2uaRlV1MxvhRsdmq+//ms2tQG/3Lw09HvNxygOEezVPkgwz5splWEWbC
cLZKIGXEFIY5A1Vy5mf83yLjnOuPc7DijzOE+GgSLvnOEqp3OgID/2AC0TEbhar4
n6Z6MGks5aDpYpeR/JjL4Sbnc2nqSTiozVq0Kq0u9D6ITIBWnDvWWZXzVClF+Dc1
vxlL2AsaLUBUYWaY7kTCj8TNyEezOsX/TzXBhnJFtuBn3rY8HC1wXyKRTJMNT3P1
0dK+M871LqefdKuKyEhzbBjOnzu+0repsvmZMSBA+HRm8BLQ7IAhB0Elc7BSl82j
DLHG55j6r627u3py0ZIRuFcHpfqF+jGzrFHL6awZkoBbBHcPy1rtdt0n85u0q84s
mvPpF/wMdQpuEpvK9Kt+cd9M560+oBOSfoL7cl57b27Sm3hbGcTO8Ynh8rhOrUCp
8g3eyqbEeiR0Go1A6nOJ8ESjLOJUEEaFYTRBVpmOSEsC133lxUgLL2pBj4R4cavt
pEug10YKh2qIpU/fNQvBOEDTNUskbSScWw4pDV+WRTJNJH+bTAXAIqgS7yVukEtL
lZVDS9XrUpFl7FuRdWeZbUr05WcZe3+1/Z3ANmbOoRTho5Zn/7ZHogZUXNMNZFND
KCExSqM75VL7Flcb85bmzeQcj/4yWMu6C7Jcy/opDYkbOEt4N8riHk81C7LexalU
+UwC4h/p4Ack9LLmmJzIP45HHyThvAQoHmbd+R3iZPKc+u1m/dz7mAEQnvFPEu6t
34JsdnHYE8HgDB/HIQoLuamAZwmwjv/VPCA++raQE0A7nZuq02Y3a3wYmzIR1n4p
c/t0jycEoJwnTNWr8J21H/vJekBcKDye2mP0H8rKh5ELuPxkFcJ9g3w3C60tcVQC
9pEExZf7Nsu79PSyaiWJnd+O5VInTuEIBxoe4rQGKK7H6kCTM5eA42GUpcA6/ZKi
ykqVourVwcve3+RgO1i1MQ/NrUiBbQCQo2+TJQB4GBMAdxs25hnNNuaA9HD8/yx7
Kqw0KSn8TgW87MEZMvRAR6xskjRJqqeWySxeg/8EzRwZ+i5THEA5S/K/yFjZ+zUM
bAcJzZMQu0JYlilNca6S/zEqHfPhCx3zjAGWOIDxy5f8f3aOuTVZXLxOcK55Cuzn
fy31/zEty/8yZkiOO549/Ud+6fwXzioFtvI/6qpjDiyq+E8gvxYQLvKu/3cO3frP
g/+vqwNIht4tzD1N2WKGEaKWNmUe6h2gw5Ydp41AMXdQU35PzrOrnmcSEb3VLbuL
w6zPIm+erYeSg4ctqWjLhmoO4boU+/bniRz2UyO7gqWbylFnI7y3zVG8Ii2XsuFe
zMh1UEDWEP27h6LhgPJNPO3PE4AmQpjLJwFb5Ulzym7UdETiuY/OR4E1s5RKIiLG
3jF9NBK/ky5lljFt3Rv+vjBrFEo+n3Xm30jqxra5sJusg7vDD6asQ7+hYm6QDxwq
NvnjViVKMRQQ1OfDPotgfvHCtQIDhwSMByxp4JJ6QjJGHMlaNO1x6wTZR32AK0iG
I6flvs8CV1vkTvzOaO/nM+kTnVtJlaC2VW4/UxO/LSLCJ2xuvl+V+Fmqr7+z883o
+d/ww0OYxa3Re0vnylvDv7CTcqmA6u8ixRM8efjZkx+4yz1T0PEiz+G7AanMUo6u
km2PvR/xH+Ae/LDfC5gwfO1qjcsr9r2jYo5MVdktbAyIkPVgZPY4+LdbOvpBfjnc
t+HpAPHdHvL7rfSvRtmP+SDuBYp7FNkoxMDbCOkLfVOGhixn9R/WwuCH6wbn7NMH
GxX2R1Fn6e3fw/WnLeLHhwL2X60eztGNaS0grxuhYLnGg5a5CXTFc3SIiXBfzHw/
+MDPK4rKveNPZmZGBmbvsyDQs4Gup6/PoDRhkBvbgKZN+/CXp/tF8tDQyl6pbUfG
m/iYmewubCIZOKpkBD0oVzEQBZSsDDxkpxU00uy0G1oV+jbHoIhNwai0f+PM80ZO
t75E8AySllCiO3ih2dl1jCn31fZtZa61FmLcK8AsrJrZU6t4m/xJfWLKT7AIgxUt
Xr6A8qb1I7Wwh6HNtvnC8S+6oVXWNNVISOxnKr9AZQ1UGnqmXwV2dOPj2s2MDeE9
EiY9dHXAaaxiVrexzMUenIC3S9vIEkTnK7mj9y68Ehg7SyvLh7DXtcb7ffa1O51X
cCUishKe7fhIbJnHZATpwJGZwsW7cZ1tywkipCQ/sMMu8KMg3eOV1DfadCTnXtG3
2/4/R4dWoeB5hyjqCIR36acecnlmtWmwzg58tVaVZ//w8hM+bm2n7p5kA/eGVRV+
NWkgbbHSNQTPsuy6ypRWSHFPLUB4lM6mNfsI4/AnbhWGyGFltSt9VM10U5gqAGGK
pMpsDBppEiIXZSko90e1408V1cqf0aGHeNYMp4U5Y3J+ASvQGD3WjhEPqPOb0S/f
7sffo1W8WnICYcRtUCU67kQ3i7vRcIu862pw1eIQ6ctLwZWuPOEm4ppYUYVu+i6x
rv0f3RoVxwRhR0WFbI1wERkSSnUTUOEYfru+arxwcwpy18xG4D9fXf/+40IJ/bZl
nxFWPmz8eWE4bZ67KlWqG/QkiS2zbHdxgN220ukhr8YtAlO88Pt5T0lVx4aEKAj9
O7BOrwiry/ZsGcoYDHbVsX0RRCIxYEbHCzZv/TGWj8+/r//nqrHt/qHq8LBkdhb0
vhx7cZ/Cw6TBQgIsV93tZi4vfH0WYvyUrM34dFPlHcbpkroKvMBxmYy7+gYYOT6a
B6LUn3e1SdGnyBkYlEiuWGtpdKTRpnJGnu5n49VoaPDG1lx206Y+sJGyvr4V0P6V
l3I3viuvqd/eHihEhtCL2+FXJ6A54pPlGW2C5MCZm+TsxAO3enqIURaUZsJNnB1J
dIpt/Peatb46qhtsRf3o4I+otFqxu5Xf6+p8mohcuWf31z00J89yJwYIEOIPJJqr
eT/5P8Ew8bdDmL+u4GETgCvJo90qLtnzKwV3V4GbFxyVWfAahIoa4be8LeEWpMiK
UJ75E/JEShkXWtxDJjfSOP76QPddt1NltNYw5vnvqjpRiNHVOv6SmvHKmAv89t1o
KavzvvCsVYH8U+P+XHfbaxTcifUTtuE2O3TGhMMXnYGPpKboyrG4yP+G1G8X0BpO
2A+TTUjd31yZ/QTKVylC+KJE+bwn9ng0xIBK+Xd0N7ecK/2hQfOdg+t2/BGZy42D
F/mc2yJuoWu6a6GYQqr7LAW7wc4ZjrWqVTuP/SE5LhQjYOeiBOtqCc3VbNM9rlte
+NVNTEKB0jEndMShmUn027sLnzqc3ED4JNmuBSGe0Bx7F58S8866o8wu/R3/XfzS
4zuoKmzeVFek62BAOSv8lS8hoxufBA9WeO4OkerEF47H2wTeShRLF8AOInfpwLdC
8E/uH2Miyd3gujbt3WJOeGmo8kW5vYgONkaCRI7ZayaykXZ3xafNfd5iy7GWVT3j
vtCzI5WeYUdiKSvd7MEYvITh0ewK3e1V1txlLbGLPwKsc4P4LII7xcR4IVH/hP7K
PpEqt3FtxYA6yqoaU9jlOfNqHGqCBxbYuLI9I0TeMSeVUj4UIkVPHeJxSiaYbkJo
pYIifg3cSkWAZ8lnB6dSRcdeJG5a+XJciDmM5/sUkpo+J1kEVVPdrrR24a5rT6oF
d/RGEWdFLqxl7ozM+JZz5yzbgOOsLOPxr7/GpDzn56+Nt+Q/n0VZwICv9yUxYkkf
7CzR4LYumeRqNgs4EWz2BIzprjpsRltPGgY7B2A09MVps1/GkPUHZcsSU2pEPYDC
zeXgB5m9VxzN36NSH+yl3aO8LDMJIEmXaMZqSPAWMfhs1g8I7Ng7OAoGPG9LtwaR
8mUZrQnY1n5b5LYc50y7THU42rI+WHcwE6yV2NW87z+u+Y+YziH8AhsZX2xUModV
34UQDDU1WRGThvf247iKh0ZvJMMdNt6ZP7/WJqtsGhl5d1ky48iOwF7Il+cm/GiN
0HZOWMWmdky6kyYZadu1+BFXYEbL+TifokiBOWbza4Bi/9Yh4UlBDia4mBeT8oS7
MUwrQ1dkP30XbBqzjMMRU6hfPAl++2RXdl8Co4CuwNQf9JKPaiggysDMv0jbZ0Gv
6wm4QASxE44jnxB/a7ZdTbsrw86PxbbZIlOxvdm32Jgm5iw7B8a7sJhNZe+0nvRC
HLBz1V9wrvWyjs/YY1dmeZCmFHhKByUchQypmMpdUyac/nJWlb/5NxPScMDZfqfz
6E37m7UpzeA+8qLiMJDTb3Zh5Pcb7NkvlFymqkMey84KSS7Q4F51sX6aHPZPyjw6
tNoXLwlGY/GOYwJzY9DH1qkoP5yOCfGXO2Nq8uEF6uoHaptXr4xSnWLyZ2l167aa
5vAaWsWqkb50X/H5elEezLCSFV/zotBpsb+BJW2xrzV+imX7C9F8VNLk6hFUbhD5
UKYTb4Emkiak7OwjeWRWI8cQoH3mLMp/YA5IN8oPlx5ppus8FUdjMALobYvOSuib
0+JVdW7qTWADDpogfIQSTfoew6B9E+Z7QBiW5+QPmAvgEs0tniymVc1NOi4ICIwS
y7aDF4mH9Q/3eVM18KHpEeicA0rbFn27v/ztvNz8Av7U8amE2Lz53ho/LgSALxB7
KcVAX7rrWNeJjizUoPYs7uUXHO7YYvq7/FIcH5zZ3BUc8jabfTL2JixOzfour5ZZ
EkAmX3HqTcWeanRjjYdqE1UqN5l05CbQ+4TtWBSFoULY9bVqEl8mgykQgTDOTxfK
haYv5YaFERD6B+xfwnRLnfvgVqjf6kDXnm45KwxZ+lu4rK24vdSjnsQxpCohru6H
MhQl7Zfrh0BN8EoqcY5Hzp+ZB7v/0XfBQRSAZK7FNno/VyGAYvMJV03GrftxKc2s
u7CdTUMthxAGYfmokIHlrn57KqVm1L1jbVt5hPMPpHQQn3gZBSq0lxJLjxnNSaet
1PjgvGXEiqMg1b1b5sluI74oRfjCjXsrtTF8qv0cb2NbCCTubiVmIAd8mJpAd30I
Gwlp2fNJbvetev6umbfKAtpiIuXlAnDcpkUknY+dW9i+tQq/7fcisQWO4NYiJN7f
yL4YjiFFZtRCvpg9Kqk+ZUptYjhEBddsE2gQLNp3n27INpIVcddtXlATPjjt32sm
aenKKy/calsZ0x4p5ewXsqAWgd2jEeseOgt+FLdbDt+rZVdLZds9vAWH2vNVxplT
1EH5j8NPCz12FCmDiSS4X8Re4UU5VPBG0uhc1RFcvZLjhp7mCovGU+vYoYc6T2hP
YbO0AE7Te9kF6/f201Rt5J9h2T3/jNQPniDpLXX+ZXx8p3NhWEV9fnTv2rAJiL1A
ce8ZWtpil3Yw1Lh0V4wWCZED7XwYDWP+3+xugRYTPn29RJ6aP3qsx6DX3/B4g2G6
gkAZHfiMhFJXeNkJafJK2dMXpDQiQZFrGDfjujyJntph0T9zhc7y7jWotxc8KIX1
97uzn+qwzuwI+BkMtQYF6lAKf0d7hbAa/pJbsanwESyTEhraEudrm/P8lSCRIG5M
O93JzsaVuPaaXE2V67MJN4NqnT+4BhhrPYDjPMhs3mqjSJ5ZhQhKZy2Jtw42Z8+D
U304BUxxESnY7FOJPLMRFdiudKLTBHMWVSVYme7bda2ZT6qFaEdwguWABCaKj8lN
+ovJ3jcSI0GfZdTM4jRUPbkAG7entj5VMIGVp1TqQc5H/HQDO0F4FLRXuBig3Yhr
g4m0y9l9EmE5aIWLWil/Xf7QqSxEmlT4Zxci3FhaX8o73XQ7h2Mphmd049mcoP76
xWvFJMFzxnMDDsWOKqB0tNvWuCt/9LbzUPLWseTQ36s9g3QbmZsxBp7rV0SPlNSe
ZEjo0IbEjdT+mrSNlPiB1qmGqBxviXLv6nWITgnic50O0xVdP5ay3+IMPrFZNpl8
rmUoH63Lb2bFahDnw3h+0PrHeQnzD4vM7FbH2tdUkWuPZ5wPeQE+ugVZdmM7teMq
xz7km63V1Mi7a4Qi55opFU2Ykqy2nQF8I5TEbAD9ot5/2zv5N0yj2nVsj3wyqWIn
bR8co+K2S5Rac/pQCglC5sh42K+xCEwy2Ca+3e5P1RkmRH6Kp99keNZKRSayzB/X
rkjp11GqG8mS0fJs7GHsA148mTmdEIbtIkEjWEJWIwJFGcatMgm70OzIGlMogRww
HWLkOO7QrFbyKD6RMQSIDWlzdZht4cDEz/f5fhA/zpl+VwiDFd6QH+Ux1ZxQrOhQ
1vgyp6zGAScOUFer5ne2NgehSR899iS7Iu+BGyBQjttpEO/tsufkPv4KYzmJotrs
9XXyZIXrTQxiqaDP6xoq0kdx/iqeI767lj5T0AXWAEWOYLq81P0TtlK58y4em2mO
CZJcHsdDWok9a42jLXPfPiHV/nMjXUo4UWN+Lsa7+2u7OwCKL5IQzuk17rmw3Th7
yd7h1oHgmsCWRGhUW4yGqYvmFQnUNDOMp7SuItWgAkF7irF4g4zXNzZyp8rhaRl+
NNUe2cyTmRBZOfOEtAQ7PXpcfZb6nTPSEoG5Ap5oPu6+cQQpY98RWFHtHqydleyD
otivOHPGqPl1YMWIhViEqFqixW+UB4HhjYBSy11SkD1HEyw1wuRDbrNL0PSmaxkC
XZonH+WgpFJZKUpEWgxCcAiMfQQ/TA7ZYcemyhIidJhHTpsGkJBesssjsX3hP8fc
s0Ram2jXZR8Vzxc26oZxRxnYKljztXtYuo7itxlmZrsckdB2Qwnuz7NZHHJM14lP
sNUSYZXGImyZKkoITMJPYM/boEiS2kdwagakDTm7A3VPhfyVFrYcfDTngaCbpwBF
Z/t+wxait831buf3RJS2JCz85G3kH9bEf+RcOS59zXduRyAu4GU+e6c3BBCC0Oly
EorTSzkJiBX3E6UQH6hcdjAx5iL1LviqEwOEXB0vXu2F/b5tfbKvI6TIkoWUW8UJ
UyVpFaCzmjGfTgNx0i089QT4gq6kJQZheMiAh8XhFclzt7CDM1UjlbFQVT5e56cQ
TiqIAG6K3DqxWVSAdOdasGJvKCeWLH+JrMEqo6iFm39jsswIaFERa0NGumbJgzui
tmv9YQwPOqJK/cYAJWSMcM+/M5YYZAXwZ1u3dzc8b+dlqGbq7/Ji0fd/yzROuIsJ
lfSRNsTk7wyOZ/odI4ZaJYa84giY33gUweKbF41oy2jdkFWlh2x/QL5VUaNrYWNd
kfLMdswHok0yZy9yJgLo5/AKvEhlU6cVwX75RvIJKFVQXA0z7vgfcJWIeoV/gBLw
MLFj/1PUX1BM3e1JV7Bi+mLKKWzpmtkMxkvfTTcyu5oiDdKNBAB75MtKsVpH5VB0
2vornhlgwfivPZK2BuVgeGGWtY5FR/oGdvHzJG1rYdCDb2TUkBJ14swx9gpws5zB
rHT+DSrrRhIZE7aycuO9xggTocDPwa7MqoplubrV8TgYZOrbPdNb8IfPKnYT24af
MxCBfQwtUorgq9kgftlKsvfDWWuEoMSWoeSUheT07lOFf+JhAQoybFKXgv7Z+lml
3cQ8TB9z9Th1DpKKKeQTNB2K9chfoVo2K0DBzWI4htZlZTBYmQbwLrFacYh2Jsj/
km6MQ3k846ytYa/hRlIPHtDuu/NjiObm5kC8fED5HwXmGJsLowThU9s9tW3btm3b
tm3btu23tm3z1HZ7v/t3k81kks1knp1goZHUoqduGqUoVRSmn9UEES9/T1a5CYoK
z+IQpS/2zF80nUhUCABrh7VX1fz7ZDU5cGsmnEwyLZFA/jUb07Y9umJy8NF4hqo8
XI2D+ZJmEZVXinJq85BMwyMTEIzbiISnuhLWPxFPFoBIjD/aCbl9XjL5n2aGBT9T
DTnMyUaaqf+lQblO9nIEUQcCums5R07Ai2SC2bzi7F+SoGQXxzhsGF02S6rmCTYh
YY2gbh1zOSBJm70OPm1AIZ9wO9xPcI640+ZI1cmUbDkT6okku5khlYQc0QLudaV7
0cK0i0dR2HdDOKGx1DyrWuHMZtCIR7RNlrU4b4l1/HnsJmo92BQe8simgbXiR6PB
jNjFAeEVLSNHLM3QpDuG4SYeep1DN8VVn0DIPz3LD5L88ecB1dxGAm/+axDTCFo6
bZCQml+3jtRbXPuMJV6IeozTkC6poI5+thLaLEo/gYBkpQ03t9RgZUPzpZu8kTk7
xuhv/w0t/n5Ko+Q0Cp0at67ylhxIRZPA1QAiN9AXzFVphLfX9FP9IcEgWPIgZBVs
8E7aoqYHOiZqyHaFZJJNM8lFH9ys8zlQVzlW+XsJ4W4GGyQ11eRsZ0l7bznaWBk+
5oNTAjC7f6jTFt88DVhpUCqDnEl+sI5V+ovLP0LJUOhDXs6mhp6hceyrL9CJxyyv
7PFEbnJto7PyrtbQIYOUEITHSpxeaGS4eK+KxwgwersVjx4fOO6oMAqhj/RGGa6j
jSK6kp3JU34ucQqrUEuyGnSFrUWviu3maor/HviybHzVSuChZsPeuOTgk4wh73eO
gj+u435f6JCyublbO9yBcWUt3W8tpJF8Qhpk6DIpuRWveJJjNL3YSy/edCxnNkO8
Rg9RXKMJj/fBYlu9H67uNDWivIBpls9fcKrTQhjJWdjTmeIFfey5TRoHeSRc20A8
xXHGLXl6UrQPCbE56H1Tk/sMtGyOZ9zt4ysYvA6sm7hccyQ7/ZBsU2t7rDdpI7bq
g5uyBO+wgOElfvEPK1bQ1dDwnTDis/FYy9SX7T3QarZoiq7Jb4/hT/q38ZyUL6yg
1MT+IMWxkRMRkTHncgPrf1luzHoeQPMDsGlaG3mULUurMIhnLLliekGZGXgu7xss
Sj4h5WckCTlADzSXGXc5cZAIcNuOG4kIrzR2RvIJVXKzp1IP2w+Hix+Uj6aGNHvN
zGKIx9e/EMURvQz9hovdZgDH72+CWq25qeys1EJ+mxlRkHIyY9YRkI+zvUP2q2a1
Rw6HuAsIzGnonSXaTf3iick3rE64LqSXLXgOuFgrKQP3gmrlGGSNKyvQsQRaAMuV
cbGdSS3yzOlJc1gwzBAGCXp6cglTmt43ilnTbzer8UI6S/iVlX/rNUkH/5jsuHu8
9cDSsjpVV6geithmYibdm89S8Q5ajFsFKGV17eGn1s3HaQMv0l3qJzOzs+PJbzXA
SkOcVkmoRtt3MbO1P2tzr8tr0y/9d7zaeptdKzDGh+mdvYGlhINcslTNDIuqMyUv
teYDkMMbxrBGb4za2PSTjVkTuXMHo8GUF84BjZJ51umtLUF4MePQceAEoO8SxI7d
rq89WFE+0Dm5Cx35rfdyzlFrVPOVVvqlZevOVwDYWN3oENWibF6xzRc+7Z4cqzr+
2V+vxaNhMQ3W45BmHG4DScwvNR4llOpH99oXz7HI5y8GqM3icJ5sBPtQHmaYwqzZ
cxMSNx9ca7+z28YzI7MR78p7i6eKpGUddNBGozw7UH872QSSYHsEBOnsXCbsmjT6
0wrsV9a550hR0OVzngDQ55HZOGXoyIdpxPHhFIfXQhd4TRAg1H8HpTlIswExBlVG
hHO1BdguY1l/knsxJ/Q0wEffQ3edgxCLyvYaHdHHTI73kR25B6E21/1ZyccvQA+U
jvpOsQJTPSGg/8ZZcjMbF8UcDouMNxkXi6WRI8UgWoT2xdOFTGbquNlZS+1oyaQH
ODvTOCuluiPOdXWf8HBdt8G9z9n0BQYRxemeSOqglIdhCqFOmMMfJd8WsXLhFdxT
2Cyr/4tNDRX3HDz24qDjyUMJ82UYxoySC4mUZ8yyeNAYGSeCDSIm2nVPfjV0prSh
qaVBkh88ekf+kL9f31ydE4e4rOHg0ske1lcjBgcAHMRstnzwJ7OwcRhlWjSip6hj
w/W5OnJy2PG+v33+YCtdTeERlpvlemloFuym9dVQ/7W+vcKxs/3+W+3Q4v409ZPG
umNrTrpNoLWOJfVVrOkzcxbH4ML1zyAi3BiTSOBsQQq3+AurmjAKytgTchS2buFt
RlJcZWFgblB/su8rVGzJAxE4CF0tK58xyXLZO9hMaixui1wsE0v/p2ZmPEIOAYEN
/uUlruaPEKaP3k8ivTdDF4Z5/84lsliB40r1J3c9out2DJ0PIluaOhpeHc0qAFUl
DLxQ844iktVzmZo45MB7wsf6uo7DItj+OgWwnYKGUkhfctGgPIJLtUvgMDlpqVEE
u7jcr1I1hgVHr+pDCRQnZqX/nITI5qgxcyqVzFEjrt8hntxmPjesPGLkHbJ8ynPu
K1fBzNx8v2QYJhTxeds9VBK/lwelkTwv7hz6YtV4gcDIL4TWjULJ2gWUgxWH50B4
FshtxZTnJQF7tsaRuVrYzIvEU/NLx8bJuUGve0wphjSaVFHz+8m5xJgwOg6dFzJI
1mqdiKVAoYnsPrm7uABlf3dDx/MlRb5dq/OtiMiD7VaaL7buMb4297B2e1Y4DqIn
toxwjShb1qmU30+hPglSd3kY6DLAzt0qI3E/MDn4cAYMFF0o3eBl1a7SYoMk7P5+
4PSM1032Qkob74pwKDDDzPxpUDx6NnxM7hV+uKogKaFs6PxeXXfX1C0ARb2KX4co
pWGx3ZcPy0dgQKOtP+fIf4RyALFmWDxCOMOTs/Bnh61gSIRV+DDrSTynAIiVNNk9
IwbukCMGApZWOuDnI7geYCbtlFwTLy9Mo+prail523lC3yFpsPJoZH1UX2te78Ye
M3Ai+QmrJsCij7288OYCzuOuWmgUa0XFU2yI5L6iQVLSuWjxr0GPKf0zBczrIP7M
Q4v7Ot5a8bWKkVMSKfYsohTaEuGtwt1S5Ao5t5ff6EO/df5apPgP0jcSHLfB5QjG
1LhwgdwnBZx/0DxgT/iBiUGV6KlNEn1AuSLjxJGDfSxLuwh4XSDpm8UyRJXWYMcb
s9L471uWvpbC5Fuz+sDNdHStKwk9Fbb52oLPa8h4HP+ReTr+5x1tVubAWfsqV4ov
f40+DZMhA2mysxw4YWRS0bzIoMARjQ7TlFukTVARvGL1VPM9ooa/WdhGUSdns0YZ
OGR/ruy6WUPm6At4Y0RD70E1CaMj93wUI8sgoKh2mp4kt6z0hD74AfgRUTy3apv8
LwIr9ttyezFLI/FppJ8RUD0rSMZzIQBp9YJJX8eSDeDSIXWvLS8I75EAde6yHXrS
gpXxJ7IaiZSc5Nh+NEMJJe8usb/c2UQ2GLsQw235Sa4UKiQeAwWlWuGX63KGTwKf
RKlg+LjAFD9eSUdgVDzO4c4Ckr7+5b3g2OeTJw+GrH/2sdpaqbioqpxKQIE1mnXj
i0SMi9UY+ALLwJetmFHSnCGgR7GnQT7myfVWIcqzH7I9YCQ1dCR1tLg+wOlV7xoA
7FxoVR3DHvFXlgCUfPTCSPGUBu54kFnun9zNFfu+aBMLKkdLhMsO30eNNpW5mTnN
0PSEuojDtAbQ0TpjuBa3PU3wpuDvc72/KJ3ZB9CYdUYtfSbJtaBYzdOixDjVP0UC
PK3K0WqHsPRK8NmucRFhNMGwyeCz69Ux2iKGpsbqdTe4B4YXhviPdwMFvGXIpeuW
cU3q4scS4kxB2V1DtNeMikwaH9S/IqG4cYRXZbE+cw9mFPLveajvJbIX1t+uZssE
wcUMw8jSLychTCZgbF3h4X+/mhtfm1pdHRSAdovEce7MH0yrO+2vSIxFZpDpQp2r
YZNRXhj30QhbxG07dbVeO8Z/BvBCbrJrvUfv4pSpNU9YsYEmtxOFxGWtRnBZG3M7
ZZT+/U1AfwvOdNq8z4siOEJIJANzd/IrxLFsIKN2rh+azSAFIVFYfOEyhVMM1Xmy
CWOT2SXMKyqzDWqq6zLO8VK9WPxL3etu6IIViBRso8T0vDks8k9NYo5TGyT7Y7gi
W1QYM5Rswir843HlSyK7DGeBdD3VLFhuZa3zNApXe5msgEqIj+3R3BcAY0P0YIvC
EKYuBO2dBtwVWgEF5IKF1fkogZCU0NaCGdFmAl8qbTHDUFRrJaQMHrQo5Oo4GNup
4yxDjEQnAkVDw7H9aGphO8AYXfCFTf18kvoxVL/oosxAJs2EyUzPS4Qc5qyls+by
okTsZO87luC9unaNk2kEhTECKXiikJtxnbFhJfRINQHuF7F1lKhjmKnrUxYnzQHS
cGsQDG0m1MQEE6lWIL5sL2SB42DxZzNcRpluxyIJDLzJp2oaykycaYRNspsXD+v8
sF989HfGGWteQ5tqYyxhcGQ6UMsI+Zxp+08v2s96mf9qXPwvX67Mkzxi+FBzYvOS
HCuv8CbMWAmGUapFL5m0UeilXpdQ3YLlK5kvgxuba/xt2os+rk0qXJJrlZn8B/qh
R6O/5oLalK/FEmjzmwsDnps8nXXcEZymRNO6guWw6tF1rCGJE7ZZgPFA6mSOos6i
/qcZ/2zscpOYngGV8T5ho3mmn7Fng7LxaCfGGXAt2GnXppGmMJkLsqP08nBP2ZAU
ndCXCA/YkCKuvldJ2H9nURvRCRYKPxFjJApoNYKgWhjuYDVo2+D3/4sWu/cXWuEF
y2T/S4etgbEF2R/z9U9gQg2vim6/EmP2Nt+Qnd5qnXk6XPKomi0hyQ5lbclHXCR5
PqESJlyhRmq0p9i26lxfzhrSuYndsVBBAycabknm4oGhtfNnAbId7sFeU3Eopytv
NlaUTqo24FNxUN3v0PuVQ9ZL5J5SczoLpksV/Y2HrwMNCtUbWVUTR3eWKZ514SKq
ahvUDBmEH8Xr4sWD9CZXI2RQCOKlDMuyT3asI9IP+kyKYi2WYWgi4KNV+QKRZREG
7aAZb4rmYEA6kewqTODEUlAVK06F9WWT5mr+GIJhlHpc1/CvWE2vtlUdDWsfTq1F
PCwCjwUIkRNvjlOXXZmI66/mTP1BFlPiD1MbplSzswWx8XN/DsgVnjQ2bD4OCML2
jy4Q80reA26lZSnRwlFUPWhXaGglEOCOMPo6XS0Nz+fUcNomslBQ2l06661dJ3pS
bGq50QvzrOCc+sIyuCxozMydRYoMgH1jYAXkGIW1eUv20HRbejL2ayws4rHH+UMz
tQnGXAVkOjnU5coYV/G3cycbNjxJFPlQ+gsUIiFde7VnSu3KzXPkK0LAiJoZuRmu
vcLLJBjTqi0rjs7b0U5xbo/yX3lk2U+kJXlwnWQ3s/9mZjkt+JlCdou6K8yV9kh3
+43dBI2bnp3AdkJkTboUC3iQGTaY/FGlN+N9EKYgZyWrd+xXxKlivJz+2WLNHw/s
c+PkuNGtgFDIhfhJLWT1URpEnxj5Q8M1E/xUjLW7B6NqQgMoNWDWFAsdnS40aYxc
A6AqvpuX6gi48pTkk0RmoE6mU4K87f6IF45wJ7Lk6Mgn4kD6oH1vqqnLB8BKhEAl
NN0/31gSh/HftpYWFtZfY2dDzPc9NHwafovl++7GbQ29r7zfa+2vzschnqD9EvNh
kEGix3vtF+yaUNU+N1uq/obJTPw98EDIVPy5+FmIx6G3Xh5wIIhGEEpndRuhYPjE
d8dPGqhbt+BM40NLruGLfXdsMQOqrL4tuPx5fVY2fg7/en7FmKFPX/7836TH+Jn3
KMj9zcc9nen839Pg27Nf7Xx/76B6YaAXkzm+vvt8TQTMfuC2TYQzrFTPVMAMwqmQ
9zkg/8P/+d0eED7Et2C/R/brXPxD4P6TnvZv5v/7X4kaCZPcYJNNiIsITZiSvo6S
Br3i+2ONza9f3LLf/Fdf1bzeqaXACeO/jWe/A0o/P+X+gPxf+4dyxTB/Wbo3sE/Q
6nhRRJYpw9Hz23B8P8ig0KZhtpqTStG2EqmlNxw9EmiJhmTTzkMiq0j90PQwkmWG
4EKY3P5T68MlM7iJ4Mzg2ueZdO03d3Prb4dqaPGjof5o4y3puWAduVMDcEsFm5TH
TYqfgNOD/eBhFxxOElqIgSTsrGIPk4Qisop3n3t4p1XwKdNnn0YjSXJ3yCCIJ9Wi
hqFe6RKjAeFP5CL1cW02d7eoYzSVF0XMVTWablRBHtpE7np+W1yDvupCj0mXaYIO
4tfVy8+ys/yInt0v9RBGru9nCISypd8n8vRfX6RzIp0Pv59f0rf8V3x/VVI3z9rv
8MPf0FHkY/7oGYjYUrHHAZD934/DB/evX9qfaWGi62sXDTgEcchNo+RlAQL6ziNO
pbLX0NIDP8QZBlj3GGgYT52kgdI37zS2SSJMPhk5sXEbFD5hjwkJmea2T1u150Y/
TeOfgmeMCNXJ+rDRZkeMbocG5D9NzAj1piS6HbDnYGNWqfuys++6NpF51VUe/j7b
wiQRdtw3xE+Qz9HsF5jiBtAcRaBe9BjXVhjuG6sj26oz0DHFUguQxDhVh/U4DZzK
LE5gMGbnI62sXP3NJojmQkcWBSPJjvXIBC2Tl9fF6N71cYPPO/qDa5cQEJfd4oCa
MDLE7CzGhcEcBC8FjfnzcEV/Fyjt6HRtCGz6iq+Ppevc62J9hivzLfFu7fDwg+be
YAfebX1+js1dj9ZmP8QbANf6Hve2kFtHRmvbwN/LMb2jhBf3Q6QgjCUV/8IdpTMg
tl0sZM4F01pQFcr0NXspxEakRld91su2yWFJpqoQBQzNXgOz7iAeB9XBUvEDRR/4
ywpfuVZpBT6x59BQL1KfrBJiVN9OvNVsuGEnnQr+ipB6+DXLn9fT4H251xKUfIlh
3RnZN6IO4796/FTuLi8kHcEhYuQVhXtmULX/7ityZ8CBcttbWVv9BnIEGBdgnpC3
gc7z1pdK4nO/nLlfgQHcE5xICqdwRNAe9sEFvmIcN3oJvvhpx/oSnlQKlYfimBDs
x6inNs8SKzqVK0HxSrasbxJ7YfcWPFdnXfatUdxacHydiRuSplN55eU7cmA3n/eW
QRi07dg46muvDS4s1yZi1t2zCCx7nm79S2OfmcVP4S4rEU1HDUMZq88ml3pHYHBo
Q2Oszg9a+W3321Pufp/8YT/KFBv1ud8LD4ARM175X1p6tvS+Jf+9iB9vwiqOiR7n
aUVQlg4OFHnwoYoFKUZDdUNr7Z9PQVFgBpnigpTdYjO96omxe9O3KvYQAgNnjObk
lXjc90R3kKOy9Ig+yJWvL+kLUR1Y/WCTErc+8BWJGVSkOLDmXtprCVkfwncJWh9M
MEm47biIEmh9OXEjSf78lKcDNFlfUqukypbVx9ri4tr8+BdBGSsXkt9ceREyRQil
6ksJiSWW66GPKeGEimXZyzsL5+KVInIUY32+9KIDSy34e3bfaO8WDeWolEmK/pRa
YodS8mAqrTDakqRNkYFynZO1urtL5Jw3KsgfDMXwLxX4X24en94+eRNQgO4CvulW
QuE0UrzVUPl4YidqpHQmGbtvQa1SOw7ekbR1IeYiCGtoZLWzNCC9bZTF7mMUd4pq
3qEHYYcpkalMqH1uYGr7TAB8WzVooj6dMFlq524Mf+jUiPOLnHUP7hdnlT8nZ/nS
tMfPYpfPM2jvZotf2FPyWUBuwxTx0ioSacOSciN+lwkUuxZ3XF5hMARN6+xs4c9c
Am2bGCGe9pvtZM7Syvqg0kEoO9K601Bn9qXU2ENZKDVJT/jTZq2iC8/1Z4SClBW0
x3We6EUmbsDrD57//kO+2rUOp5XWb4p5pu/f3csl31CxqIhbnK3D1orqNevlTxt3
t/oV8vVSNldBXJa36k0rS20HQD/+Z57tTs/ahlQcA502OKm3jhrIrH+sooEFSnEG
lw2tZ3LY2Dc2S62+/WIDUfnRW8uUnsN9wWUxedhawiTHvyTHQ3eur724n1cZ5l+N
D0BjR8fV06/0PBhLWnoWQt/S797wz9gUnhRqBvOdmdMFDle/clw+xgHOFmifS5eg
8/UNTlj9fzk26QfiXncAW3cEdaMAox9aA3h0rfjg1g+tACiLLKHLPrexfOfSk17c
+hCK+p+5gfKefp2A/jcpPKt8WUOBhxj4+RjVX8u3D40fYv3uRPtqcXXo6G2Pdv9w
poWE17e5vpqntrYp96NQkfCrBYuIOt/tIn83OiRdbNeifYO6mPmeDIQbayIDrAK/
IbZtW98maoFCjfKh6QSm15vqtwmk1YAhP6VLbdN6pk5dMdo+mF64P06YpABXZv62
tXX6tfR1+jZ0/ySpSUYQK4tNpZOqiuMgbuXTGmAZ6pNqS0VAtltsTmch6d3Loon0
2qU4uTG1mGzR1i8DO1oWvuowKMSLsZTyr013o4nd+u6fte6f6D9jaq7dcz4GvZSG
p/N+CEKcM95rDYyC79rY1IANN+NcXzva/+esYEkacC/lpzgyU2tu0dnV2dze2Ncs
es3nx3w5dzRD41sCkvx9Q08Y1QMlA1P7nHv9PIQmECG9+SzYyOrSjrYukhTfS5M0
EOZdbk8SBQdYzGc5jO1N/9zi1u7ZxnaBU9l6ArlOu9i73onNVc/W/to6bRy2/7w0
/8YExdoQx9r0fjd6DIB+g06dZxwNRCsYvGkWNwuKrIDGFwpFeNXDtbHZSPv/R2qK
U5Rix/OFcJ5JZVfZToGwmqff/nXp2wslIBixq5NM8WtuaYntleBzaEpeXs4hTr7g
1NBzRJbAQXcxkpNOhnvd+yO9NrZYGGi0GNeLR2cK9tKO/h58VP4n+JebmafnDpwi
3i7C4wV8Iv+aoZTRv+CJbF2Df/DOomLXqsiilo1fApGzffNaRXyMlw5uIxzttR04
n60dIX69/s+G1uxFne+V5sWbnshVj2YpZj85Lw6JLIsc//217B2QZOL1WjcpCleU
H5VISm/d8s6FY4XH9qdJSFE8UByGjWyS6cGZJhyfHivFrlV4fR7v1o/npcPIJ+Zi
3qoFlIVWqxutJpQZBrijiQUB/6Gp/C6VVgGKiijO0RgZqFObj0EcasOwW20Y4Jw/
spl6vHE6w+GQlIGzcGwX2khfdU0P1661pVZWQuWPrrVOgVckJKlZlbt3Irviz245
EMSpd4sQsQoFLQSzy5SK/GC3dcbChyCnDcLYUwqlUzvJeV2MUVuuXl3hBJihuacg
k7t0VMC5cZJtPhseIddglZK+Ktsf65rloX8Jt2CDZT5rSJOUwNOpkg624RupJfXu
0lLAKdYgJFR27iVYQUZ7tAMqbTinf/gMgrn0vvvngzEB70ugcddYnQMicS80dAle
AkEe1ZS4rUaTZkK1FBOha6O8es0mK/OPlxmlvDhzi8757dx+bPavaraHXatHuHE3
yyGRcGPgvuPelJ0qHhmlTa1YA6AJxztc3MHHV1YoZAclrxMyIWrwgYUr5IkVLCJE
yRE0EocwxEN0wxnIJ3swcKOZscRxa8SYWDoGcv6kubfPuB6PwTMMC8rTiAn1M+vU
eWOV4gFY4AIR6laCxNXqHbgTyrTXPa7Eyq+ywpKqrgTOrQIQHUa+ooJ+GxCInIG/
ovvhxbFDYz6rQIc0hiGatuiof+CBBInRs53Tx3CK3nZoMZ+087RTQ1B0Bli0cYGj
fP+VXaHDkPd1KYsCcHolWjuAh+vqqvzTmOQ61lqcFlfwCWhwDNVe7pTb8sCOmyn/
4hZs5eHeOeOyP6Qm6Oe4gPg723Xg61snMqvcXau3N3wsm7JOy/bt9vjNW+2bLI2x
PH716uax8pIIY6t+3+jSAaDFTbhPbQDu0mXF3e7yx9DTcAK72T8XNXI71Fz5WEnR
CPSFVEY/EYR4r4ncdltFsLJhmHCIrBxJHvBdbkHtwf1l3gWXH12c+pzGvcT1GSkd
YvczK557pX0736OvyY2Ck/Njgnk0PUmb2vcXJ0JY3MKqcpR5hC3fkwMUXKRUwJE+
wX/862UK+80ChvABuDouu3VE8SE7PgT1GLV3f/3RR0456R0cuQXbm5Ht7JEDW941
dRcUL+bbLMS3spe6oGaTXZa7jxmIqcN2O8UxjvESPV8jMoT7UeK8kNduFkrnToTq
lRDXGUipC3sW1Goc4rzOMpFFuSW3FyEtxA2F8BGqN2NsGTM0Ucx5yehl5OLqdEq/
48jcnOEyxjOqm9vIDk8dzaJV7P2xOYwxfo23cUdfiPBIJelTWUhpGitmhCTTOy1I
u+kp4Ixf7IVvelVpmMaCaL9znBywENn0Yhg7w1OrEnMsPO8zUdeyOWrvkbGBosRr
VG/TWtS57EiRIFM6HSpY1bbpPMK7ef4OXYr4DuO6culC8eeLImqpMIYIqy1Nwogb
IUq5I9fLEOFzkdexhjt4fRPlVDHThc+QH/iQ+/Hv4aOQVnC85//CbgU3cHVUFYVX
3UFLhbLhQkWs+9sD+JH65Jx6F7o3L275fnNNH07S0PqoGvjMqTHt5g54n5VRqrTF
ZMg1YllHmndubngcIUZjlGeZh//QFFGHv6Nl0s2FUBjza4rrNey/HIcohIToszrE
KY9iVv8JjyMTUckqz1oRPSQH8hEkP0xoyJ6RlOEl3mIqR0Y5ZJT1ujX+K4EQNuEo
b2H70hjYgSL0LtMU33omXqvfBr+2LaHetH1xfJhJ5YZ0Ha1NW6pOn9NXR9Hc3a62
5d/Y/hnNz/I4gs1hD2zkRlmYGwagW07DU0WzmoIxVdhxu2hIG5f+CRRmNny3DZFV
ePFej46mK89WCStd4yV/Uhssw9Mr4yfkw/VJEzNFwYAszCXlN7J1t788++4NLk7d
9+/7mUMX/2588Z+CeRbb/bkdeHD/jbc3/W2HW4Ew4t9aby1iZv7U13K48r7uft9z
fwTcnvrvbWYeD5P8wm6kzZ2LRhAx35LT7EfgCQc0abMNFXPxcK3vlirqLvU5eMgv
B9kdKlO1uVv9c8fLb4dIzwss7KGwLWsBCh9yI93GzU8fMt5dRQbsy3tom/hoWDyb
V45OCJ58OchIq68rLZbvjI+AtksyCWxdjIxjS82NM5xnug80SEV3+3eO1gMiI5dP
TYw5RgdXEMnwskxyxAK6FMw0q4dhTYFGWmY3rGp58YJwZp7lfLM1OwneuszytPG5
omATJwSLjqTJ8exeIwBjmvMNu8j16cmnJYWx+OXhLyQHOViX3eFbB+CQe/cSswVv
VBBXSouJBlu9LBMRHewx9IXpnapeCw77tWj/os0wPMjuL0zLwImlM5coRYmbLDjv
FANCNq5Pd6eer3WtNl4rmQhoHB14EVf7O57kM6vGlcfj8YahMeReDj4n3vY9Kt6X
XGBot09kHS3iFpGfLnzy7fI97DnwrzEOHGL1Z02yR1rNzDkvbHkejNAeIc8Jpv9R
LGpqSj5jPpS5cucTemY/cVULvLJ8Pju8rszGgZaVcyMegsUFnMfnhbElDRewAKfl
euWGxeM7oyx2Mral+k0epJoTi4R4HO7Za2GVLEVy9m67q4NPyjQTDCisLdQUps3W
G/uhAVb9h0ROd5fPTJACoxIhj30SniGz46wmLQrophh8iVh2LmT7ddIO0G19lgPH
azRNhsKxk3nE/+W4eQRFc/tw97ZzGk3BmQbJMkmC7or3OtoAxssOktK3GyNEhzul
jKpmscoZQYinlqYDZ/VURNU3T6t9cwdTpwzjHEedr+N0wa3pdqJbWfzeSoc+DYV7
v1D7tkDwq1wapVTqbSYNXyuXEcDdzI/dhqekzm/b9S8mLVsgqsGrC67KBQxhCX6G
VLPpEIeWWaDTMZftneP4Tm7Mc6zWESLG9yqATnqOGXqvTkVxeq0bJwQ1HhgdR4Yy
Tbm7b8l6/GF/bzXbvhpfANHPZGO/43e/U8+j7j+/+pO/W9+/wuu/tzhf7vA//n8h
7D2N0zVvI7sptFn8HReUxQItQRs4ckBzPUA9D6Adzi65G85hseO2eCeSeJUKMpLd
j1LbQnXZ7QK4Gp6v84PvZv9MHBTNxw2kMdUk+iE9CIzpDeLKiqYgOfE/9PRgivHg
vKDghbZN0sNGw8Sz+Bna+12KbxARdZOGXn940EvfJj5n+gfBDy2todQaEJpshtAd
/XjntkEQ0nuiYAjpoAiBeknP4mkKuTqCoADHa0dYxHhf3FSnUVTy5q14cy85fG9r
1Rm3E3wNwFocjQC52PHLYCKspzcbpvmWoS/7kP84fMfoX9stgesSpzBN7EQDN74t
5n9N+Xp+ppZI1b3H0A631nVjZr0TpPWg75Nf9CEhRSUvduB4iEHEW9MkzyTVw66w
OPml+2A7jWH85bOh7MZkycb55bVzViFffahyEJdwn/17WiLkoggXgTtsW0aTuWGq
lfcCZqsq7fd2xzAuBXoCJq30JK0WBqwxFTD8H6HGrmXfvCmyR7kw+abHjZH/Nerm
SxGmFaGfPN3f2LTV3smDwqwYfP0Z/aEfvVanugjI1a4Y5zAap/WtFOeySYeBZ8Uo
du7K1RAo0FxNEIBEpj5laiyEfEdvnUtg0kNf5bLA7w1ovRHsmD9ui2Oi8VQfch7o
Sy3T407eRPwl/abSvdriD5dHYHd+n36P4rNtP1NaiF7UZL/QZHEsoqMNCBK/c/o2
L5Mu6fuDPVAk7Sya7pCvLOich6/jz/DAU587oJeshaQ0oXGOJDqCGa5/g2szY+wT
3Rr6AJqsb3UPqjXqAMJRaNJ373ZtA9jm47LppfjEqDS50fRI+DzTNvswGeTX7WZE
ebZLvwpv6GxJGdBpE1cOGjsQAxhWp+kWt7Uis8GJiGhk5ebXhmQ+HMQbEn/dNija
04VRH6iSTvGVSG7aZ0+O7IHPOlsih/Q7vXLEfSZb043to3PEIfacpbMxK36m6e0P
za7amY303uRvG+001Z6oz/jmro9NwLW0krWt027Mfc6h27wYS/pmVOE80SKhH2Ih
pcn4VESN251GtGoAGQB8uydmUyrVu0TyLxp+jXEQ6Ifay05xilclOWvHPVW2J3ac
qJ1bOdOg+yToInbxs2rKYsJJRUu3QXKcmFMkqhrSyvhIDtSYZI5SE8jj3LZRuxcl
htNQ1ErgyWRsCgJVhtlEa6YvCsoYFztGfDYqREUp63JXE2SYY1ldrMTGlfukIOnD
1bdTGnJ+/FAtjVV2R7yCc/pMGK4WYRyMcfocUhjiz6xbRdsNt5ApS85Fj81yEd33
ZMZAqPW1lVH5+B23eGRYY+dmCLjfIm9ufNsg0XvtMaS5AMb9SXN3Z6iwFyvKaRkQ
POp7zzIfW4HPOEtIWEmBnE6y+ZurlOVZwTEXaTbjHcjMi0nzMeKJCHf9wkgnkReC
Xrv4ZMUh79SSjWGPSYRZHYy38Gdv8GcXF8+Gf1v4ZyFCM+ANNXCsa3XooGMMuJ6l
so/2sEivHC/C9sequh2dc/yrTLH/WtDZNDGQhL57yEpA652Y+4g59HlLDpJvJyCF
qfWbDg0Pax+An/ns6CwjuQBlLW+QRZEx8OEPvYKhTlMEU/D4qVVkIJmTmsujrEYN
/mMQ966zt2vLU4oFpO0XqwmahwwtMaVg+Nr20/9eGVhLU+E4xUYGYVGLBSSePteF
GtVMGoHf5L3sh/I5jsjoJMlXq8c31HQP+e+CNpgh8M9m8N88p9DRaWwp3E1U4gno
LAbSOFoSycp6F205qkVKdP+FUp+E88wnkoUPt+FtjECwxGcqVk7E6oYw0ocm+xML
Gr9uwXcl0gxXKPMcSUdXNnbZwtVroZ/zaIIOM3UBzn8KXQ3W60el8SBv5axZlV4f
kIV9m882upWsH3hlAdOmnJL61qulEDg1bq4ZOyh6t8yT3wpsrP+RjKLHmJI6lITg
kkaWS6iAwtoHGc3xc+G+FWJpsnAaNgpWHNb7Vq95BKw+DmP5D0WBW/KBDgdhMD18
rp09dn5D+edMFnaaDWPkc/RjYfWxN1g/w9bYi80YbP/jV41R5/YNp2sXLtR85JN2
bFo5Ts93rx4tJH0Rv7rzTesHjusae28SxbCC6qAXQVSxyqH1xQiO5EQPpVzgOoNB
d3xn1xLzvixKotZTCL8Ow6XzX155jlmrfQac6qA2DKjelRAKtCbLls2qCSg+9Sh+
SmQYx/MTlqZSO3g2yoY8iEIhEx43dm26dnj45Vw7/AlFlApQ/tt0TvzB08BmmDFf
bVXyGUh/iw09339EVgFlcyR7JfL1ys7w6bGKuzjrlEZzWLspg0ehkLHr4CYFbpQi
NIdUg1aA+tyNHj9DL7hzEgMEjg/sMYpgzCiQwQDdmMrMBptXGlg5A04kMFIfW2zj
/gQib3CaUXCqq1iK3zkrzqHxB1XM7Nal/to2HtiOD5jPg/R61mcyi3Q9KVM3cSmR
fWLinmBUasQ+vKwONgprcXruJHs6Pcfs6oGLjYM3G1eD2V/ApegiyhKTbvrFO4xo
04/amiHpls+YrYh1Qf6S5yOhlawQZMIhgr8MNM1iO7xQZptS+2DUqm/5e8wwmc7r
L1rVdHNyy8VsNF2vTEPVWdImWLcBC0+doX8a2iqNo/RSK+Q6wh87WM2cOnCX0Mq6
ELFIMho9VZrCVoolFz067ArDV4GB4Pih2uDnnTNtcJVv0oakJVVH1d7vJzM7hvbM
IM8ZH+gelJHHJjT+U5HeWYW9n+folHkOYjYxdVqVxjwNidC756PVSmkhfoFEStSB
9D6bCQLjFamM4n9IjT8x0GSHO+wPrPY4Jext2TWTE9I3+mpfHbUhudqdyLOzc2nU
KBDKBwfJh7u6RRtcjMtfhwMwhqfvjsCxjvpgIi9ahuJjiZvpmcUX+kvIGSRToek9
Abd1LQ1LoGGiOm3kINMNC7AH+EzpU6AJmCEJleOwXIG6jZ4byPE20KB+4wTfBRbP
zb9+d/Vx0xQu4hweYWtWYNl82tzyZlOnQsfbNzU8Shil2URMMHmFRnZNoD0VMYj1
WRZlmjEiYU4Y4qC6aW5/ncaAuxcyRRN0YGu8YiTSBXl4osErA64oObb9MmC5GVGt
ZTiQDZ6Lfi4ygm0l0h5aYJpRLqiO7zSR24emdRg1inMAKm//GAw+lj5mq2kZPVnJ
YKf7sNo2yTrY2a3Bec3Q4NZ2EIzYoU047uHUD6B1Q5lfb+UVSl6K6KtCQP45oNrF
RzeXjAWyibGMLvO7MeEXSxB4wWEDM+55lLxFzkO2yqWQyezkzg5gtQHiRvYU3xtv
LGo6+zvYWowY7C3dxUM2i4BwmDFPBzdiNS2bkN2sXfYr8e3VW7ioecXX/8x+mzIa
gOd57B5sj27/Oy4H9y/622gSowTfxJc3Yx7nl//eI/s5YIPFVRR2u1de1owz8v25
3fVkFc5m2Ghth8wbFdTTBTmqRIRhFiqAaS547L4fMRix2eryGdgtlpF/N4BUYByx
MN1DvY7WKDaKwSt86sOI11/DqJO28mV8Q9rONCcwDBPMbrZFig0KECC7qfBtwGPm
Qw+pHsX546/JxOTFn9HQ/e00xRDYP/PPagS/iSSYIXg5MNUkPaazZuKmEElMqqzC
VqBhMWZM/UlcKSdU2MDwHK5VV38lUiW/5IiNCYRsSP9iyT7OnTBmEf/g8GP8dWTZ
8ET7LjwTtzybAmHcAb7Fn1kKUYY6P3MtFZFF0E9OIHEMBLtPu7udJ2ae1FscQvsS
m76NrfFdfwNyE9qFSq7tSKYguEaKOAO2J28PdMHIZHFlW+Da0fUGy1RLbKIAWcwW
68KRCYv0rBqFCA1FbvOoEtfDWVzkc+SabhqoiQ/Wr8YK4OMpRexiVY9mtr7ESXro
ypljMZ/Aw62QPwKPrmXUHADvQFzN16g4O0RumNy69ROu6HK1zyHO0rPIoUIxzgFp
d81Xd29UZp4p6zxIFuWY7yRnqnPYwtQr1P44kCLayh+KskRVtWxPfCUWTNGVpN5q
IFll2KyzTCs0qwxTr4uLndPH1BgAWCTwnyqSq7QfwaWvKKHJVyLQjQUqGRbAk5Fh
Vn+1P9z9nexVHRq1Z9X6XlrA3LN4Ug5WyriUBy2O2rGhhm15jS7H4tD8Uu0lIycP
WZh8IZrRD2G/sRp1NQ5+kX8xTh9P7HZiNZz4wyCPFy6qDdegYBKrtHJRqiYrQa3+
8WP8HaSeD4bHnFxQCHHNdZcxTMKsD8c32IAhZmbXas0eCL+E/X1f5v+3JgPrtV7z
gtpwJGkaxd0sb4pcCDX6FoZ29mhBc1ETSnZQ54A25ipRArpVBEp4vbfZtZNxmCFC
yY60zPI80q56fiA3f0MoUDP6NyIJzGn9UTBaEtgXIjh7rG3Rtw51NlyWeiD5IW9b
rZV4w7Qt/IuLh6FxhuVP+xBmnZw32n2tTDZ0vdeXdNk2Cp05OgzKI2iKExov5j15
ORZB30Y38AZiouiUGvhKq7fhA5gUfQgZQ90vmubuJCoGbP27M+2/nBAl/wUSdLyt
vYf1JzGcUZC3YS8+pklhU8sf4OYYYKsr6MSlFp1Qv+gwWDBD1wXSMBLt3+JCHnc2
LWxvbm4WgTTjBfBuduowHGSLHFd9M1NhV/vc3HbL+/P0bxlvDzoruNt6y8uT3ZvV
Ba5LFFnnU1XB6NMl1tibPq9O14beg9ZKe+isZfq1Fo+W78V8RjyYzcHLy9PqLlr/
vo8qi76PiywxhDb411c3hG+kLHWw2Cz5NZauvuajVnF56lG+4woB2jMWp7sZJE4t
D1g6sCDGQQiGwWQGDS8JZuCNbcTK9sGF0FM0jXsbVRuflXEXCRvhYR21FOary5EO
/kF3TFrZsrN8/59M75/jzp6soZfIxEFnCf9WXg8C8xNKGwdb/iYos19f94wnzZgz
YMUdYNVtqW2dEB4yjraatA/o7SKnPuZNa9BOY+fJm/NFyViGgXbuy+45faSM2Xdn
OJdk00HMRmoNXY+nJ+V4/qZuAx8LM9nmZp9IWab3gsTjWHLeqTuPjUyPIxVfUsJP
qKGYAQbBGvojYCRu7A0FyXgVBf9BIbuqe7U/bnWDAD6fNwFAP6STv/PygJ7+IDp0
fK2aE81qiGZtVi3mHJw5Bc8ZmAxeqeOtyeKC7lVje9zwy2Jzshqxlnw63/0Mc0Mr
DNtOycY7QNoH2jiOxhkh+fU+AfdOCf32Jio3FeUn9cUVPcgJasxGV7km0mFSj9GM
STk8RXnDJ9bwWoSDUTLLLT4R52wRB11AlFCp44PEp3bFa4Zs/ECsEY4pKLJZXwJL
t2wVvCv7Hv7lijbHNPSFNTpaJfG53JopcMJAZHbasU133TQujdEAn/L2tOG+83m6
SZtiS6cqXGWlg7czmRiLbj37uLaNgfPFuik8xuDVd/nakJ6qwRY3X2gEAD9UH3E9
nFPGeIQISizOyP+8FuKLSYIMtk1Y5oUIJgZFLifsgArNo8q/i1bgQEWWsWUx3llQ
AXa+9f15QkPT8BneaFy78DaoSr/GMpYLbvlrKaUlav3XCrioecVguM7YiDo9UmVD
crgJvaqfASsSF+fzcrb0LmBSxz8pou5v7DI6Fmex9BGfzXWEsKh4rXMHaoFOJ8Pa
nsM2PoNPcweW/NK07Vt2qrq15JeyiSlxWuKDaxRmrJ/KZ6CPAlyyHO5Dmf5hixGC
iknxVoSkLDsr+oFM2ZLkNTtX7yDCPrgh77RGkbJKBh9yOzA75DshD0o2dhOB7kpa
qRpMobb2xRuGLNxC/cb87QH3z/WRv0nS0lfiPX8WjLR0dOcbPsL5vfdXvH3qL7bk
d8C8ZbUvAJPV8gfv4dG7P+EWSPjHFEh4884suQJD7yvSLsn7mbdm/OkNaQ/E+ysa
pO0n0VDIDmf3yN/4Dq4GV/ffPItjgJIvpA7UpmpsVyHAqWP/ZFW6oRZUabKZ2Bfi
HASPjpu/VLeDobL4zXHar9thLIxl2VTMwLh7OWYuaNfRPYUIoNQdxYbpTbnXn8bF
lIIGkUwAfOIuEoG42jgYfBdr0Mdd5ucu832T8bHD+HzJXfaPJFPYKlc8GKoVyn/i
86vS9Ll8pScwT6edduBwlF1KuuJvrn4JqRrYM/VUBEqCOhn78R3ed6p9YTwCGK2y
8cuU7RCVBUoEGfFLtA33GZjkg9q5CKxBYSNX4w3rkjHCG5PwKmEm3rDamNvA4GAT
bfxpac694RRcmUMt1qjJfhSTTQ2ayaELaELyCD54IibOAVJ19iMM17d2IJnC238h
VlaXJ7F7deBkrzHLyVK9djTPCr5e81/FrcYYaGcGRZQx2vk7/daa0m0TyM30sBgZ
iOjuchNzdl5INnXPkZL5uepJ8TucURX5U8zCyUzEtrJb/mTOEpGhFwwN0sjsw3Tj
PDFhgnJiwxgXqdilPhscrJNBJhEGl0xYP2Xqqz87qMJpjWV8lthIiAoN/dPRK51s
1kB/bVJ76fxxT2k2a/Vby02dXy2Pem3iQ6v7+1mVp+4U66tR3FehYRLMEZyyxhoc
0Zj+QAfhK48vMCsvYCNGXJqH1AdvjAq3srqtwyZKy/Pii3+zl09BfINpAeM+ebx2
ufn6RVfmB+jyN/4kD35zbMKstUljjMcoNTJt0tNIjUxV95V+nD78/dPdWy1/28F/
8qUFRtgvXpPHhNHTj2FodB4FwL3JW1bN9bD7xuT5Xfl6TUyM+cDk+H1LdowXs+Wa
NeoicplSHowhcUmO6gPTn4mym2jTOAaYnYHG8w7wtk1U86zrVK9j6jcRyKgjar3U
mPh3SHXd/Xw0W+dd9iix4BRPsROe1ts4rFC/mas/qGsftk+27mBGcAOJOgbBXm3I
mYfLAWKZRE9vl3I5mPCwXOW10wa0vWz8OA6iD0wU8hrq0OXdPDzFKR19CSiKBgwy
HO5EJXdjttfwZQLEzHxTh8T1gpqmwmc4yx4FEeU4zPrPgTk1jvTIS7nGTH0CSVL2
IIXnkHUu9Bwa0ftIZGmW6CVONEYAiO5Yq6NEdkeIdAJyQz/PF9Xm4Vu/r+0rg8Bx
EbRvaffI077WCEzt71BnF2kF2dAIX9loO868RX/3Nr3DVsLsDWhRXPq7a9dDglaT
Hz8064fwIt6T60pA0DHrrqBdvsu/TSJwFyJ8835N+OmcNILJmRAcbmT963Jex9VA
GSdp8LdGqmm7shtTHuAHKgx2NdHnXWoGjLu++Wxw9pOtjt8gTQuR/iXdSwAGtQNg
hvG7cCriZ8L+rDjnRC83K7i/AsD8mXWZW65ifKUCcaEqp6vcBTwME3ES/94uH0uQ
KoLpVe6odGQreQusWWjyyEH8rNZtpZ3eTG/g4CORV5hmdwVdH44y9SW9jOBKm2Iw
ocQlYeZP+Zzgk0FQtvOAV8XVXZnB8+Nb/hVfoLsfjnCiyzoMr6QdKMB1M15lzIQz
/rCSTC1+N6vTEGcfrh416N2bvh5rZ9Pv3kDYrvZh0I+p7tYV2Nt6A4/mMFafX4/Z
VJ2eZeyuvTLbznemCxndZKGWbAZKaaK0+PM1mjpK0xjlhakdwYim3FYPJo9NzUdl
S4XlSwA+lSB51JgkPCq4ujoDs8HCnLz3iDmH3s5/9k7zEfbSqZudCZpN4/+kseGU
QrvvJ22qPnHTdgYyessyGQFY6DSafeXjDoMKHPatT//UU5YnO0bOxN1hc4zb6A3/
Zp5NPiC9ll90nrI8RrkP7QDinYUL0HIF/351dQITFkzROVj78Z50UO+AfXvDvOyO
tWPEy181LostFd3loHIL0dIfCdPivgR8LAhsqOJVaoYrl2qaxwxRPnJhbiRe2Lge
FkuFTP8Bg5yJQ8b4hq74mGE6SRt/3HpjBVwCKNWnW6nsJHOrr0hyeF4S547/wLZ1
7vzpUBu5PloBoRBwer191SQww5/ROvPxXjlXRV28kwAWHZDrwTEpVfmxJ+IsaLwA
TJVYk9lsiHsE1SUQ09HAcHxbqdbiyjRUuCFwwcyXriarjq+Rj34/4zvYBU0vSvDU
pTjp0O+MQ7GSlWIOrIi4ownx3iDRgoe+TbwiuxlokgwNqu/mEjw5BiBJCx0HQK67
cvXO3OX16a8MEnXSpOBvCE/DaDDJVouc7T6R0mqDj7zsO1MGIEK1EEOTZf5EwZQS
IJ/8lK5zdwyb3tQ86pieu70Uogx3PX+ksM992UhP8mjNceFFg+7+2q39EaaiiA4d
fONbQma4O24VVNPTNvK0GUdW1x9WoOnQ7W2TUA5FWCOP3dLg39706LzVnOCOpYqv
+hBxJMxagYifSBM8xigTDLZPK5JXCN0QUy9nm+/pCixbE3jxzk5r3GmRACf2xMlS
dZV5KvFBV2f/nLWQScv4xsigkubCRYmL30XkRUPRepKpPlibpFItjgZjwHDdycTI
fy60wM0R5ZEa3LxneI78ZVOryY7DNE+zAJoK+dNC76s30KXFP2XW5sOs3kd5ko2J
MBGGfkGG8nPz47vG9G1Xd1rqqNS6M00yVZyuqmdtjfyLb/aL6Tq7tOTG8hH8CGBH
w6Ohkz3217fxa//9EnvJ5454BGmGF0JGEdwHkPt82gHed/weYa7Y5TfJ3FUaG81e
WCUIjAffW537/DWxalGyDcVdUenXXslxYPT7NkvXTqohJJd4+OM/8jNLL2Gm39oQ
XvuWo+jXhtkZD41joVq83g70YOYk6t/DvRFocdHHEObmEYbp9Y7CX72mF0m9Zvi/
HA5G1+mNLmgeBEaKyMy2qFCQr4MQq0VkmTKLlmEZpJZKdmJZiCDqoc4MHRsJv3AJ
vkRh6XCmu4IIvpwS1iTFEKFIIqaZaXi8+hoZzZ0XKUYg+9DFMER6+h27RM/szzOb
7mzVU26Hj8kT4QtUj6f/5RD2VhvGkdoY9t/0b4w74M4NwBcbsHkohXqZolZrgx5+
VAwA5LnyopjHFEDSQw4FKuxnUep2uYjHIw70x4GaaADZvzrw1bErW7jfMaa3py+E
KV31nUKatu1kCsEyIXIYwmVXyyn7V2CJQ1HFYZIlSUEGBu8cp0UkRGE9R04UGxr4
oBfIZUo7hm91ih0K5Q5lUU4b00C/5jhpSk55orYt9fBHbGSVdm2nw4kNRDVlixrA
Yo/kJcGNRSO5n48/zlDsHa3W25OfxedDJg2MuZw/ebCeN5G4BBb4Tl/mYqwYoVos
gzFrzBCcA4tRwO0N4VIda1zr21s77yOULhsiJZsU/55ai/jNqIuPRDwliDHRaisv
c7ONC8rUqA/yDUmhYCBPphNAZqGj3wVSoHysIP8Mvfjx87zg6eLWPRjrPSXzQidv
Hg6B3v/B2HC2ODU8FAIwg1QB98rJCds+L/l/VToppgj8lXRj3zzMG/DvanGBdLiJ
MH71LWB9UyqwQkK8nNeX9mRrbiVFmRVwE4p3HBu1WfTrYjO6bq0IQ/CXZIIyYKY6
+BnYVbwMGMczbhN9tL3Gt/lt8WtRhQICdqW/w9/8PbDSYWuM5nKcRQjzliFWRn73
fdbzGq8ydFve4OSYHgxe9EBJbwRYkMbJR7OdIjbydttY0YJwT/9gtBllFtcKwtnz
KWJnJFIG+TB4dkWDFxeuTOsB5PtWauj5J8S0c+7juIYSnmYFHXUTBJZ66y0TCaLJ
xnOpXDPx+3kX+M0uLX1pYFqH3vpbVBl9PRl34+CQJ6nEv3NzJ/CU6YcrcI+/x5Z5
/ZmaK/9ly2tet79/DQtYIGFg7gxWL4tlx8ohjfj4+MlI14J71dgzpKi7m8RAbKiI
WiL+dc8qoeWMiTyp4UssOyD8cfp+ZxMnpfia5/Lp7QMAWjkdVeIejoqRGFa1kVwY
MnlG447ixV3BQWc6S3zVutpUrI6ohnQD3qGtJjat/g2onnmnZIU1w1BA/7iIvs33
GAsrcpbrdCg+Lc4h6GTBMHE6nv68xTJ9e0Mufz0d8WSe2z5tnvvBrmZEXIXd+Yom
XDm1Ijqpe0q3028wCFpzeg0ZniSi50+AqWcjXyVw447ediO+m1CAxmWr6kM1BXLJ
OgxcBFJ1iirX9GChQnw8sem2MkNqyXZjTKcwYXPxyhG7m2xanwyByYGOf2rxboKX
u10A++v1SpClmVP/j+JyiK6EUWBwbdu27alt27Y1te1b27Zt23Y7te2+/22SbRY5
OV9csilJzhfbe4ga2wjqrskFdBV4EyKlTmzVA/I+iQP1fXCEBIkUH/LiEJ9TIj8O
6ryQ09jBI6P4v4XB8gyP0a0C3XiiP8rogO4Pp6ViuCUNQn41CpfTEF0/p8szAN6/
fvpAivmcPUEi4QtPYPH647mn3IvxHZZz9pDpetnbYIjEGhTIBtyAFEnSxvJZfhWN
8ZjtH59OoYSUig/CmZpvdlc4jUv/szll0rJfrULCvWeBvUPE4zsafXbi1mEXDQP1
yxbxntb6pz+Kc7+NbwLqSL/heb//zH2Ff7sUDX78fvoSfzx0bvsVM3zGsXyb8z2K
uYY8/DEfNqyUaueRBN5q0X9q0Xtr1NeHLadb48WvSt83D7hwN53QS6XUe7Htr65/
G3s+u8XR8lL0Hkh2ZQN9QK+ZcboiQbRE2iTDdMvj7bYxHmlswcSE/NINEuprthjb
4hHEPHgL1K/d5rqKljUq9Quo6FHOPHUUE6DS283/6U+3iyWo/t5ZVvSuW7ofbmOS
ShWi5LQvVDPyay+2XwzC/utcmQ/qkZlo0uVV4JKguLbUcm+0hGN81YbUEbALlhej
uy3TgTTakZ99hyCS0mJ5QpFEfVUov/ZhYsnVwxqAWGR3ATM8pljsz2VYIlJrLHXt
jygLkLO8fy4vJW5IjzAXDtgIPLbpYUyFi+Lb8/4x3VnuTI6VgK6GPFl09C1quTe2
OaqrGbr+hV0rfyz/I0uTzR7bQZeIIj4OGmlimjz7FaWREIu0rxiCpg4qhWLTPAsF
+DtnyHn/Lup9H97+h+OvacICRKMYzaQf9bJvpnpLSpxGqkgZyYj95KIVBpDXDzrM
nVHVSBis/luFxlaXhKTsprZlay4KVXj0jER0fCohGyF9z6RFUy6Vzu+d7O8bkrzE
ZnIx8cCqesYBDNq8ydmcuAtSKgNbVTNvtwl7dAQ6Of5Y5dlR+0GIY2wJCYJIliCF
mlPi/etRaIx4Nato3gkaR2oHag1DQf4GYUJtBdZq0QPws8y2IC8BSqootHj0DVra
v5GHQ197ZlAnK4SqdPB03e5ItWks13XleEIFDFEJy22QHkBx9UfggD5+L1e7GG3z
4ZBSKz0jl+abtYXD6/uMzlE00ZbmmbCaRQNQF7DbhlnCagAN6wOh8PM65pKPtjry
6F4iWKXeDAT13R82bCM2DiYZHHPO4ZiVA2heDnCu1Aim5Rn5eHUISb+DcsYZexAy
rsBPGHRWOg8qwQvz9Fy0GIG6zsMhYx++BYdSZJUJmzE1TudZoWU39e4OU3mKKRi1
XZMDnFfaTInty0M5RmfO0iOimqsgSfaGSYqtGWg2h5XuvAZTL8S/wKXuTuUwl4PD
uu+2OuLW3Mx8Tkgcdo6HBVWbTKSCnhlSB9XAEfjyTCEnOeJ7c19ZCjjuUQkQHYFW
MMn2AkU6D5i7uJMpSn16EfhTes42ext3/iKfDvDjP+GPv7Gho8XfHi4dPzm/v+Jf
v1PdxHi1+SSlv13Mbx6t/ylXTnqZNUr2U1OcXEm7+OuF0aIInW/rxcCpEuY9b4xF
eSMMxDFfHpVQW8BMdLq7gHTsQUq6iRPohUDEgL/hmcZo8KopWlus8ecf+/Oy0Wx5
b8Xz3LNl2dTS8rTGvDSjHY/WPJSFniUvI9uU8HvozmmKCSENikCo8JNi+xyB7hDv
Z7ekzWOB3wzfa2iRGJ9hDPfuGO/w9lZpTu89W1oG8Qro17XXIk/rBwT3WbF6aLNS
E1ogIqpj8hkyPuAIHGNy2l/LHp7tw/wunoDsNwrCBG7AX8qjP/kHYXwTsbD72wRP
o9Q/JmnaUo1BcA5r0Z7TSVGfdXfWYaRzZzE9/LrzehVqUWFlYGNvWyZLUVHJk2IF
sX+Bss0iun4L8ueuFG27rZegLTqcaBTirtNxw9EqMBEEixA+O9ZiwvS/Zun3Uq0V
EYIeGIpcB2Q7n0tY8sLjfJ8AY2daj0yBTeSpIsE/un7pctgeHsUspbqFjdnPfXlj
FWCoHHkW2zFbITaq0Ahots3uJncNap0L3GzwBieUKBVmrAQsEGFJiKBvMq/ZVAFT
WGw/2eHhLNsUl4uJ67SEbyiE6ishWbDQuOVKjPTrDtWEC9QLIxLDpMNCjdALmlQW
AYIOIlCjhhWkJBUmYBHlcWe/Yz3aNBRAZT5GMcui3D4ygBp3Xt3CP5RFa6yAezAO
lURC1Y+1PXW5gdrXTrP2Ah8fIwdTx6ewtspDaID18tDHdwj9S1D1AMhWSOMQPiUl
SYJSlu6QtdMkI4BNethN66roc/uCciLflQtnEXp47+IgoRt2DFROpubSSnmlQ7YS
lUS/Dy9668+4Cp7ZjD+3p5GYHa/yUgpc13FJ6mEkaYe8u4isrtsqI3oYhF0LGaTb
35Z6lIP6y0o5vaiZnrTLrS6mw98rtXGFEpcZXV2IAmlPgJZ7bU7pmvE+eMUXqfrA
CdeIs6xB0EtaTaBssEL+jAdXB8P1FqOskcWBqUS3avj9mfhY6HyrjuBJ9Jmhp0wU
KP/NMw3D5bVo1kiLuYUSZBJmicUMFFTfNA4Yq079jyZ6i3inuxnF6opa78QgTjuP
6WmKTFlQO0gpnMhQhAjVmqPLZ8AUCoYAa4WwHI1Fh8QKdphZ+ZiSNpjH+K1bVgem
SOhEa4pBuu1lW2Anrde+t5ONxze1M9MN3qQ2zBIShw0syt0kMiFDMoimoMfsuiDD
iNhcPlkFHcCFinv9NSF90aWqtoz02g046d+Z24h3SwTFfIPdXtgFp2qy/mG9JN0E
rsg7CvzYXBbuRymeJ1gmcaY+izxNxItdQ1mnv6RQH7SMp52X5LAN41a2XsHEITph
ngymHxYSuSCz2Ofn/VH9eY9nR0+Xh2BdHh8CoabxQ3MaHiq3IVXm/II3kKVActAw
4eM3jRbud0dtymodi4RRcQZA+RilYxLQBrud2zmY4jhkODEtnaZNnzXespIZs6hP
g0DvgBginktPMxh5YxuHwy+h5L+MEwIjAp5F0Cn5cvItmx7ZuWv993LJugYjreUV
xD2gkyDYdXWxlgniTSTdJnHlAaAmp8/vfz9VWjBoFH5VlmX36aREjLiKfHNaWaOT
c2XoXAwA1Zt5frdybjanVPqsJF9F9qcBg7lzDSUU7vuey7ArjV0p5OcnfvPXZy2j
kR8LN2tIDxR9/YZBU1N8Ex+za8ztiuqOMmOUKXpdXZnUN85g4HxWf8hiyqB1UQ6z
4smRUgp1CfvMPb4X2P1p+pb4D2cKOpisft93fj6zNvzlUT1TMXSx6m7Nc/ee/+wF
/26zvcWfmh8/YdErftOTIrxe8VUIUtATrr0E/5iywG0SCbAyFb9NaR4lWoPBmG80
bmCw/gUn7zEWkhdk/DxEb3w938D4xvYWr6CRy5Xl4ZLZ+zIU4GTR3vn3X1b+khrv
A8/1TtSVCGjetP3zNIZh+a7/CsqBJfcVOEtWXMPQ+wM1gu434ii79KLlhmMLwf2P
O7xISL+9lmph2LYlS4HNf8AKRHaacAWEBLisWKws9MeQZVMHHPezS4zjTGIrnl0P
TjsM0aHFVWynTO61xkTAnJ5eDlpGB3P5xpNwR/4bVyaTHReA7S8FVgh4l3rrebuu
KJ+d1SpBVgbgQz3el6ySGyEUAuMix4bYTgQGwp2TxO1mZCu6l9GYb/yKUS+ULfrn
1EkA6Uv80vNZnpz3jYxA7p33+WN/j41VBkB17/6c8pK/5aB8yUPLI/ZZXgnUxiRw
WSE95PR+pC1qhIomf7cf+NopFDTAQFdMYPABn7a4rqJPtlYrrKhp25ID8GaObKzK
FmRrpy9ioSpjz2ssnpkNcsYvNGmqHuvIm34ej/2Zyg7ePv09v25HIKPf3xCnpmRi
b5/2OAt/OTzToNdeO0WZmBZ7Iqk3PAL3PVjueLE9pyz3setuQJgNlKhuhZ3wAZir
ZAw3fadghh4+iXsys+U0JAJbIWDFAHdYM09dN48yt6epn1Ujd+Nv/alQ+ryI7ZwS
zjpiNv9d/97843iH44hGhyXPYncBcpM8tUQqTxdXe+7F1a22LD0Q8kGJWtdIflSo
LxM8VL231eVsk0GXRRiZYO6FAHbwPR17s1oOznAFxiRYHlk8p4XNh9LVbWqKQ4yK
kmr/Y57ngfBbEuzSe2lJSotPCwuNutQvPCrkDkuvVArwMNTPx9pYE3qCoTv6CG82
iQZ3tWCqe6b8pVwQdsMzbJxyH3T0S1YiklB3NAo+LjuqS028cYARRQPvNX/K2box
nm6sgVS25ZCAJnDQ5G+zTyl9vOGy8SpO4NKUM4G+zXWqHS8m9X7mye379WBIfj6v
1e9fPpjIzpMqRODMnLxixki2fNHkpD3SafF1Ry6jpUj7snXFmCjNo4575gaJogb2
ucZcIqXPnLcPUDJdDHw6aw9J753Hcz0O57QnsQi0ska/WYLsBj8piWz+9Vhpqnes
vxGsfzvCr525bZ7gssa3C2HxBfK0vM3I+XT44rf7wqLfxhFKQAwk3Urgu5JnPTNk
zmz1pfQ5VeoxnxU0YLFuh2pIgb8jubz5bcggiFHJu1lRw86AganxUx+0y9NVKymA
k1M5uLxSJ1G03aHj/3WJTgcrAs1x4FIoI787acLisOLPmRvf629dTIuqXHbNWUx1
GI62YRW2cnYx24A4BNkyudt9HzZdgvyKnXe1s2IP+GivO2N2sHnEPaZQjp638cJj
390JoQcfX70TLLOZy8/UZsxUMzZDRuFUoQ3og9tztCFCCYXBHy+LBjnKNUeCHy0n
cFh4Wrnvbs2/a6lM+ewa7L3R+h6sdUSxZw7YbpxMTVHScCpZfjuZs2zK6VngMhD+
nUvIXUiuDTHnorjN7cI8SwOL9AjtkdzJaNyQMSW5uLuZPfj5WIDlsV1AktLswhfd
ypd50QsFNZcYswpKxm6k5TDmdGoOSVD4Ap7+oc4p+/2E/SpLTqtB2fStZMLSqHbL
ERBDAHMastocrtGQUwPRkRkXXwoaLujFGXWpoObkqnZdnNoJyVyS5f0tsMw5lzJR
tmGGRcngfQw/dDm0+KHFq6AL1anl05/bnUIYgFyjB5rRvc3MvvYQ7za9qnGg7l20
phDK7+BtdfdvVJ/9j8UsHfC0P1Y/yzUSZaT9WiA7oqP0bX6UMElXUVLpEvgIUQPK
pqWlrN/vJR8vW1IEwol9DkOX+4Azn5r0tpEKkBuK+BMrtuE5IsmnMUGyKLUG1fAM
4kQ5yiifmSHpSLr9qfUrx22RbTxJUmgDahPNIZyWCeOVCaMveP5Kuq42X90VGCt2
DbGy8iN8L8m/JN96jSu9Tva9Nf/1IN1iuRld0lC5NVurJnxbzZv7HsNWze3Bputd
QAvmzIiZELQMHjrxYo0uFnHxCI5purOev8jIGtCJJBk3fgW6TQDL5NGv2jzj/9Cu
mE/6Q717U8uztaV7/tKPf7pSGK+yamW2usPTocf+meYUzd4Wvta4U34X1TPPncn1
+77QMaNPf3Zw4Z4CN3XdYrC3tR80I/loqA99vcnpyXcDkqR+FQaslV/5OWxpykos
mhZzIyUm1fTTyyv7kX2RMrQKZPaFL12ANSjs5Iwn1c8ULMQ1TLfYW/9ZrU1vZhsG
WwtM6CSixGT+a1zktMA78OEXsEajqtB+JVVZxWRltwSX4U0em0SIw0kL+6SrNx6j
HFbG4/zVYp5/qyeaVjHQROGlXERByv9wIXIEYOEwMyowp2qKOdiC2+LGTOdDc80K
kJcWmaElW4jPXqJreVz9WJ7FxpumDVKdwtZPXXNeoVdpI6qYO9ZO5yun4eZQBQfO
Vft5cxP9NGnWi5hm5//zGPaz6nkye/60X/PEcVrLO4a0noLkJh4fiXV0LzCKzPur
8legTCOsQuLgWu5lIoXoZ3zPlJS93MHeC9VIULE+YA3IpEsgiWgXiW4J1GJwcOtu
DLrs+O7H94OI3hrHYkIye/FBe8yc5kEHXsFsNkNvFsyUkco8p23nRKj+kbp9FFww
mIEp0TEQzV6cHl8KagRYBviTDkchndCVBA4juCEh7RqOXc1ghWzfxZGBS+GFogqU
AywUkOIZGUODlCrV3+pWnki6yhMdTTwWfEdOcRjvj+c9+9GG1AAGQR+tCp6EtncE
7QALJU9DwZTfYSKt+1+wTT+fLv88Vg3uTBHF+hl2Dwf+p8WGIhqqqKwRvz6KHxX/
r4KoJWHJT8SWX+3MmN+v/J99768yh4dTeS7JzM4pMG5cqV9fPrzQug+9QZEjFx73
NLCUlkBxkuKjBtB+plsni0NQvT1AZ/9lc4DHoEYPMdP7CdOJ7I6A+/HYppW/bnRn
i4ux++HsGzQtelo5iNo7jfUQr4GEjedpFRX8Ldo5XHSpl07OQQ6jGvbuu3DsQc4W
NRzzKaMG1u47ii/xSq/e22nVcmg6kkPRQSpvdbMwleEOP78AA5QdQ3HSdIo2U3F+
EVpoxDHUoLCkeeQ4r1BwxtJN1j5DL9sg74EXRaG0NxYuyzwxUCXwZ41rr7tDL4Lz
HegNcgAwC/FMSW+6VIqBfBQxJ+1ChSGYK6fBWKONbGgGVK45h9Jk1uQ/IWByeymu
ebIWpl9OCrTTvyznfAJfOLNf7g7ufrv4yLxgSN3Tauvr+45l6vT4Kbl5Pby/oC6+
ltczWV2Wof57OYg2LTjIipHH92a0XLF4OrliFQrdeB7OQmafYK7EU0Qpd4bVd65c
N5QH8YwkUHars0Xmm9U5pOPAq796dtu36ntiQ/o8eHkjLfJfIZkExGqMgVsJ/5jw
UMt3yE+2S3UuRRSHdrezubCW/lIgi3Thz6ZuXRsJOhDOIKfnkEQwtXQuHrh5P5Uu
d76W+nj0PpcyO/DoKKhQ4VrBejslW1MQLE/PK7Db7zuUBvLg3EFOugchD3GopSwi
yp1LLOrx/PZ3/7XcpcviRJzOIn803+jWYnNInc4CfzRf6LbK5IQ9kRv6v7s9lhIX
cabhkc7bl4lgzdPjzg9ufejSqFgtcHP9y0EcOv06kasQt5vpPe+j/tau4/+IJTi5
DfPYZRv6A7qPo+hU8lSqlEt4hszzYJQlkoTKmKWeTESQQ43DwWkn1tz/LjsetWQi
ioxJbyb6qvlKaGKmi4C8juHYr2sRnLKn16TlqXDaE4gK7Icbmz7kOaAE3lnGF+US
jBsLgzFPQdc9tWRb5Kd5GODGo7rElBF22WKUAVehePho1THXGOmaLBxXMcAIFLed
j2ORugqfD8MitHzEK5iILwCRmie/RQagwRUVbisLlzqTUoy8OfvKURwI7sQOsxIX
2IrmGh89w4K06IeLzceUz1o6NWl0lvW/VgY2N4y9oI21qiM2w48LiR/jjxlZ3l1W
Lb8ArXVlcsBxyMSaZnTSRj4jMi/b4z9SIrre5/9ukwJ3ByQqA2WNKoN6Pt+aHEK6
YXJv3iMKQPFjjLLTYEWs7xPI9Aus5kuu76FZmN3M4M0xPyAMZC1m8f+MGO4ZtmOl
EPlGRsV+WqlwKNah4+HWsDBevlOf+XCOfHE2/27vLzUBsn8GfvbgjZ9TD36bupfL
GReGQMZ+7eh8T397R/Io7MRbejXtODQv0l0d3+IXO8jg/I+p67Ap6KDME3pAudLd
3nUgnIWB5JAUZWZoFvqeJQyWlZdszg8wW5aZ6FeqYA04unjaQirUsqIzUu3XFB8T
rc6M/CRrCxY22n9rU+EU6uwvCmYRtl7vZEaf+tlCWnttZad2eVb6qivI11R73s3k
6MV3K/0P6jH0VGJLqOWIUyT/2yTx6pmVWPr00dSqmVBGu+pznM+HRHZZE5mVE0xO
irIy/RoBol0skmkdjvl8leDyw5hSqI7jEHF56+Vevut4lbXcceYNyeg/whFA9E4s
Dn6HX9j/Uu7ULsivDTPoxo+wa0+Nk1HcXJHyKG+VUieUcS9t2Mo7ZnGef6TqsuLm
0Y2pnwe8Xwwhgb45k8Yx3DwZ0430wBuhB6Slo5TTIjg3ZdZnl0KsVViF6ubILoga
nK5tyXVvRYORJSzlZU1Cixxb/qDCxLyfv9xQ6LoNd0RAdGW0Z/MYuctZxkbQoWdE
QVvgTF9JFL1owYlzoWq3nlwfDOlcFRDyyqUuy8xYj51qYppMGD5Kh4+b0Qosx3jw
AcEGDxSCki2X4wxZL+Wy/z2J6GbyfBn73cc48jihbmm1/fO8go3oLNsquxK8jI5K
oSnb0aYvvIdUGhmrfa2DgPrWrjmcRfHmJtESzfZ6RieEQsro9fp3kTvQKWw8Iwg7
1jAN7zdnprLgbRFMeVpukCoVSjSkTufWdTjdpHgTTQo9xvjQg/2h9Hg2uE1tfLK4
E8Vopb2WrDvJq3J45xR/wXHiXbZHt9dmn/HiwNRAGFbMd86w4G9/vWJkVTZV9lY4
ZPTwltyycDLi2uWzr/+sk4R88TR3OvXsVu+gTQFQ2uYzFLlvPdAfuROzJwbzQIws
qgXjZqs0/CsE8Jp2oLtBxgLz1V5om3Zk+PA0I5AlVyMHlZnVyqwjUKxra4RBXdsx
XAcJySHC3qaqWyJ6NUWusgOXWU1g4FN+MpmxHa+eXhxXImxLXLPA5AgBOC9V5Epf
tM3VI4tsIqz0GWz0AclX0W6pjSlVzm2yG26TipcIAEDqs3kGvy0iAzv0J4Rl6jRv
LiNLFj1XIZ8D97ley6BizSH4hO80MuVO61VkHTsvz8DrLHiNyOKOAkmuiPcBz0YN
XXKMWO7DR4QaBdYcwXjAR3BWAoxdAoxH9X4M+fcScXI6bLxu1FnTQFNL8+1qw/bj
/nAkA5OFAywuD/URFxN+FzbZvra8CUee7rsF5cZ1bwRzh21W7h+ja3Zlc8W1I6W0
AoD5OTtMYLON/dW9Zqusq8qdxUeZFfSfyBivZSBAIRnahERz+N05w6xiqZFNA+dZ
Z5F01xbBGL3gM1wok/LiQWldU9uKw2Gh26NzKAl2pNMYKi3aaFBxCsSjjzZTyrfE
KQt+Np9NNiJOO+UxAbebZF2KnYCLPfsjCNZLbw3XyMTJ7IAj+uyzZFJq4iDpi/0C
lakewIULIjRmZa32DonLiGCNuiwOXAvTIVBY7XhWuu3AeWYVdo6l6dtqC9rsyHgW
smQlBxkSjWSRey3Dxq3Di21MDM/fhVLgtTfHYmEetO60R5FIFgAB045wI53PI6F9
to2GCMkKuOQCz7NoNEZLzeZDjQGZybSyamDUb+hScu0yq8hXjy7fVefDe0FtdpN+
Y2pZ6NOJIaI/q5RL9fJYn8bPzYKiYpj4KCun8dAyAfoMCZdIU4+zDvSDFlRIB/VZ
OcW/poV0qLELyviqF7M4s/0rNhhPKyqFULATqCQWSP5RdTfGumAycDxWIP+LF0bu
QX0v6Z5Ryx1oTDrxvheBOxNTwCD7Akrntbsh7myfbostnNewhDuuNjgpeQ89kt7G
05YtChFvd3UrsKXl7yfJuh7LSJc1lJ3XZZsrBGcgBQTyKbkUseMvRZlsn5lgH/zx
MKlsUnIvuJ0vAFtU2x7B52oITVkeTiL3N5msRwrmr4gTfWExbAEPgTVWfEP9UnXi
eSt0n95TBAcJS+2WJ9X7ly3m8o1N5qH5NsKQGBKTXOaYSNz148bX7I8n2AzkDJiW
AJKAaDPi0FLD/HQ2+xFeMSWoKNPR8l4LiGmukDn2cdZ70ohphkKHCk9oIRdP0aZV
e0pv9GdnX9fEZ8KsbVNH41NA69vU6j+zB/66c3/ayzt1BbIcXHH/ATg9jk6CAdZD
D0+8mfredmWHarodL/+vEmj/b2JU3ISZrfX5a85oQTeP4/VQ1rHq2blH3VVt+w8c
/Y4njet/akgJeqq3HLw4YwcE9zZyhYVQUdCphNvuBSzlgXEESixm3sts3qzKJG1k
kzFj6ossG+OsP0FfLQIEagZfv1B1rqt7JUzMb8wE5LcfCzjfKkPvspHGdSXMCUvE
O4GXR0uOBcAXXT+GJT9nraztiUxR9Gyq+LlAAgFNMcrFzEQ8egywxyOjJSzinLaY
n+6fjg5xyHCowL48M4KMrrXo0r8sNwuOGbW62lq6P0EFl0ZGkbKVFqEf7z3u6tBb
2Rppflzi9yHtPITR9VBwWp0Ir/r4tv1cE7uIkFKImNNTLy5k+VTtSKO+JZopyxEf
hdUCBFVuCzragdzazaYBVTTpQtL3MuE7X7MsjUxgs4Ze8vik5wwNvlb8Ra7gHcH9
zKrsccjVw4a5yl2pIAYC4C7jo0xRjktN7WsyI/Y86UrXVxnzWXzmtuR1HhimLih8
QOS3V8Lrnu3ClDZG59FxKTq7Q0Lx9m9LZEE2X/bOB1rwWRMH9Rnpd9Zr++bwhbOM
mtAuNkG4+DMmKhzLL5HvfPNZQNj0jCbjuxD+sWE9d9TI8Wnu8B9RwWmW2Bh9lvD6
P27er3eWvhYWLp/5AU/r4R6rVA2oAv5loOQ+ydalHg4Py0BIKqVKlJXi+goNeUto
9zQo+ERHsnk3mYlM1u1k6/z6opUeEhP5YuwBICnS/TD7Pkt2kmBzaTkOzFRmHJ8E
02Reaa/Z5KCnIEVHu52n0NZBGaciHIGPgtkvVlAcwrqnJoC5gXV9HHFBUQqSHdZ/
z4P73H/A/i0xoW1bzE1kO2htcMjKLiUmCoKQt1BQsi9EmGWB7f05QOPyoWhvEfXB
eto10gjNmHAnN8+inHgg9u7ZC8ym4rPN0xMd0wxvaqgeAhlGjIWkjW4Lu4GT0Jho
GNc3NboStPDxu2LDsceM6C7EdYAWjtR5yU1sUGVJKq83xQbHiGK6maliY0OAxgfJ
8ggqOaFTQnOdMbqhaK1KKlGlCb0q90B9D8+E8ZLGRYAgftBM8T6ctctDtF6bmUdJ
XSWJMvt0eNT6czJoyidtxJk+cYBCsIS2+/7YExHme9ImOr5tP1di9MyeyAAmoCbH
QGo+/bJ7G34QnCClIinYN3udD0JH2cliiMMAqpiJKHDULn8+KUFNSReayPt7nq4p
n94TD7kj7+EKnVjvchD1caDTPjMTeqgUm+nQRelidcO/UyLcTK1w9Nb+RsCpo+NO
BQaCwPHLJ/MRcjSKGs61Vt7G0QwfHa+emtmmlxXTbqRsUikxpk97JYzT4ogAtMIK
J/5QPuozuNT/wKUWGzxX7hDo7oPTshe7BIKce6DMlbnQeSRbrPFEVEMbbXwjFeki
ynmkdjQG9nCESBlWtxilE9N3RhOAnT8hBvtWr7mT1Nrh25PKjx6x4/qjJnpTTUx7
/XIzOls1UyMH4PGoCbLZRVYo3b6ZPdC+rlzaB0IJn6PKArNAYU+we7Gnxm9NEW9H
aeR2wGvZh+VcVzQ477Mb1KLYLoPfHwc/+5Usk6KTCAEE7Bgb0KjPbthOdFBkb20E
vECN1hof2Rp31+N72f2O7N4w+nSnt3IOfzktUi8T20mdKAAK4sip5wdFPCfOE2a2
DdcJpplEDS3tRqF2V0jTcxPqVmxIRBq4uuQIxN/zMyV2IBWMWYB9wqVue0wLEDbs
NYK/rMA0pgrmZ2H+gX8+Z8CdEmC4h9I3BbOtubdDBTkmRoRJGLjanZpmCMMa0+uZ
6ir0VyC7/dEqBDMMduLNAkU0eX5FeguAfohhm6lfmxshBBiCl4YetPv/g2bGIeMn
lZU3YMo1nG9yQfkmDpAZcUbapHVNBx2VoG1C0MJH18fZXkF2mzTdqCCTfKuSsnzV
WW0WnKfZtFkH+FS/z5wPWjDqzI5wkDjaQ1d2IygJ6Y8CNQBB9wu7lDR8sddaBC29
8ManmaibbfMGbqGCbVaEcaORjd0w3B5y32cddrZURcJx0FjQBJcCtE2i81oRENpe
3UVQW4P+REfyU1nKpenc78O4NFbLY/2Ht1hbO/N7rS3sd+VPvjMUeoU2Nia3/w4G
Rgu4LxD859t6yvw3Nrky30YrY2euh4ostnh1wm8KRRqVfXVQsROazDsvaQzv5wB+
Gw4lJ6jTGmr9OSxK6n+tHBLbFMqBccfPGuScKsiX8Q9B2FTHHp1LQuHM4V7CQENq
KCOJVJ/tPD0tZJwMlnaDLUy3olmK7PPRQYXoKO9BchfVAGSlb83c/5Af0XDEziBK
VOPUYqytAPuO1afF0CzuRkYlft7yHzif5b7GYLOJx9sklN7xvJalWTVmBeORXMJK
qgv1GL2yL1SyVgaryERZfU212tI2DiF/GtcqzflXWuDNVUWgQRHefDI23jZjbaCn
aL0fKiivKDw0h5uWmqHqY07U68aeBxI83oltwmtTNvMMBrHvpYgnTgOLhUIcv5TW
sNHaY1T+geYnW/PDNYTCY6FKttHNbV4End66te953G/yDtJH5AjWuEV5zRZxhDoG
WkYPuHZuMw44u5gdLMCDmf64NpmmogeWl79KxRVktnsBdW1/ghhits0tnr7cKOkg
JGo7zxwlaRHtB0eM9mmAksbjv0JIzgsW6XRHGv5KW55R2vvICs9PYTRvby81vaUr
wnpZM9TQ7VRSlhnB+c+s9xwUw4UvmL1x4LdtOWUKQ9XGaWCONsVK4nXhNatOwc7K
15qOw1pc0AShF+Xtl9BgKu3IM/P0FAbxz/lAs2iDDDDqmEBe27Yduyi4nNx0heSl
0vnKb36pu1vJIzmylI/jVjJhTjuCoUDlizDHGE1SX5gcyxnvpmlciC+9kXQI8sWc
In/dDBHOvTldx8RVeWCayuaEnprhfyPZ1rlsLitSBIfE7itPKGW3w5sc7krmQKXA
779UF2JK/s0ntecfhMKdooWNPrz6xbaxMX2CSmlA6eWXiYkIj0VNJg6ppvm6dSzR
nnXd1dSuEFAdfCjNUWhJ4AkpmdLhQBSiyra4kK0S8si4RTRPHg/o5+PnBpbZw9dS
5m7kTLqPP7lGqJgxTS9KM0DiyA/7+TBpfCjeI2890UNZ6rMh7RyGtEir6ISKH2VO
ZC4bDnbTJIcajprgJBCC1fMvXlyY0/772H+MNNjsxk5FmWgRztjq7j7pA43yuvSK
jHuZqPo3watfcB8GxFxJaVo5HUC3lKD80yAejfZsk6qSmuFuaTUrpORRG570p5XH
OYQgPGAAnygkd3KAPQS/K0r/ibs9UMYJTIbCiAlQrRcJ5W26FunAJGrO0iwU43z4
ASfIjB1qyUt7IHMUNhk2FtRXqWDouyJsy2lyCAs384LRbD1FKyeshmjfVMRtP2eB
1uR8IL16V4UyzXWsP5G/DjenOYGzFZlYk+nkpb5cs8oPlXB/Tj0VCltnBtp1gIL2
kEqVn3FTL8baX+ztN6uCj/Lsz3eDJLdxM5CJ2xAApcszm0JN+zhavuucQEC6QI09
oHEp9neWkCYKnFWgfc7lBQj3Fwa1YSsFWGtkkGhkzpoYdIQDfwjSAPITnHWL+0SM
DMb+KrWigptXGlZQjkO2IMW3fCjw4JILnrPIj/OmhBik72gEB9iji+PMxzGaeycB
VhP2g9WtbZSdOLFNU2gminx488JxHj0BypaIW1YtkYqF1Mm8D+nXXdcDefqyKVFH
rWK8lL5atZqxmg77uPTwGrPlTksuZJsty+SrKywdpuWeiieLI6u6p5mFEELJH06A
GnEUnzGYZ6xkq30Fe1rS4uvkXPPNZ5YeDZiWhAEF1hEJFmX4x+7U12M2CX2kdRsG
1bpaVDJU8q4zI4FdD3bEObaUbZ/QZsdIGReVViDItWU1LhetY9RWNPgm4lrCGULX
OjT3HHunlo7O/+XgbgTrU9oCdl2qkDLE86AdmigVI+KXN5ooHryM0Esi9BqsSoHF
fTfkh2I2iXbwoTkbXTQpN7boLh/jBhU8QZtldzqFQjpZUeX0wgrUsrA+mlv/smRH
/tpWsdwIeSvp19/bYHNVtLVlxwBw+Y6sc88GbYoQHLRJkv/AB6MbMHajcYWVBHKB
leRKY/VvPXfvp9ZKgR1McZO1hJ+qQq/FJt6m7l7/TCVInAArbSEgw3rNGAlXf51k
xszJuvMe476irNQ7J25EidiULMhw6hRNaXXIQP/PjrcWJSLzT5eQsAWnBFdLUWQr
nxJolms2O11i3+qX95Qc+ltzcZ5klGMCFEv5DreEerZp9dhMGE8g6VdPZNmQG3Oe
Ow/vFYGGOz9W7Di7aljutuf48RrpQKyjF94VfF+wpXYwtqcjAAEBEj5kICKoVtMe
P6Ql6SPEcPGDsvkeKeWlDIBcJInEB4hbJ4nTI/WAEowJsHcUiR0yhs9w3QekZRqI
LM/KGYJ1KLLa5riQneOueuKr2fvMZvxJ91t3usBLSh7vYg9ZdQ80AauVhzQbTo/3
VfbogfHuMVSNfB47w0bVk1XaJhOjuRcKjx3AEJuWwW1iOHH5RDG2gAzFs5pvRiRZ
SRcmTbQwroUqg36dgJlOfHPxWwlz8pXXVQCxwOUuw1eugnhgnNm0s1Pi+ZpuA+hP
NijG6gIH3yjrL2UHdCrwzcCEEfjSq2Sb9/hxYOUQW8hjTVlmEO9LJd/fLesjnXlS
5icxle6fWM7nuELp/gML4YgZEEkcYgcra+xZTlOLcSmo8QT0vmV3EL4/hBX+3QcG
tKNjYC9aX/IrZxQuTp66MoWHuxTZJbBFoQMXkpO/jHGIceW+bBIy0GIncnFgDJGa
MytD7vmJaKZRtjtKjlwAWK4/qyVv+xlKr+UpseLgm9FvL6ifALKMEIXlrOn5pUO5
jhH04fdTaKUV1onxzvL0hm4ChcQj68DmNUZAGW3yBZ4p0m5c5TzjEqDQn70aRBo8
D8UisAnrxMF+pyzPpJOfYQL7XjQrW66Oyjahd2hc3IEzInBcMSI5cGIvIy1HioZv
kXeTUifLLrLEi6XfzsleXhmGLDlLkkr5WiZuNavt5CmJcatxWb6OmDhI2ly8cKV/
HKNHMWdxEn2uA0qSor6+lQg6/IeOWDGmI0VaKLCHOOISkLlV/43dxIpY/Dx2AJad
ZFN8AEsQTerP5nNLBScuWSALlJG5iv8Rr5a3bKn+QJ/YE/2CB7IXWpPOnLufX8t1
vMI38Hi2+vAbh3hed8BIlMnNY5nWCGxy4U4ZgA6zTThKt78CWlE+YWu9YOAtO6af
hK+D8ZJ9PpWt8YshMRtrm0JYHuezmhOsyvJQX78TXa54Vzf7PkQPzLBQPCRwwgIX
8mtwUDBpG1FRUxAfy/YQ4YKY/AFFX8RejLYkf3APmv7RBMkH6HCFv+iM9lp+qPlW
JC+CgnezvyLA3W24E0FAKSFr6xSikfZ5dEb+5Lx0ktTV+g95yELaVvKa+vw6PKKn
UNkgeJhDGzc+ruu4pJTVGD64FgqVL2zYiiLcZHsg3CG2an/683UEEWaXECepNeHa
qWkEQg+yjRu9OwENp5evkh1S5MogjZZpjAna+2hjLXtHTmxk7Lvt3EWxzLzf/jBw
gT84XW9Ky7/NtUb0CeJGOFvcIyhDeS5HTb4czyxiGN/+8xzGzYXwy6cwV9JhaU9m
/Th1oep/FD6DMLrle9bGVBPO35e81q3BKw4Z5JSlSCGbFKemQgM2AF9Ybyml1Azi
p4ZyXbV8PNTUiUHb4XFzBjQbH23kmlqzUIwPCUoIFnapBJttTIvZuiQuo28QfGwg
DSGGEqqXxdlZqKf8N+pGfM55+fdnyH11rAUnG0uCDjiDiI64MANaYpwU8384pXSa
hXEx4V/w8cSP3qBxxkG+Mn4OPHUEKEjCvDcwaZGVRfiB4WMqEozeaOBUf4SxlIaX
uq+4cBLUjqEk1z5WKAkgASmuMcGeMNxGhIm4M4Mx8rqW9t50s9wuRj7OhoaShSOC
FPalVXfa0wSX4WJpGUKBEbbx1db0AieG5L5FSa0/moqD0OEjHu4VCG1tEcm2ufFM
GnzTY7f1RAgQfXJBbAqGStvzF+Rzb9DNH80StDySltcsNCtHQbVHbuvyNi3/dMip
T4DGWiCFRXnJ0p0A4GAICQ8nLwx0MvucAk7NqBtVb1CpYC+ibMhmaqIkzePWJt7H
okEF9T5YcFapSm7f9BxCaaikfSwGYklOdCT2phK7RC70iSoTRtjwFEVxb3w4dPj3
trTUb0cjq4FGX6N0nmID9XJnDR//zvA2t8w45q0i41cClH2ZMMINwTjMZtOR1ZfU
F3Xwz2jKqk3uSvcRf1/DgSD+mrw6StgtQqfPIcOwRitC25lQn7TeocGKQ1zigNJv
JY6OS57LNbqVYc2qKlMdpnKNBqgpkIfOq5NvImAC+Ad1C7qcqsgZm7W/pP8zI1XY
3lXrDcwDBz90zywj/rRFvZQzO9lSyTiKkbpxyYu+utrVlWhKm9BGhM04KppRPyAH
/ytpjWKgLmERp2fOniWYZwAIv2kDDRkgRr7ZwxP7ewWP9iyHCeMrZNgIAWRV8Bpx
1JHTx0DqIIhdOsONGVoBHkINT4IaQ7AGN+oUhHPWVA65TAKO1i0GCi5reBIE05Ly
3CLYtLVgPwHhjfkpDQzmtucA0uBytF0iqWqmJYYY92ypYcS+RcbpsV2C8UVC0hyE
ckR/HRAByrt/o92tBanSsKTJtL/PyYdQ6IRp9uQy8gFtJeqzuoR/+BM6utFkpqfX
FKUme5ERk7kTpQBoMnX8WBQPrvYx57rbX1gARXjCodx8AYEunTZobNvbpaLQP5fz
6vVtfje/jIJ4VwXGuJDbKv6iSJwW4gO36sPZpH2nRb9zAkSKRZBw6LB0DaKs+7Y0
1BHwg1SMUxZrWAkD1H98bhLwt13BEoobXQYOAiW6ruqb/VbGfBpaV4T3BGKOXK8i
+7/O5hmkaENjZD3DONkMSSsJ8fFRasCkg9xqCKxwGyZskQusHqazm3vjPKKqgKPc
2brk1Lrim7xZpUbXhHQMKRug/7gXaZiM5lfRsW7S9VeJHd0xL5sGWEEqTpkFIex5
hD0mfxZmzeWEWySrwRXYXaGyqSYrBxgnphQp/BUgmKVUaGh/hdUJI4NY7bwtY6O4
6pqp0ZVQHg8C+O4ROG+qaso/FoIUvFfSLvpLir5o3IyGENFHhA9eYERB6C2ExdC2
7ERbfoNUvKj+a27zSo4VhXTquDF2ELezzogVW1tQsh6A9oz2sWgMlaYJI/pQhKyV
Q8fU9mLXNL5wwrSlnjXX6a9TwEtWUs7zJJFBSJtwr6eKAF9BdRb2BuPVKhydlpIg
S9ttkz9Udy5rylPioCY2j9sjNWhTjfqpW5vM3pHmrwh6R3IkkvPu0fWNNNlZPhYX
uHiwUTtZfWbkUpxDsSH0cgb8/DU2iylxi9SgZkj6hq21YyMioq+qS+LxkAIRS+uj
YRtWae5fkCyV5CxOb6ZbvOqejPzZpMkjDe9kMR9YDG4Z/a5zSIyVd0Tju9eMEsYT
0RxcUEb/U4+d6QYJD6MkRGhINcZJ9Wj5nL9W8ic4DI6lyK92rSWzDzdOWbavbtze
mB0glU5wzehE8BSGHNOp/q79pqAvX7g1EHo8Yi6BUO8GdPtZz7crSFdXcH9/+azH
0A2AE2XLzc6liR52dT5/UR9zPnhNU8NXrz8q9aq5laGiDv4q4cEzszpeJ1cNL5RO
/kxMv8AK0MMF6dEcBUykD9gbF1V/7xzYTYXz9FTVGNqOzXjCe6SUWYorjdj5AqAq
otUMi6lNuYE6Np0c3bU6chuf5QRN0a89shlk6qOHeTyjZic4rh9Yk7g24ZyEjwI1
NVVxkD9SZqqougIEicgck2wPLdXstJKym//xlCxbyIpL2E7dQrUZOwtnpTr+iHE9
Di4tBQCFezORoMp3pmxV9LORsprvJm+0ysOlJ2AWvP+jL/HAekXkVCwUsXPfOvkC
wRyAgpjlgIqdZEsdEkIr8CdbDsx2veItF50/juOEsSWKK0McTkkSlnVp0BrqlX4C
ncxo3ky9Y9PU7i1Ad9F2Jcn2o9j+IPWTh0JI0pCAaLonjUAHMt0QkZ1DBxOtKj6O
X10dXYDgJlMRlpK3lP+UKw8pesTYIBAg5cDT/KUKkeWKraSwtXfRdeNOEnxCSmJp
ju9c4HTOXHxjX+iwrWhtdf3FmLmnw1E8BAMJNxH11scpTkDKaQC4YYvHK9N95j9i
H7xgtIb82Q7tLxIC5S2B6kAuerVf+UTcINkUPOsdq0d6HPv+G6kAJY5plBeIzfXf
k/NNuc/tXoUEG81wTlCmkNqmsfgO5EqPAVESzg4zCQwYP63fNw1CEzwjMTNNAT38
pg4jmEF9PItXrGlt7XYV0SeSLzYB3Pw1SRWtERwIytWo+KtiWFIrVRc7PXUuXL0c
HSzhDMQC9gFpzjtmh6ZCaFU6wiYZfqeJof75DvxdAAbM73644lJuxE8ePllhD/8w
jCI/B4S3zmdUt/TH0LemCSvIWPmKEhQqH9HwxddudTUT0X6Fq0PondrTDheYoR6L
Bwctka+ASYJZelZw4fOonCUHEDOAQQCBw1mDeZhLYgbtrci1ahpMV0RJCr49SC0v
hXAY266VcRMkpVLoYAjMYB3WX6wikEFHhS6/2z0putA5XJxpWTrLWeOGPJF9pJjo
GELFE6vD/M/6BEz/zEo/DCBojCSE5Va5tiRo/ZcWWQaakqGGvItznFlueNOGSrNM
UmKaHYRw7VJcv5sbUrRhKJVoAUGQ3/73myVvqTtpxDCK15OCLhZ3Z8DxSq3oS/sM
SFGa1ZWqOMR3n26wIS1PDahxXkKWaz7uqOU0LEK5rxnwN+i/fczmKEA8EizC7vjS
UM8qOLX5R8Kug2X2wnBW1bqiAfm9N7SQr/CsSX48FbtzWseZ6zDHipU62ZJCpRVe
5MgkDEf9kPe3I/IO25gQPlksK01/acyACJQiOIz582wXaKyo4ckjg15sQWNUFgKV
dXmwTQw8kHjoosdccK/VsERIJGDEWweZLcDjdpe/AO7WiMmL8zYiGgYsE9Jmaopz
W4X/D/hfZhyPBR/TmsCrrDLtz6ya79gizBoNXAFcXeYrYsiEofolluX7x+VicrJ7
LKEP+F5viHzhNkr3j2Ju5sn7dwITZrIBWmu50+dDJy04cTorKKBpjcTCnJokHmNV
X6MeqskvjdfmKpXe7JWWjzVetQPKAIW9xbiXvsK5HEFu7DTh7aDF1FOsHfSYLaL3
FMggo4pRDtZu+V9jwyzpeqSGZ4RJfCioE+/RkaWzRtKjawVwNWWi424wRRZ0Xh0I
2PLwXL+zNFXM5as6QNgH6q4fCVxHuIuURYwFPBD3mip2DPojZPoPCszyC6svQnD6
IMRiTU5w0oJGZxVzNHjI9Xzu0yg9N8U439h2oEHZyeFgg33BWxHAgaKjhAj9bBSM
V8MPZYR6zjiEPRaSuhR6bVZFeQJw49Z32c8ptom9LMlD4JU4OizOZxmU2aflKDLd
bnm0ii+gC+mO+P2FFJDzaY+ESM3a1o46OPhaMy0Z0RxcIqogThGP603WorAeSx4D
1+uicJeTRctJlpkhgj/EFusbuerj8l6Vc6Zna1Dj6uF2I9US+9kYXHHcYzwI+qEX
CKzUISpnb49R9SHlIFoofEqroUXG+vGvO+FYSMV4X8W6QH+kcaYk/am2qOmp4zNd
oXxqpw/6iX8tjrG9Z6mZFeEMwhFVORgCh2ScFtCGVJSIL47xRkKJcZls0pCQxOrX
bbcVUMmQL0V4IVBc8h/MUjUoLfvzj7hdEVGFzwrhnfGFxtRv5DQnzgHHzYNVUfYw
Os9RgXScZrCrSIhZqlaZFW7NGwIIHsPfM6ujsc1mziHymp8nJEGz1DGzZRo0BUin
nwgkxIu2w8sLHDepRVnBaLh/sMB8gyE3RZjchiFBpMzfbdBVnBSk9VXkaaDGZBjJ
H+ZHV116IdrhgwtudnMwV+Acf2D0FJhxEud9dCVmxm9hk14/Oc5+SscecEqdqQ3y
/QXnaZWgYJoPRFQH5wZ2YScXOtZ38YDhUxknLTdzPqJeZWBuxES0S+7+iIJS5mlX
lGTqtpD/Ex5obzD7TsC6aUBItGxBiG/l0KEP16ioS8gsfKcH9tXiWZUN9zRVCQB1
iuE8xDNgf0WLUZSAzizgtL/74xfyjWla2HJYxYLnM7hToLY3GVB0pBysHHdxL5G/
K8qYmUUPa5GanHiF1KZYRutYJLS6Pnt01sw0H6GW2u5bY5F+9iG2dl3vbO/NTCkj
ArTUZz26WKijpeNTd2d99NsaXSsAKabt1AhuWEFajOdJS2/JcXbQjB2mbVie3cmk
5cTOE3/6ETHQyWQrDefFZrbCR/wN6Vhq1CEROF+sx0kCGvco5YiBAoQBrIc6BFvI
IlUpdOqDBMt1Z9QvV5tsBuNVszffmG0HuXy24I4KMB8Tj8zYK8seLOoVhUSg6OlX
WS3VcdTE9DGD98qG4p6qlB25MF7+Kw0fXPq90iJ+jbs9ieQEFjkTfR1bcx0swr4K
TfbuiO57/veqiz35zmYPhShFdtNDLbtjJToRFgSfVfzT2PgSNCbLAjEUdXv1VNuA
C//RFFHp0I9vHm6RKokIedDCaA8C8gPs1Gw3T728cS9aG/VMvklpOZ8kWLQldF+2
Z52xc2XMJpzmZAkt1BIIC5GqRVTSvloIu+d6qiyNnyaCVSkCrvmJPvXzOi1Lu+v8
PMfkbiw7R0tFG/iAgigFgc48yEtiMmRM+J05D5uPrJBiegSV9vzoX649EF+h2Xsi
kMuQFisBkRYZRp6/0Rc9dCO8d18gJ7N0QRIX8qFuKykVO9SS1XmYUQA/5qHijbww
MVyyHi8GWPIfLHRwnj1smj/IDiRXhhSWow3uTjWRTisMECnnLJvcJqXakhDBQ7Lv
Q9B5oDuBuFYLEGU8cNUBQvz90Edgk3nl3rQ8MTr4bpoyMpwh/feruNMf4LIIsVmm
mo2Z+JOfO9fKuvXZ3cPk7dENx9a+WBpBRPugIvoFtZUnap7floXJc0LXtaMvDqhx
UoMfrjiOhYxwOgvY2c/UmRjxrbnHNiPd67vp+wS22/OHBFPXVJvQefgKU+s55tBZ
H+6ZkJYXsJtFfYVyOrbsGlnR0ZK+45IGzErtaH+RrYGQzgjM/PfJwpZ6HAK4ocIj
K+6/Pr4H0wsV+kW7LSwjts2IYHd6RIS6XpA2xkaEZ7WPOUDoBX8kgradceCC5yRj
zhBA+RMlO0xq0GyL+1UEm5rj8oOl8KyxpDxZ++5Em5wobpydjZGGblCa0HNC9ZB6
SwfGykEqwNrcERxlcJ+JtJmf2AYLBR38QshdTJOa4bq7jRebxnm1NGRn0jf+lOym
7xE7tNdcW9RohM/p6HjXaa9rr3uXtmhonHv8aKtJq4cSiH8Xbf1Mwjdk8Un89yzl
dhji8W1EyK2a2irttcVvUp3mbc8A4uIr6xc8Zawzw9yOs0FCLM3qTLRVNUY8rw3I
kXeW5WrqrO7QtXn2WFziMZ7VcRKCnYEBeLxgF5UWOWrFRhue0ZHIEfk0yhhw97oo
OTXoPDx9euRyRKXHf+B8uM6j51LjblZrM2dpU447Ao9q4DOp1C98a7HcX3nepDTU
8smlw8wFR7ve5Z5I7Pe7d8uQs05L7zDBlGBUvHDc06dASPCxPaSn5jxhxMUThRGZ
NyCufgcEAz3pjhKj813DvpWsLarxf/H2933imFW3XPWhTUJbfnV3cI2zNeCs0sVg
WDiH1uS38IdrYATueKuLM3Sx/uWD6oRt8jQIPGDGghBLmO/7IS3iUFxeEB2Wu2QE
e6ZLFPOCUG4hNl0KnMHglCE7SyOP3kv88yrZqEYxucUv3XuJ1e5R19HW/ihQt6mt
rq7l+j1Sc2DDnSG0rpKJXflw7mnohJmrW82SESjffMUKgD7UoX4eenPGgy/l81B7
7ztX06v3I+MxIUvE2MNRtcSAtxNie5NzScbkiBb1kUkuC/jRK/G/rbIY/8RDkB+T
9A4kCIyQyqMq6AKZdyIn0+ByI2MdZhB7mOQBlilaG6eqN9Q1JbrxqILqD+klSNNU
KE8hWXd9OopxFZh3JUnwsPZ3Bmns88J2D/ITdU8g3o2clQoMf97H1ZrR1xBmZpdY
pCJm8yn4M+oeNxyZn172NJwG42n3aevlYAJl8nbvwhXKbYqWeI4ceBkifCtP2YOi
HghRy8krwfiiT1gRu2OwnBUbHBy7U2SwCl80R/DvVHZ4AZigE7j790250aTnf5XS
418dDqCA8epXa9nGybZt42RztWUsm2fZtm172S13WrZdyzrn3vsn3FfP5/v+WRdb
9YdtcBDZ8ulye4ihGqgr2boaln50uJFwpBh6X5g9vsggQbSDPg5Ctvf4BB8UZcKz
+Yrh52Pa/znByNO/eg2i9A+wIGeS5on8HPjyy/ovXfrteVYxJW2EIVJQ23Anm1xt
ssdWJl8ET3jnm5Lda4gQ8s+zmoDQLBZQaRgvT05bsq9Q5FinupkjTIxGw8qfRyu0
9MeLYTTCGIREMJG1GubHk2fBlYhz78QcUfgdpXViTa747Ny34i4t3+HOLz5TM+IQ
jmdG1O06Obc8fVWML3DRl15mGsdUb/UB0hdye2iyDeqYzFc1Ui5kzppui4a0u0mI
wj3zWczZtHt97QaBGiNo5rhS5lPsQsPKDuWetYUkYawq2j8FzlPB14fFlUAbXtzT
L3h7W634lnlRfFnzT99Lrrurf/V0lwtqXaaPOl8fbIkkTtKr4QrWFuwvDsMDfv6n
B4dLZMQpWNnYj3JGZxxaHXDvPoLETqNY/EdhqnJQh1GM23mnbsnLtJhGwgimihu9
5YKH3ofuI5qWv1ykAb/SE30Z7CGxpf/KBttjqyZGNONNbpsnmDz8hd1RQfRIYmpj
U54SNMxpSGordOtSBFfxn0UgURrCN+nRV5kHa320sADqY2453NJweWIAYZwi/bxi
HX6fOOmgkrR32TBsN7km0fwXLvk21VZVeU2X+chR/HSW5QrhHiPCYwy4u7HZ+uge
xVXZ2fjfs1QnJDYB7Fz5mGMRS2rWqvdSqlBdkda/DrCZrFNFvr62lE6vZKGqsXU8
brGJyRnAP31wa/n5soUWaOHlMxEsPKcSEg/Iwt9gkb5EpZ9Kif1dhOPHOikq/QyJ
yeUdM1hDeap6TJUKdBSFEk3t/9GF6I/fw/upDThdib0VaVrJGzwgq/1XwUksmRyZ
1fXe/oSOcpxgf785ocGRP2A6SH+G0omE/LaRoL2ez6mKMyLhd5AEqfnI5NpeIBBT
Rs5rnHsy3FRJYLiFWJwm5PusbbPUX3QUuR1fyVfrTp+Yc2zDGwaI90mXJAoTIVxh
2LKLlnqJnbjxRAtb1qEtS1pQFlV+w5s6w0hA2d73dTOrPGf3Ed3eh2EDzYiGv2GJ
GL5rnK/PV9zQmKvyoguFFS1MZ9lyANK73pHW1ZhLM+VIlrO5v/siKQ5buB2qhfGo
Dy1GghPp9PPUXdWmKadHwlhUCBFpvqPyVnAQE56GWxJ/8FHq64yd9j/c615rCP3h
4KKYzrWITG1YFNoIcmo1wN3M0iz2k71MyJInJ7b5/udJLENDK1u43FThxacCP/PJ
tgT4JyRSL34cfERNOD2+B+CxbHr0LShICFLCkd+q9Pgk9Bz20577znbiuC64gS9b
XoJPOjCAqLX8ElFlyFr95uvLrBJBK1YCw779m/HN59jltxeqIwtjveFXX2C71qxR
u9WQS99SefyO5V+2JoVOyqhqckbnqsw6lhaiDQrny8m1kBnOsRacZ1CHey9YGT9a
xPHfwb2lnASyhTYgx65SUkwvMmMjy4InSOenGSN+FGanGwE1K0coBGzih7dxlCLV
sIWQBxzhNlNxXsnNIsEzW24PNF3V42WxjAvyWEq2Fz06SnaFPqVDeIb444xfzbrp
ZvadOas6iSanXoyZtpTiLUItaDLRpfvrKQz1PIQlu/rKObtqkXpDowMmjaZCnMCS
0A5FDskw1Y9Y5b1Kd9DtBQeGba3GlBF5zmEzv+lwEsaf3YPbNfDfTl5CIVuChHGK
HzofSbe1yIHC16eBx4kqwB+wdz79EQkzBnmDTlxrahcBl5zPPxPp90XT2TbYfTAI
8eetN0jZLpVV9CN+SO6ljJiRvH+pG4N/QmPNTBhwcsWlh2N+2Ven+jlcO5ylCeV7
gKbN3py+8hIi7HzEnb0FdRIrc35CpxY1LcuhUPKMduqTOvpDh/9mnoIazn3KIVXv
/WvGqqtQuz/c7zteHdAzVL/acsobFZKifMcHozyiN6vwvhzit1bsnQYAM2fKMfEH
XIGosZ6G+T1v1Uzvp5mnZ4Fe8J/vvWTE8JOELqw5u7yoofpraXyDjHJUk+O0ay2T
NuZw1aQpsAQEfHLWGhp7/euRGXcKlLbklnWqwtF0pOOSOHsn8rRmgQu2zV5YTJbz
K/FLVdFcAcC+F4uD29GcXlBdhbB8xC28UUw7jSrfOMmZOfhZgT886F3Aec1PZcLg
dQeZh+myAL6EG55W65x1dmfstdCXMHZu+PzC9KZ4qyIW812YvQMDfeGZ9dJLKjOu
En5pUfAmInMA5N4oD5JkL2asEu9UY0N81lvWit0WRPYdvCXlbWHfoAdp+IlIIIrm
73qBGVViYC5WARj0l1In/Oy4xhvwWc6G8D+lDGmraC9Tgtr0DLbras3NlIlFVIhy
RLC1Sme/RStFy9St+tVSzTu3qMKTnSbaYbuE8E3A24O2DSIPpdDdscbv/lPXQeun
aGZaDhznjbfxoBD9uN2jbmu93jbw/zVBCFyKAQ+Nyn7iIsc/HCZwVDbR2xcAi5R0
btP1DVjxRNPAWRW35d2BAfCPYoG53vdi9qLT3PnhWvA6LDJ77mMfqgdQ45TXAlbo
sp0YdEXf0MT0VXK5gjfe8ZMbcjOXHbQS8aqWB/VtWVOZgNbEpRFBoXkvQWj6DIQq
+zukXnpdrA3ilcczX1NEsewx3Vb5IOvWn4plZLpsQ5xHdRXVGdbJIyrJL+xuRDw/
fp2FyR7rchA/IkLqbDbRDjpYxMYOsjD2WV8pkkeNOtzvR0Osb/jQeJ2+5d0n3eB/
4ScMOTov8u7t+Q/HY1Td5nt3appbm/NB3asWMCmo7YZqc8WUD/Xh9J0lWp/WKjAk
9HLZPiD5HwHPae1gBLg+BnF6tWPNIM6sAFORE6leS4TDo0l+koxfCJeXnz++veCG
7MNikJV2DEDdgTQZHRXRKfhYmU8xhGklSD1CXimcud3y+xf2o+HYpFh8juPM/mXm
yTo4Ruv3Weev67uYi6XPf6Q3PTLcksFUa5NBRtRcYzf2NGMvAaANQnZM3PEXR+An
GYQsO/nuV2kocDscABp59tAP+BCThkkBx8oyhFg6WbKauXXS3OG/pLOcIIVZ4OjW
I/VeY2OnPJZ9+kC7voP0/5y4ddlT60fDpofSDqs1KTlGI9XylM16ORNspDhFAutv
K1AXejrKOrhYbrbbHxR+LxX4Est81ZqL5o1NHnbmGsAn6yS4RIjd7iGFQ8wN361P
3I+zL1qh/6rjJPEymqW9iTZp0jTCFkGuXf0CduHtHdz9b7impYNzT8S8WY/868wZ
RRNiPlbULCOdA3nshKEouUAcZZBlKDsAdrzjS4p6JQFrH9yHA25aLArEDt/D1+Wj
TVubS/TFvqvyMtodRTd6ClUMYsrKJAqrI1qxSneIsAr9B+6ks6+OtFGGY5zrIvLe
FJAVLMvC1Za5JnUHRMROmu6+urh6+yePJRP/ehRTsGB457/66Vt1a5k8YRiEcZom
0FHmW5mqPaNJ/+CSGJS3ktvDCO0GYvJqwha9ya/nHI280u3+fsxEDN9kI+ORRsPc
7S4oRHQKuuwKvyOYSkBQ038nHN1deHQbffByQb8eySvlGU0lmGgi7AMq8ZeZ8TaO
ORed5j0ymBr/2jG8Ogr8E0S54PShKbdxcINf12FjdRQ4brPmEzgg1xRO5oeqqi5+
xtt+7BNVZDS/vTD4NHYcc8UqSm3WquwlUZm+H+eErduIjdPr9h5rNIsMUQ59xg0O
rA8clHiTR9EGhQlWsPzBn4z195aMR8NSlQ4KZh6kAfi2CZyEOOAT6BkrCim2qGyN
W9o/hjuFLXpcmB5rXzHKPYL0/NDKu0e6l7u3QcfvekIoQGeJaUF1rS8nLZwYXF6i
X+c9+XdrUf0Z9iSXUA5hMInmYb+NV1qLtF++fjswcNhOps47DoHJ5jSiRuz47YxU
+5LiU2aiSetMnburzOGQAfb3L+U107whODnSszXV7NxvMXV1NlSYkF3FA4NwSmSB
alYygeA6kPijImxQ9pKM1jzgqDWkmUYLnv9omivhT9QX2rdKZmL7kM57KvMEuR43
dBIp9KLKO5TF51x40iByhWRS8jxu/N7hfnuGF/F3/8EkFkZhwygsTWwhmYMkPjlP
b0uQLGD5oCzij3jy+R01I9FtMGaPZA9gz2KANwxxAQanOT5UJhe0RrMmP4+rRG4f
M38mbxtRKvgP4oFR5CwK4lmW4HPhITRWp39Mknz92p3BEfXVeLmH5ks7aIBHgeNr
IQJoVaybUyYLnNtGGP5k1JIsdl7E2KfCqsl6JmFY96T/4FWHvzbM0V6nP23ZxlqY
Wh08h1cR8y0Fot6uJ0XKFy7iy5BmPVWd3vlHHtnM3VYEApyGCfRbfD5u311h7ti7
bcTLbJH2HaC9TGCyT5EjMNIEk5dz5KeyYLU7Myf+QgzTRbnHbC+eROrjlCJpIB/M
oj69WoXyzECs7ufwngrGNC0Zz6CCw0EvHS1Q4+F/oJDFdV/OFsh0rTj3xRzuxRza
FZWDU+H0Q+zgzSppbk9XN6/QBwGR1uLodRzoBDpXEP50enkzS6PSNrDV7Mjq1LWX
GlPxH5pE08qJ8XgmNd4eHII/UeBB/Q3GpghlozTP+lHVL24A3F5fyX98tjyMqFHG
WKrvI7RYJxSjoknVLJgR0bEmdZnuaqXydramUVrG1L2YlGiScUUrmdhxElS5pJh8
V1cML47Y8S8MLm7aOGspDlw8FndCmcCpi0jQM+WDAoJ1yoBdJPdflx1wvU2k386u
aS5FtXUDP9GFhKd1Hfqn6BA/MkXkEHAgtfAXMlZPRnB44vp30KXzNbQYAfkKLZJX
wCnGYaEIWdTyq3a+hR9vfS76LunBUtwtYVbi78MfuW0Pl1OVO/jOjTO9Kz3yf4Hj
wBJgnz0dh3fh3kEfY+KjbiezUeox3F+r6gg6MQ1XsHF9Dt3OjF8a7guCP5ctxjBX
ksKm/o/kyRd+HRy3PJmAUUvWtqAnPOfKJrvRVudbLGrMPQz3Mp65rnOBFwMge7GV
jZ7y+GjSdQmDkLwx+hvxxrbRb6znem4KJrdS72WK0xEy4aOoqr6zt11Lx5M19k45
hlEB3wKhs71ChAECSibqOswxa/rUU5xQW/h8xeR2LnXqPiCq/W0VDup4McyI9myA
YwMvkT56x3MvnvxI3JfgFdrbmO1sZRNH2sUmCdDWjwjeIxzetT2WBZT6ED7LLSJa
dJG5mls1fZcVfcfSu+WCaQ17AoImiLlN2ONqNLeJWq2QFjYAy+Mx06QLfSa5+8xw
cwvyOkHfCCYGaxg3oZ4KOlAx4bqJSVK+5/XwwcuN1xkJ2VZ/K9nBu5AWz7MAV6z4
dO2OCLYFeB6nsMZg/BDMfDts6Qw7DZHPXtonULoEzMYM88Pd3ScARu21xTmdG63q
kBeH4GEQznYe7K0CcthXNX6ikmrqKlP6CvRFLUfwb/0YHS7RpBvJi2FeIWMDGLrG
G0WLnnG0S23YBj1Vol9f75nbEBBuv6Ri2wdX3d4ODlUUl6EUeGd/zmPgIoUw/t4d
WaLAWdHrhPVvNtrNU7M5Y/TXFK8OAouxDuvIzL0JzbJtpeVc3Mnn/FwoQTvR6D4T
Qz5S1odUKRy1La3b1r70afn7nldriyfxPQY1b1ktsqB2d4aJT7bvfg76MVspTLQg
DWTj9A1FJn6TmJ+sXUidX4y2zuqpDWT1DlAYn3JV+oUvQOY+i+r5TRG8K3RVyQgR
ZFqSlTcZV5b/0QNfpQIgTzsbK2kW9bGQ9V3NS/o5VvAcg7mMM/teVzCbjWtBQU4E
euL1L/UeOXVIZcReyvZkXwz8Ch87wNryF+VAVvox2icFbQkYs1TbOiuV2GKzcAvj
ux1TXqpO8X6YcG7zvmt+YnOzS/AlMxlx923yt2P6l6TAwqO2VN/A7SB0/92/T3tP
Gp6qzXL11dZeN7vLy2m0K6Z2vU6jDU/tnvlXDoARZllbE/GOrt6Nde/etpbeni5H
iY5ks5UYX0Ozxurhz6uZvLiMta1EVo62K+OF7eu97TRV8VXIxeze7LaT0hLK4/eD
fQ86I/kNjr/dxrXk0JJyKqO4Jpkc3+hAs4tZu+WaXHI2YsuqflhjEr3NVjuHBd8N
3x59xNnHH9z0ntmeJj/FMwNL57MIThy4TQ+pbQId803PC2mnLxaKO8J0DFDnJJQi
t/IbZnOeZd7Y3cOfeFoOUptaAtjmtTey+S1+/LbruWHtOQ6kaDriFtOYhPza7lwD
KCyG5gTRhmmWBjXuYiM9RqihLPbVz0C/tgmcliRhX2HSX9ZKTe+Y+8/GU+YF46QV
0xfIUZGduBGClOtj5ATi4McAJkojPb9ygYk3svx4Kw2qz2I53oN0uWa5ETN8UBq/
YFROZUA6PNmfzNDRS3YbpgzOa3TO5G/8ND/OCZTv6zOzFdeDZ0tbIxmNdBGQpJT6
MLf7JsvcwXddLr24FhurAcOJwgdusWwqFCwP5UJzJP1dPy939aPvGxvaY7AkXL5w
anONeTPtPLpuJWtdVX7DApo8o0lPikD/y201FoKx+xhNlsd0gdEqVGsbwPlPvK2e
UvFQyy708m/enT/fi+3+4a0/kLBWQ26Ry5+coVrcHVXC/kVtvPek5eQV86KdfqMb
8LZP5hTGYpUqngSjiItBJWJjjFco6PmREgc8RjgkIhejoUx7ktPYWWmzai8SWHZk
+hzx/JsYJFAvnECYUGLv8V9FMZsrcZOS1qtO6mWDgH+0qdHE+9Tz2T5C8nHogVPB
YftS6UwPiZFtVWRek93de59fXG9KJVtD7EFBZduadF6ohSe66TUpOZZLyIo5cpWs
vntjwMNKXEbxYxGNrIJqz++W1pzu3zKv0fuRm0KfcZBwmwBGF8/gyauh01B7rBrn
1Zv/qi7QvkirLq5mXAkpw9CVoI9TzNhnraqxkuOQGfOzTV9UG9P187uRm08mnANa
H2zfj906ZQ77BAkKrhxcOVk52UYeDwjwezN6ETL/1fc/nQZEFGMzoqhr1M//l526
G/Llgcgbh+Fw5hTzMnQmSq5rwIuMNkvDE59bmzETubZS0lmUvreUv6C2cXTU60Oq
O8FGE6Tl+ik5SoA7Jl9juEQqFfdFPr+rj9vmGlkU2GsT9ZkK7HOblBySvw366mrW
ociviwKQP4yRX+Aaq7ZNhRM6hHcxxXrJ/73RRbXNj1swrMu3akKd07vkDTRPtwQe
FttL2HjJB0hl83J/9x2JXTUtfjZ0ucjKiOarZ8HGiwzU4FkKuEo1XVJKkuz3WjsP
t6Z0Ou/WKR3BYwaYjEb/LX3pq3sZl36XvfpT/exO2Ob3ORl2hidcImRk75JEPJUL
LyYq4kyfH360z9t13AT3FBtvb4s8ayReRYc02Ng8eqxpPGdG/YHwx5F3Pj2BDWfK
OR28xUG8yfp22/GwCz5NjR3ssWMxN43sJcPgUHDA9YPPpMc27cS+/khV2sRemkaw
EyamSKYozVftPH09bEaBK3soh98enlfbv6NLfBgHbHQy0L61xfVE3BMzbRp2RkSu
XBMVagrNTRxEOkTsd6q3v+uS/PUx5QimzZ+C60Wf2JIQj6avO97kVHfiEBSOIODn
IAn/Hl+igkbYu/v6pRA/Z+jfSOeRhPs4C77tLLxPrztpBPw45JfXEm5rSbx1Oss8
iCdEv71T/wErbP5kAHbSrLLaQxj0wpQ/830i6/UOsvQRxEp+WrfbX//9AArOYY4D
2NUwzxi2tDfH6ic+ph0vokKPeow9hJSHLOGs82MRCa6a4BV//kzwPl9fHjAwK7h0
doDsjN07hiX9U2Maho2ZHX+1LObNzzhwqc45aLp0CqTF04eJyZyNdFgb+n5faVgi
XijpnDQ5hG5+XlRpaFD5d6IYqbXkjbmMpF7TRbsM4KxzvTXksuf0Y+/apQl5/NSF
DAAoGBC3f5ljE/UzrmQhJbghJ4h/fwCIBxqLO5Hyn72236+6APqmHnMpAvey9fQH
LAJfXzpDMK6UlYuuQ3HX+Nwr725RAlb/dj+cgg6kUPJ79BwnU/zf9QJ6xjpKzgMC
TkL6WqpvNle8dB/ydAKsDXYMFrzSH/J+BFRU3bCcCaP9X8GPeeF9Wkte529AlPIT
le6XTZLhg6ENw9dBYfKEZCEnf0adra5O+mGeX1m9FRmXGY+WIm9zL/YoXPlFLWKJ
boIkBcNUgvUNendHRN13vGf9MkzJEv9OjqG10j5UUGtHfOhd7764E9KyPf4GZ8xV
5qinf8P3wh1YQWZyWCwMrxf2GC2JuZ7vX/sluIgQSnUYy2uolvCSDD8ztUV8/3nJ
HY/YzhovGdeX+/qqujx25zes4CbUM7KZxKutWHMpqrCBralOvl8wVqkNcxOqF9qZ
wf+gvLY72uPLuhamU9twfC7XdRHqSN5yVy7zg7Cep/spe9Efu/0riHCStFNjCzGz
GrLBdL9XL4noFu6NlzUDE1nIATWw9tLb+Q2bdtSO7wWhsxaXUckMWfgELoKR6Mu2
sHyDiA6n6HB8ehquq1/nMnm5i+E6ZCS0iGeQfSHrAuT3sCNPDZ40dN5uH9h15u61
n+bu2+Tn9KQCJC57mFDYp2bTRtywB6sLi+sDh3zpvMFW3oKfUmuyOaqEttsRBN0X
DFTOwsjg1XQOannlwynG6lJVLFM9FS3/4phKZ68+lYvzBPm/PpMgk2ZL9Swvzezu
3gxRe4c3Kxc4JKwENC8aV3KsxPLDem44teNRyA+zxTgvFT9820n/Y/QrxFb4cyPZ
E2rZPCMtB/uzB4Zh9ZbdrP5VJIw+Hb6ABxwjO3nUe8P1ldgrrvFZ5LHSpsRz3TS3
KzRBLxlj0HH3bCDRHJO9NSEDPrHMD8j1PPw6kbdMTY2AB/Wp1sAWopWgN+Atisls
GMcqYD3cZTat9bOYOUhGPq3DEPuPNafHsHEQSOVO2+g5goczFMHrq0vi1Y3mpRez
2Ijnx4RcejsvgY89U5DzOahFFD5JxrWU4LJLk4eEr0v8Kssv5TNLKPXsffnO2U1r
93WL6Yd7DAbU3kv2Hpn/bCpNlV6v47K8QzPHKTPVvn3rm93iRpHoMfaLyHqOBj7G
3sV8ks23crZw0AKh6k8hnyiFbKWecAk8Pn81mh8HXUbYwZNJoO6z/bfVOCQjClsV
D3Spqy7ZwzWhAd/J4azqzxeFT+rPVFfG3rrpskdGnVfrcK2sIkFTxzFLNyWPbBEa
tPJpxrnkb9MP/S4fAOrlnehPZyVIQtnR0RE8RK1EcAkKaXnoXxm/p3yNsnEmJJJ/
lmmvz6mMEM6w/lTUPkNl0+f9zaWFNqc9DN2u3iOhCbTX0u14ah1xvmKM2ml/J1vk
43hq0SBtkptUOz92tRUcgXe9RiHI+sNr0RHFPnuUPn3VyZHRc4N31tP1Ft3lTFhm
XH+20hCWbuw0Cg09Ni3MH/v0b1ad8+RzQ+iQDhLofRm2fQOYqsc+oxklLd2K73++
D6OQTZ9wU6UIdvNQE6dJabS5TouMd9s9UFXkGMw+rGcJ12z6Fv3dgTWKeMXajTMH
P2en1HNH7lWXCrvZBUgNFaRYLB8Z8Uet8Jn1mnK0htirIkWwlclIZcSKCTyq1lgp
xwUDA8bJompKCrUALbqhqZinYP7YbxSsEMFHtItGUpTA8qwpQ3zyEQ+mRfSwcoEU
VQi+S48CKgNoI8muhWGtE6zdI6vbJS7fpfIuq+sypnLEdUW4NirCTTQ6lvif9NPN
GVQP6T2IC9qfvAvV07OCAHaOst1M3qcmyqgzk323MELkc4wbDRR0wv+zug9xlPrf
P0UpP2i/HwaX5yJYHuon59PoTWK68T/iZIH0nGQJM3vIDMyvdWVCungUKepq+NPg
j/t0MDPf5QTNr60sYJ5eN0aDu5yT4Havco7C8+ngJSIglqIOLvXb8xzJbnVIgF8e
XVU/kUz24c12CTenibyAjqiMu6FSjOrycfPyf+W94g+KPcBuuBIEAifJxTAfEIFL
tdX6YHbd+j0wSg0650hRX59QyOiOYENjyU2uL5NCMiDAhhZdlhQIzxsqBRA+IH8W
PFVScAFkLO1gsmBbNiexINl8f0ddWLjDIBK1Y0RI+UWYSdqmZusDhyJWyIvkzrF0
4T0bLtmh9dYAXkIKfMDtIP52Epb6TUhKSTxIxKwrfYMrQEYo+KCpjEOhLvl4VgRx
K9hFKCs3z2TowX1hDOj7CmS34e4NYE9GVmfEUwUWuwjkN87B1WpLXvhBA0XExTHa
8p7WrQkD7gO9+n6tjS24WcCYhLnawaPj6s2UyNjbeEmAtmGlHE1qThikg2cQlxGj
YXmf6ITOwxXelhZKxdUxzFo5WcdSYjyp7bTNN/IRO73Etek+Gz+KRM9lSyZ91M++
JKwx+6HbjkbCnm/Q7MOCqhb6zZsjrjiV5SMpouUBPm6VblOdvHBvEWi+UHNTDX1t
7axzOHQ/eHxquoPFrg1GLFwE7a5B6TRca5eOoi/ESaZ1HyQCyXNEdGHA/saNMFH7
CLSVofd1f+0u2QS3Und2l8TM3OlPxK5C63/QguC604winB1yOHcEaP/mSH8A9Gb9
XAUK/XwJyjq6uIOK6z2b/ziF805TstqExr4XuEAVr4OALaTuf72kv2MXCfu+2UAV
vNRWUcDP8cca4EmBr1TBhMiEh/yXSWvXAQ5mcsCkaj+LcVGWqpquzNuFInhzwwdM
5MSZE0SRt69sIbuw8Gzf5lPR8H5uku5BaB1H7gv5vxOZ10fXTpByQpb9kNGlO+zY
mQuufwoX+1RglAfMZbAeg9Ofjj4ECAMGcoE2ElVD3wIjovHIbsefq3U+D0x1dJjw
4O8saV4omje/3bGJPoUZMDC3bvKyDIm2VRh9RBv9Lvdv35twZLs7zv3nUIhDNiWE
CWdExQJbrtiIUkJeN6zgyeXacs4yQrbx5RwPwocEnsW/5hcYjqyiX2gCBvYUHd/d
ik27kvGTGsY1Yov2sYCDEwfXTH74l+F6la5TBi7eTS0MJQjiYCrj74D3WYTN2seP
Go3kktpLMCLhrib2CkXIzSU1/E5kKzmd7ncmRjXDaIwZdFbnP1gbMApX1ZdgpGGF
RGGjo0QEAkdiBVG604pNSSS4yQZxAn1SGBy2VXhebvDQfup6xP+ENUhvHaTO1HmE
UKqBLR/V+cYOfKiBH29PKweQnjC/ZYAOr1afDYMt2WQlzcyiXNmCR9nOFA+CwlE3
ceKTNlmkbtDtuvyZmNbr4MKUEYsKSs5doL3pRfatclCOMSrvmgTQ1/9kVlyeTBKt
8Nc0AQFue+Nod8j0zwsDlp/pH14v+0ezS8Mb72N4/8x6ozIxapiVa5hrHg1xjvrL
yuQc6aABCcrGrX858vZ3i/Fi5dIkA5kjhUoSS1N4Kaoi8coK4R1FQU6FRc7/GtYp
m7gHbdDmZiUJ+B80eMQnnM0GiFrKbabzIzEz6Ol+qC6L1dVuVkTNOT/32A+ELeQt
a3X+86kQ1cB1Rub8GDgDwE2WFkpt4eoIoEaJA0Cb/3wrXlhVewps1m2LbSWSv+1o
F+u/J4bsUukQtom7Tm1qCSzGdHBYYWBbPlEIWklaZm5Xj6njddrey5F3wxjc6xqm
EzYjTlLmqAw5Fdsa5WxU2kkUZfxKXsmu0AlbafBqdypyqYn6ZrQcl4MFRX3DaNZ6
PqgUrUX12wmD8Gcrc771/zY0yluA3hRDe7TyZErOFVcb0EEaCd91rSE6XcbHMIq/
q27ZRKhcmDAABLTecMM46n0RO12buWMaS86EcZJi8pfbvmLWkoqCYr8yjeuPTNs6
0T1kAENFQmdt7wB9lorx670CdFMKKt4nqSpFQ1rO/TC/h095JiEMtfFzxZrIuJnJ
raBKm+uXbRdKYo/uva9rQ1MuZdVpzifafOSoRuWb+HXWenAepDsWqoOd1XOHqb7m
/W9qX/ebiKinc0tKEG031VC8lk3kSma3DjS+H8AnpJXeT2Yh4wOq/OCDCRu8HgOL
Lcyn3419HPLPYzTHCbICvF/YF7aS9527YwbAy+PRVpyMUJY352ud+cernK3++hGo
LQ8J5xvGKPcb1KS+n6Nruk0ONNiJNygIA6bVGxX/F0hUi8H09sf6415ZLEgAVpEk
U/jRlxQOC13RQ0iTIqBjrlVIlgfnlGldvtJpXzKmFPM7el/yjqMZvP1UbdeHWZZY
fRX9Rpx1xDui3xyGUdCWmET/Nf0rCIbX8Naf1XlalYLgsn9aHIBGN8zrMeE66Al9
/slzelClFYDMfoiBmKKBuK1VcbBn2LZO5l96+TiQtB9g82ygfvafIBkQWD0r2kNw
aXbU749PDCmDs69wfXr+uMBqLDyxrF5fE23qvn8vMcf9aC+38a7pZes5PywADpk+
w4x5qw7uxrOHDz+9fKCg8nTPBDIenJ64cKEe5Fqnm/aVhF/NIiots67/WPZ0jVf9
PUlZJ64CZNwRxBDKfNKmUGZjDLLoryEzeDmhrfb98snwS/LKa6Qr4oSnQLSC0K7R
0dDaMAzt2l8doY6dHGHYU2Bq4xkbYF9QrFi7pZci1u01UDFHb5nbTdX6Ji3hmg5O
p89BAjF2KOKM0eE+oO59MRcdHMWEl3FoWDKurCXJVZkFlvy2NbqtcjQXVIiWxhN/
VyiywtPiFOBNvcXTf05l5Z37pFpeseEhKk4aPTsIvs1ceyse++q5HvI42TJMDX9F
pPb20uGIMZdkhBE+ZErhr6At00r44D9+JyH6YXObVM4lFPHfo3TgYr+EykMhyY33
CAyAADQx4thkUAxaTPva/HT320ApzX+bc2lwM97jeOawGP4vrGpzrjuwgal2I8s7
Uy7QIRA3kRiwvELri8EkbFsQbJP5ok94dERCWB171WVTEsJErI7s55qfHIH1PfMy
d5HwWO2bw32zO28sckwVD9Pts+LNf4JWRV+V/mA5LWGTY3wR/RtePKreWmTRHJxX
3bMd5vzEkrX5JN/P4k1FRov5GxIxC/Ik4B6wGWoPS0MLl1kwPacPIddEP5igLBxw
M4DDoxbkoviBevmgGM3z12GD67M9Ry+cfkHiGjNO4GaYrePebsr5nf08MvYH3kg2
jduLhtTI47OFMlOZZ9gZ6u1ybLbt4Myz7yuY9/uk0CzH5d2HWbG5CNFxSPLQtXbN
nz/RZ4K1W/5+XOS77N5P8FV+EPZyVJnqwoSnDNd5YVb5kwmvIyTfL1BNkYgtSfpQ
r6OD14UwpgTgci/oU6+uosHL1KkN/ekp3vyxWAd45Uza6y2D89sTA3q8Pr2fIVix
3tGOkdDuiU6+FafjoUd24saGcvsVSPX8THDEAVueGATHPn9W7VfwydTPUSJx1NvH
JF/B9GS4rCEkB1KS9umv+D1iyBYoyWOqRf63W8hnu/K62Szq8mABLyHasEZTLz4e
xYokoabWFvQIoukQieWGM+Y4s8afZAtjvdVNEy9zsNNxquHixQ0aDQ8e6pqD1G/X
pdQh/qhPJS7vv0j3PHtor/Mk9mqIpxJqO1azsyLic8SY7W+wZU9CsnDeOLirVGfb
q10Ul+0UPq0EXcXV6W3c7vy5ihu++ne9vfBE+ZtgA1tHiELTqaOHvlfyRDqVZTFW
rtnclbOUWlxjSEVy/fMWDpjVGmr6Dk9HpQEz7c9/hXL2eLCFrLE8XWzVXIkIrvn0
U6rJNFPuwWhJgxCZpP4jGr6lieG5gUcAqorqF8d8T2m9zwSG4/9bw6XvncbMBO8z
9ET+VbOqomNFAVtspc0K1hs8A9mjdwb558xPBlhbwxa/tr57+HRomimk/iSzpdUk
wB+dut4IM+3qT2QpnS3DnSBXYE02SdQde6eo+7XiYRdlOryEnHNmVrKVZirzztwy
lfrezLwY7W1WmjExm6m7qsLe+ke0bvMyv1VqTVyfJlXzq9+X3mmafpTtZjJjVM5w
fsIeL3axViGCrUhd3SknB+vNCOq/7ANXa8CuDP/EnBVgf563iJIYcZnImHJvni//
HYfjhee66j6pWAfH11yk19V3IlmRVRZH75MEv5Sdf9fqN/teKcvfqJN5hlWMk4V4
4p66slgWe5UYh95RiG5uKyXXVPjf5xahumxDX2UfXeVrVvtMoMqE4mdP/YYBa8vQ
ekzI+9Q/Feh73mXQhKH8yasIeUl18VTkXS1w+Y5Mp1wfchAWNJ+wqzWvYU3xWv3P
+ZzxWIOp35xs4O7kgP3cm2wEv3W3kOE1QuSl561N8weSd/uK1cpltkmLvedM/Rpv
z/8bG90QcdTwpmCYRhyYSPH/EGDESivkroQED1KsVSSw4OxFYAoPuEGcVS43Iay4
Btr3wV5xHMV5P2EKbJ8g+KqoqPdbok2AmjptRauZ+qr/AQ==
=tvj9
-----END PGP MESSAGE-----
