-----BEGIN PGP SIGNATURE-----
Version: GnuPG v1.4.10 (GNU/Linux)

iQIcBAABCAAGBQJPPyLbAAoJENNvdpvBGATwSq8QAKuu8gjhyOo8N+eDXv2hrUhn
sJ37tXC1GW/MypwuBNh+NZ0zlJ3vSf61z4+spm5UZsidjA2o8nsV0phOuH9W43Xz
bV6vQ1THqdnju7TkBN+G6HxrgH9SSoRw+VIgFQnfnzIbWrYmvpPCPGR/R2pSHFi6
r/7+geLUiXg8FAi7tHFyghRmVnmOW0p48Uj/7YG/WDgJLrAwB89zbk9NlA8PGAEx
/osL42w2cwdhQfE3nciQsKIW/IL7oBwMhlT6RE12NTnZNM1PtlP85lcyC2W0lmpx
7okw204mH233jMAXUu/0proJcKc85aVzPVnxhgozudbnncuMZsIc2RwwBUDYhpe9
CngFNnw6m3b/UokepZEin31H5LlOfa1oe21N+w8BfKe3rvF3JXXlkoyLttsq6LK7
0r8d3fBNE4vuwOusdQqHNLx6OsqZCUazHpwoBThgVO0EHNga7TGSlcce5qxjYvNe
4NXdRuedQH63zkttZvXAYMeX+35sbCoSsuZ6VtL153MuaMgJSlvOSmAn7yMnxIrP
HqBT8LqAs3u5wRDhTfUc3M8xIqXAIblnjGCgwafsajSZrZzRtSQjMjl1LkBuyGcy
CvGG2kKkJW6FLwtQdNTLTS2Xpm0VnmhT+o8jgctDCrt4WgkKBUi3SBhv9EDDn5qj
mSPzSKCq40Eb9w6HCGSD
=wHAa
-----END PGP SIGNATURE-----
