-----BEGIN PGP SIGNATURE-----

iQIzBAABCAAdFiEEy43nCpDPv2w79cxWliYqz/vTrsYFAmG/sr0ACgkQliYqz/vT
rsasAA/+NnCebVV+s9sWFz4o/eUuLZCHPw0XMIh8dyfjtQh7ETHxhuP/1I1Qm7Uf
ekpP8Wl+afrsutWAbV9Y65fo2PqvHOZDgWrPEHCr3GPWlwws/KZAV40mhP6P4O1+
AvNo1O2i9D8chkD1KSzRM6i5b6KCEwLo/os2Di2BqopvctsykYUPJdEqRtnZ+syY
5MGyNKPjGBuUBGm/iyyZcl/qsTGXUM3ozlh3L9EsezJ6onr4LyLR/RnaCpmHlpcn
W+BTRL9bm7CNJek/0I9q4GIg2sbfHa6tNL7WAkf/oHmQaKH7F2wMMNmMOZTx/VpV
3tveOe/osSqLfw9FDIt36Rtv83JhNgSAC/2Ju6awKcNu0GXWa8YUHW9MGiS5sU8c
VWMYxHjZTHmkvREpccUb/OJQCIae5P/KimQ2OIey5wd9vqhwx9p2p3HpT5/NbWzA
eVye083FFFr8Ca+LNBTZ3BV/MUEfHU5Xc9Ooc10yldkjpA+wks2Tu3mQCd/s9hIG
QOwLKHuEZhHdNuWcM2JROi1QRinkDRCNrXRxxG1rhK7qRWSEp6ta0Wd70H6UEYLp
rn0XpMDe3+x+K/cV+1Afu0y4DTiu9GS7dfxirwxcRSk5cC7H+qm5uV0/PL7p383F
8kH3zSBQbGa36bABIammFkjmbeZTXNVgbFfqKutWVNOyB4Qv5xE=
=QJto
-----END PGP SIGNATURE-----
