-----BEGIN PGP SIGNATURE-----

iQIcBAABCAAGBQJWXhH0AAoJEE3o/ypjx8yQQqcP/3eKo/DnBOKOVAHV5JBJAfAY
VOclPMILhRLHZLQIQDtLBcjO8jvJO3wnPil7JAIjn/3442motQNblq0DX8S6h/d3
sYwr1tTjdUaRYNoQDfUaGfQvPLculbJIHVp/hH7V8G1d1y9E8hE2QUjgaJ3p9riz
6COuo+TdnnqntLefFDOl6bAk3OZOA7eQ//hc388jPa1koNkezfU8K+lJDEdfKccc
PRAAxlqMQ6vXHrThS4dz4IQ+w/+GOGNRPFxQyHBoFoC56WBeuwEO7D4LGLYfDk1K
SYyea/9tL5OiEPenEz32fnqpadfI4IWtol81TkXn4+oeMZkjwsMyN0VAdKHeQlwS
zKCcydmpaa8tzeJzp74xJnAhY7VRlHa3vwjP5LPcSvuhmDwpEhKsr5GAQaKWtjgq
pEenofdh5O2vRqQnI6MJClQbdUefUiQrrqpuOqgl2pLRi2sYIA2W1PezFNxJm4yU
FPx1oZprKuXQwzxrUW0koqQZ7jpVXN3L5/44HM9EpV5tzIru66XFPZp1TYBmtQoL
eNNdrz2Wc4SkqCB8AZDyYmuMBLj3MqfVXpV+fCFhcjRvI+FfWotj4uHaZ39mZZd8
1b4YXgstxp1kPexmoCx1AIAXjOmL4IxPMYtaIWe9+mcD39t5plYdlCDMJGy8gvaE
s2SHlT5ugh9y0NX6ynd4
=7fnk
-----END PGP SIGNATURE-----
-----BEGIN PGP SIGNATURE-----

iQIcBAABCAAGBQJWXhHHAAoJEAIjoHjb/0tm614P/2B23cBzpmKSQWMlMCFe+khu
RG/sjLjhGybKM1yZLzphu89zkvAi7CiS8i08Vh1sq5vHm2byJgiPIbnJ139tmuNu
RREvahyHqLrxK5DxLPkXT/4IpGlkWqcVTckELGuMAg58XxfJ+0yAnd1FCywIjfhx
sV8SWQz9Y3uyVpa6qz5A5gqXAKR+w1laISzosuP/KKNNIYb4GCfzXNHEbbM2xTrl
noxYN8Od9mwDC8I5PeSA4PDyfWk+QgdLgN6HEhheKw6Efnia5MkeU2yUDcYTI8a6
b+4axztNF/RFn1s2iUuIXCINIMok2si/z+TUb4kdHnsRhWZbOus9thtA5QG9ojT4
RXLsE6u0Lv6EXkliJ4xSzk6hyCZ8qdTNTGhyLOcIpxYz9YyS5DfZXi+N/CAN3wYb
T+g7Z51VxZLtGJ7FJHX8AGp0Cs6C24OwMCmLb632Up7TN8ixq+MoqHvMzgy+FFz3
wnvBPd0VxC6nCZ96ehghc5t1oC/uJOmuJuPcoeeyy3lz0zCrc20xfKFRyJbUJx0f
OFuwItPjFuejhYZiVdsfwBgzf9TBCyrKvNjZoqqvFLG7Eja9x+6DDzBAVdYkW2bF
zPQFer/BKnAB4kAWRHiyxFCLs4e2+p2AV0VXnUI2xxaP0yIPebOOMJ8k1OYqQ5td
swcEvsqH95kpi15JPBT5
=gXVb
-----END PGP SIGNATURE-----
