-----BEGIN PGP SIGNATURE-----

iQIzBAABCAAdFiEEz9yiRbEEPPKl+Xhl/+h0BBaL2EcFAmdQarAACgkQ/+h0BBaL
2EfiWhAAjK7JhgXPmWsL6rYRRsiuDPkFi9+PS5ehuWUTpVgCt+tj0dc0/P1UUXSQ
v4JZj2kPzAwUeC1DRIqqK9iektx/nIO9B7OxOiwNcr+o+zouTtaItBT6MrRQ+s3u
//UURZoCAEYL+QoggbOlC9bzzElQxu2h/PS+QpRSofxBriiJlInLV4TTds/6tYpZ
3Yb54CmabMnDxLPpL5FIZfVEOQ9wxSQHKjLrHhr4ah92rhcKqM1FRECGDj7snp8Q
iB5c+ceFJWHDk7gryMDXB9XZzraIAZTrBg2yHO7dMNr0t69O3GJXnpSMXo/SZBi9
/gO3Li3/FPHrPQPGXcbDmzarwxKWkXS2Tq8jcIWGQCr5zq+TXU1RustEes5MIHZA
VwWjvb7jLvJZdvVtq4LzmhIvtZype6An1hsrp9ytuIG6V8kHuOHNJR5JG14VgTxk
paf0jv7fYmL5ZZpzFvdl6r5lcxEauFMeV0+D98Ww/qdFpw+BQ4VDl2wGISkMeieE
UXoS7OAk57ln3m7qT8588SjccDLoaQ9jetwKfWx0z9fWHMnp4dgYaFgX7b9dNVkV
RnKLrXrsyqMx1F/q35t5bc57lRS9IE9d1SsAKXD8T4FbPo7m1hTSp3Vlxp6SOeIc
dZ2NKiMKqUR/FPHacJkqtNOyIDjj9fuw+4mI6gG0c0o4CG8GX18=
=wu/U
-----END PGP SIGNATURE-----
